(VECTRIC POST REVISION)
(93ED0936BEE5F26550666258809E8C35)
T1
G17
G20
G90
M6 T102
G0Z3.0000
G0X0.0000Y0.0000
M3S18000
G0X10.1940Y10.1318
G0Z0.5000
G0Z0.2000
G1Z-0.0288F15.0
G1Y1.6568F45.0
G1X10.1790
G1Y10.1318
G1X10.1640
G1Y1.6568
G1X10.1490
G1Y10.1318
G1X10.1340
G1Y1.6568
G1X10.1190
G1Y10.1318
G1X10.1040
G1Y1.6568
G1X10.0890
G1Y10.1318
G1X10.0740
G1Y1.6568
G1X10.0590
G1Y10.1318
G1X10.0440
G1Y1.6568
G1X10.0290
G1Y10.1318
G1X10.0140
G1Y1.6568
G1X9.9990
G1Y10.1318
G1X9.9840
G1Y1.6568
G1X9.9690
G1Y10.1318
G1X9.9540
G1Y1.6568
G1X9.9390
G1Y10.1318
G1X9.9240
G1Y1.6568
G1X9.9090
G1Y10.1318
G1X9.8940
G1Y1.6568
G1X9.8790
G1Y10.1318
G1X9.8640
G1Y1.6568
G1X9.8490
G1Y10.1318
G1X9.8340
G1Y1.6568
G1X9.8190
G1Y10.1318
G1X9.8040
G1Y1.6568
G1X9.7890
G1Y10.1318
G1X9.7740
G1Y1.6568
G1X9.7590
G1Y10.1318
G1X9.7440
G1Y1.6568
G1X9.7290
G1Y10.1318
G1X9.7140
G1Y1.6568
G1X9.6990
G1Y10.1318
G1X9.6840
G1Y1.6568
G1X9.6690
G1Y10.1318
G1X9.6540
G1Y1.6568
G1X9.6390
G1Y10.1318
G1X9.6240
G1Y1.6568
G1X9.6090
G1Y10.1318
G1X9.5940
G1Y1.6568
G1X9.5790
G1Y10.1318
G1X9.5640
G1Y1.6568
G1X9.5490
G1Y10.1318
G1X9.5340
G1Y1.6568
G1X9.5190
G1Y10.1318
G1X9.5040
G1Y1.6568
G1X9.4890
G1Y10.1318
G1X9.4740
G1Y1.6568
G1X9.4590
G1Y10.1318
G1X9.4440
G1Y1.6568
G1X9.4290
G1Y10.1318
G1X9.4140
G1Y1.6568
G1X9.3990
G1Y10.1318
G1X9.3840
G1Y1.6568
G1X9.3690
G1Y10.1318
G1X9.3540
G1Y1.6568
G1X9.3390
G1Y10.1318
G1X9.3240
G1Y1.6568
G1X9.3090
G1Y10.1318
G1X9.2940
G1Y1.6568
G1X9.2790
G1Y10.1318
G1X9.2640
G1Y1.6568
G1X9.2490
G1Y10.1318
G1X9.2340
G1Y1.6568
G1X9.2190
G1Y10.1318
G1X9.2040
G1Y1.6568
G1X9.1890
G1Y10.1318
G1X9.1740
G1Y1.6568
G1X9.1590
G1Y10.1318
G1X9.1440
G1Y1.6568
G1X9.1290
G1Y10.1318
G1X9.1140
G1Y1.6568
G1X9.0990
G1Y10.1318
G1X9.0840
G1Y1.6568
G1X9.0690
G1Y10.1318
G1X9.0540
G1Y1.6568
G1X9.0390
G1Y10.1318
G1X9.0240
G1Y1.6568
G1X9.0090
G1Y10.1318
G1X8.9940
G1Y1.6568
G1X8.9790
G1Y10.1318
G1X8.9640
G1Y1.6568
G1X8.9490
G1Y10.1318
G1X8.9340
G1Y1.6568
G1X8.9190
G1Y10.1318
G1X8.9040
G1Y1.6568
G1X8.8890
G1Y10.1318
G1X8.8740
G1Y1.6568
G1X8.8590
G1Y10.1318
G1X8.8440
G1Y1.6568
G1X8.8290
G1Y10.1318
G1X8.8140
G1Y1.6568
G1X8.7990
G1Y10.1318
G1X8.7840
G1Y1.6568
G1X8.7690
G1Y10.1318
G1X8.7540
G1Y1.6568
G1X8.7390
G1Y10.1318
G1X8.7240
G1Y1.6568
G1X8.7090
G1Y10.1318
G1X8.6940
G1Y1.6568
G1X8.6790
G1Y10.1318
G1X8.6640
G1Y1.6568
G1X8.6490
G1Y10.1318
G1X8.6340
G1Y1.6568
G1X8.6190
G1Y10.1318
G1X8.6040
G1Y1.6568
G1X8.5890
G1Y10.1318
G1X8.5740
G1Y1.6568
G1X8.5590
G1Y10.1318
G1X8.5440
G1Y1.6568
G1X8.5290
G1Y10.1318
G1X8.5140
G1Y1.6568
G1X8.4990
G1Y10.1318
G1X8.4840
G1Y1.6568
G1X8.4690
G1Y10.1318
G1X8.4540
G1Y1.6568
G1X8.4390
G1Y10.1318
G1X8.4240
G1Y1.6568
G1X8.4090
G1Y10.1318
G1X8.3940
G1Y1.6568
G1X8.3790
G1Y10.1318
G1X8.3640
G1Y1.6568
G1X8.3490
G1Y10.1318
G1X8.3340
G1Y1.6568
G1X8.3190
G1Y10.1318
G1X8.3040
G1Y1.6568
G1X8.2890
G1Y10.1318
G1X8.2740
G1Y1.6568
G1X8.2590
G1Y10.1318
G1X8.2440
G1Y1.6568
G1X8.2290
G1Y10.1318
G1X8.2140
G1Y1.6568
G1X8.1990
G1Y10.1318
G1X8.1840
G1Y1.6568
G1X8.1690
G1Y10.1318
G1X8.1540
G1Y1.6568
G1X8.1390
G1Y10.1318
G1X8.1240
G1Y1.6568
G1X8.1090
G1Y10.1318
G1X8.0940
G1Y1.6568
G1X8.0790
G1Y10.1318
G1X8.0640
G1Y1.6568
G1X8.0490
G1Y10.1318
G1X8.0340
G1Y1.6568
G1X8.0190
G1Y10.1318
G1X8.0040
G1Y1.6568
G1X7.9890
G1Y10.1318
G1X7.9740
G1Y1.6568
G1X7.9590
G1Y10.1318
G1X7.9440
G1Y1.6568
G1X7.9290
G1Y10.1318
G1X7.9140
G1Y1.6568
G1X7.8990
G1Y10.1318
G1X7.8840
G1Y1.6568
G1X7.8690
G1Y10.1318
G1X7.8540
G1Y1.6568
G1X7.8390
G1Y10.1318
G1X7.8240
G1Y1.6568
G1X7.8090
G1Y10.1318
G1X7.7940
G1Y1.6568
G1X7.7790
G1Y10.1318
G1X7.7640
G1Y1.6568
G1X7.7490
G1Y10.1318
G1X7.7340
G1Y1.6568
G1X7.7190
G1Y10.1318
G1X7.7040
G1Y1.6568
G1X7.6890
G1Y10.1318
G1X7.6740
G1Y1.6568
G1X7.6590
G1Y10.1318
G1X7.6440
G1Y1.6568
G1X7.6290
G1Y10.1318
G1X7.6140
G1Y1.6568
G1X7.5990
G1Y10.1318
G1X7.5840
G1Y1.6568
G1X7.5690
G1Y10.1318
G1X7.5540
G1Y1.6568
G1X7.5390
G1Y10.1318
G1X7.5240
G1Y1.6568
G1X7.5090
G1Y10.1318
G1X7.4940
G1Y1.6568
G1X7.4790
G1Y10.1318
G1X7.4640
G1Y1.6568
G1X7.4490
G1Y10.1318
G1X7.4340
G1Y1.6568
G1X7.4190
G1Y10.1318
G1X7.4040
G1Y1.6568
G1X7.3890
G1Y10.1318
G1X7.3740
G1Y1.6568
G1X7.3590
G1Y10.1318
G1X7.3440
G1Y1.6568
G1X7.3290
G1Y10.1318
G1X7.3140
G1Y1.6568
G1X7.2990
G1Y10.1318
G1X7.2840
G1Y1.6568
G1X7.2690
G1Y10.1318
G1X7.2540
G1Y1.6568
G1X7.2390
G1Y10.1318
G1X7.2240
G1Y1.6568
G1X7.2090
G1Y10.1318
G1X7.1940
G1Y1.6568
G1X7.1790
G1Y10.1318
G1X7.1640
G1Y1.6568
G1X7.1490
G1Y10.1318
G1X7.1340
G1Y1.6568
G1X7.1190
G1Y10.1318
G1X7.1040
G1Y1.6568
G1X7.0890
G1Y10.1318
G1X7.0740
G1Y1.6568
G1X7.0590
G1Y10.1318
G1X7.0440
G1Y1.6568
G1X7.0290
G1Y10.1318
G1X7.0140
G1Y1.6568
G1X6.9990
G1Y10.1318
G1X6.9840
G1Y1.6568
G1X6.9690
G1Y10.1318
G1X6.9540
G1Y1.6568
G1X6.9390
G1Y10.1318
G1X6.9240
G1Y1.6568
G1X6.9090
G1Y10.1318
G1X6.8940
G1Y1.6568
G1X6.8790
G1Y10.1318
G1X6.8640
G1Y1.6568
G1X6.8490
G1Y10.1318
G1X6.8340
G1Y1.6568
G1X6.8190
G1Y10.1318
G1X6.8040
G1Y1.6568
G1X6.7890
G1Y10.1318
G1X6.7740
G1Y1.6568
G1X6.7590
G1Y10.1318
G1X6.7440
G1Y1.6568
G1X6.7290
G1Y10.1318
G1X6.7140
G1Y1.6568
G1X6.6990
G1Y10.1318
G1X6.6840
G1Y1.6568
G1X6.6690
G1Y10.1318
G1X6.6540
G1Y1.6568
G1X6.6390
G1Y10.1318
G1X6.6240
G1Y1.6568
G1X6.6090
G1Y10.1318
G1X6.5940
G1Y1.6568
G1X6.5790
G1Y10.1318
G1X6.5640
G1Y1.6568
G1X6.5490
G1Y10.1318
G1X6.5340
G1Y1.6568
G1X6.5190
G1Y10.1318
G1X6.5040
G1Y1.6568
G1X6.4890
G1Y10.1318
G1X6.4740
G1Y1.6568
G1X6.4590
G1Y10.1318
G1X6.4440
G1Y1.6568
G1X6.4290
G1Y10.1318
G1X6.4140
G1Y1.6568
G1X6.3990
G1Y10.1318
G1X6.3840
G1Y1.6568
G1X6.3690
G1Y10.1318
G1X6.3540
G1Y1.6568
G1X6.3390
G1Y10.1318
G1X6.3240
G1Y1.6568
G1X6.3090
G1Y10.1318
G1X6.2940
G1Y1.6568
G1X6.2790
G1Y10.1318
G1X6.2640
G1Y1.6568
G1X6.2490
G1Y10.1318
G1X6.2340
G1Y1.6568
G1X6.2190
G1Y10.1318
G1X6.2040
G1Y1.6568
G1X6.1890
G1Y10.1318
G1X6.1740
G1Y1.6568
G1X6.1590
G1Y10.1318
G1X6.1440
G1Y1.6568
G1X6.1290
G1Y10.1318
G1X6.1140
G1Y1.6568
G1X6.0990
G1Y10.1318
G1X6.0840
G1Y1.6568
G1X6.0690
G1Y10.1318
G1X6.0540
G1Y1.6568
G1X6.0390
G1Y10.1318
G1X6.0240
G1Y1.6568
G1X6.0090
G1Y10.1318
G1X5.9940
G1Y1.6568
G1X5.9790
G1Y10.1318
G1X5.9640
G1Y1.6568
G1X5.9490
G1Y10.1318
G1X5.9340
G1Y1.6568
G1X5.9190
G1Y10.1318
G1X5.9040
G1Y1.6568
G1X5.8890
G1Y10.1318
G1X5.8740
G1Y1.6568
G1X5.8590
G1Y10.1318
G1X5.8440
G1Y1.6568
G1X5.8290
G1Y10.1318
G1X5.8140
G1Y1.6568
G1X5.7990
G1Y10.1318
G1X5.7840
G1Y1.6568
G1X5.7690
G1Y10.1318
G1X5.7540
G1Y1.6568
G1X5.7390
G1Y10.1318
G1X5.7240
G1Y1.6568
G1X5.7090
G1Y10.1318
G1X5.6940
G1Y1.6568
G1X5.6790
G1Y10.1318
G1X5.6640
G1Y1.6568
G1X5.6490
G1Y10.1318
G1X5.6340
G1Y1.6568
G1X5.6190
G1Y10.1318
G1X5.6040
G1Y1.6568
G1X5.5890
G1Y10.1318
G1X5.5740
G1Y1.6568
G1X5.5590
G1Y10.1318
G1X5.5440
G1Y1.6568
G1X5.5290
G1Y10.1318
G1X5.5140
G1Y1.6568
G1X5.4990
G1Y10.1318
G1X5.4840
G1Y1.6568
G1X5.4690
G1Y10.1318
G1X5.4540
G1Y1.6568
G1X5.4390
G1Y10.1318
G1X5.4240
G1Y1.6568
G1X5.4090
G1Y10.1318
G1X5.3940
G1Y1.6568
G1X5.3790
G1Y10.1318
G1X5.3640
G1Y1.6568
G1X5.3490
G1Y10.1318
G1X5.3340
G1Y1.6568
G1X5.3190
G1Y10.1318
G1X5.3040
G1Y1.6568
G1X5.2890
G1Y10.1318
G1X5.2740
G1Y1.6568
G1X5.2590
G1Y10.1318
G1X5.2440
G1Y1.6568
G1X5.2290
G1Y10.1318
G1X5.2140
G1Y1.6568
G1X5.1990
G1Y10.1318
G1X5.1840
G1Y1.6568
G1X5.1690
G1Y10.1318
G1X5.1540
G1Y1.6568
G1X5.1390
G1Y10.1318
G1X5.1240
G1Y1.6568
G1X5.1090
G1Y10.1318
G1X5.0940
G1Y1.6568
G1X5.0790
G1Y10.1318
G1X5.0640
G1Y1.6568
G1X5.0490
G1Y10.1318
G1X5.0340
G1Y1.6568
G1X5.0190
G1Y10.1318
G1X5.0040
G1Y1.6568
G1X4.9890
G1Y10.1318
G1X4.9740
G1Y1.6568
G1X4.9590
G1Y10.1318
G1X4.9440
G1Y1.6568
G1X4.9290
G1Y10.1318
G1X4.9140
G1Y1.6568
G1X4.8990
G1Y10.1318
G1X4.8840
G1Y1.6568
G1X4.8690
G1Y10.1318
G1X4.8540
G1Y1.6568
G1X4.8390
G1Y10.1318
G1X4.8240
G1Y1.6568
G1X4.8090
G1Y10.1318
G1X4.7940
G1Y1.6568
G1X4.7790
G1Y10.1318
G1X4.7640
G1Y1.6568
G1X4.7490
G1Y10.1318
G1X4.7340
G1Y1.6568
G1X4.7190
G1Y10.1318
G1X4.7040
G1Y1.6568
G1X4.6890
G1Y10.1318
G1X4.6740
G1Y1.6568
G1X4.6590
G1Y10.1318
G1X4.6440
G1Y1.6568
G1X4.6290
G1Y10.1318
G1X4.6140
G1Y1.6568
G1X4.5990
G1Y10.1318
G1X4.5840
G1Y1.6568
G1X4.5690
G1Y10.1318
G1X4.5540
G1Y1.6568
G1X4.5390
G1Y10.1318
G1X4.5240
G1Y1.6568
G1X4.5090
G1Y10.1318
G1X4.4940
G1Y1.6568
G1X4.4790
G1Y10.1318
G1X4.4640
G1Y1.6568
G1X4.4490
G1Y10.1318
G1X4.4340
G1Y1.6568
G1X4.4190
G1Y10.1318
G1X4.4040
G1Y1.6568
G1X4.3890
G1Y10.1318
G1X4.3740
G1Y1.6568
G1X4.3590
G1Y10.1318
G1X4.3440
G1Y1.6568
G1X4.3290
G1Y10.1318
G1X4.3140
G1Y1.6568
G1X4.2990
G1Y10.1318
G1X4.2840
G1Y1.6568
G1X4.2690
G1Y10.1318
G1X4.2540
G1Y1.6568
G1X4.2390
G1Y10.1318
G1X4.2240
G1Y1.6568
G1X4.2090
G1Y10.1318
G1X4.1940
G1Y1.6568
G1X4.1790
G1Y10.1318
G1X4.1640
G1Y1.6568
G1X4.1490
G1Y10.1318
G1X4.1340
G1Y1.6568
G1X4.1190
G1Y10.1318
G1X4.1040
G1Y1.6568
G1X4.0890
G1Y10.1318
G1X4.0740
G1Y1.6568
G1X4.0590
G1Y10.1318
G1X4.0440
G1Y1.6568
G1X4.0290
G1Y10.1318
G1X4.0140
G1Y1.6568
G1X3.9990
G1Y10.1318
G1X3.9840
G1Y1.6568
G1X3.9690
G1Y10.1318
G1X3.9540
G1Y1.6568
G1X3.9390
G1Y10.1318
G1X3.9240
G1Y1.6568
G1X3.9090
G1Y10.1318
G1X3.8940
G1Y1.6568
G1X3.8790
G1Y10.1318
G1X3.8640
G1Y1.6568
G1X3.8490
G1Y10.1318
G1X3.8340
G1Y1.6568
G1X3.8190
G1Y10.1318
G1X3.8040
G1Y1.6568
G1X3.7890
G1Y10.1318
G1X3.7740
G1Y1.6568
G1X3.7590
G1Y10.1318
G1X3.7440
G1Y1.6568
G1X3.7290
G1Y10.1318
G1X3.7140
G1Y1.6568
G1X3.6990
G1Y10.1318
G1X3.6840
G1Y1.6568
G1X3.6690
G1Y10.1318
G1X3.6540
G1Y1.6568
G1X3.6390
G1Y10.1318
G1X3.6240
G1Y1.6568
G1X3.6090
G1Y10.1318
G1X3.5940
G1Y1.6568
G1X3.5790
G1Y10.1318
G1X3.5640
G1Y1.6568
G1X3.5490
G1Y10.1318
G1X3.5340
G1Y1.6568
G1X3.5190
G1Y10.1318
G1X3.5040
G1Y1.6568
G1X3.4890
G1Y10.1318
G1X3.4740
G1Y1.6568
G1X3.4590
G1Y10.1318
G1X3.4440
G1Y1.6568
G1X3.4290
G1Y10.1318
G1X3.4140
G1Y1.6568
G1X3.3990
G1Y10.1318
G1X3.3840
G1Y1.6568
G1X3.3690
G1Y10.1318
G1X3.3540
G1Y1.6568
G1X3.3390
G1Y10.1318
G1X3.3240
G1Y1.6568
G1X3.3090
G1Y10.1318
G1X3.2940
G1Y1.6568
G1X3.2790
G1Y10.1318
G1X3.2640
G1Y1.6568
G1X3.2490
G1Y10.1318
G1X3.2340
G1Y1.6568
G1X3.2190
G1Y10.1318
G1X3.2040
G1Y1.6568
G1X3.1890
G1Y10.1318
G1X3.1740
G1Y1.6568
G1X3.1590
G1Y10.1318
G1X3.1440
G1Y1.6568
G1X3.1290
G1Y10.1318
G1X3.1140
G1Y1.6568
G1X3.0990
G1Y10.1318
G1X3.0840
G1Y1.6568
G1X3.0690
G1Y10.1318
G1X3.0540
G1Y1.6568
G1X3.0390
G1Y10.1318
G1X3.0240
G1Y1.6568
G1X3.0090
G1Y10.1318
G1X2.9940
G1Y1.6568
G1X2.9790
G1Y10.1318
G1X2.9640
G1Y1.6568
G1X2.9490
G1Y10.1318
G1X2.9340
G1Y1.6568
G1X2.9190
G1Y10.1318
G1X2.9040
G1Y1.6568
G1X2.8890
G1Y10.1318
G1X2.8740
G1Y1.6568
G1X2.8590
G1Y10.1318
G1X2.8440
G1Y1.6568
G1X2.8290
G1Y10.1318
G1X2.8140
G1Y1.6568
G1X2.7990
G1Y10.1318
G1X2.7840
G1Y1.6568
G1X2.7690
G1Y10.1318
G1X2.7540
G1Y1.6568
G1X2.7390
G1Y10.1318
G1X2.7240
G1Y1.6568
G1X2.7090
G1Y10.1318
G1X2.6940
G1Y1.6568
G1X2.6790
G1Y10.1318
G1X2.6640
G1Y1.6568
G1X2.6490
G1Y10.1318
G1X2.6340
G1Y1.6568
G1X2.6190
G1Y10.1318
G1X2.6040
G1Y1.6568
G1X2.5890
G1Y10.1318
G1X2.5740
G1Y1.6568
G1X2.5590
G1Y10.1318
G1X2.5440
G1Y1.6568
G1X2.5290
G1Y10.1318
G1X2.5140
G1Y1.6568
G1X2.4990
G1Y10.1318
G1X2.4840
G1Y1.6568
G1X2.4690
G1Y10.1318
G1X2.4540
G1Y1.6568
G1X2.4390
G1Y10.1318
G1X2.4240
G1Y1.6568
G1X2.4090
G1Y10.1318
G1X2.3940
G1Y1.6568
G1X2.3790
G1Y10.1318
G1X2.3640
G1Y1.6568
G1X2.3490
G1Y10.1318
G1X2.3340
G1Y1.6568
G1X2.3191
G1Y10.1318
G1Z-0.0575F15.0
G1Y1.6568F45.0
G1X2.3340
G1Y10.1318
G1X2.3490
G1Y1.6568
G1X2.3640
G1Y10.1318
G1X2.3790
G1Y1.6568
G1X2.3940
G1Y10.1318
G1X2.4090
G1Y1.6568
G1X2.4240
G1Y10.1318
G1X2.4390
G1Y1.6568
G1X2.4540
G1Y10.1318
G1X2.4690
G1Y1.6568
G1X2.4840
G1Y10.1318
G1X2.4990
G1Y1.6568
G1X2.5140
G1Y10.1318
G1X2.5290
G1Y1.6568
G1X2.5440
G1Y10.1318
G1X2.5590
G1Y1.6568
G1X2.5740
G1Y10.1318
G1X2.5890
G1Y1.6568
G1X2.6040
G1Y10.1318
G1X2.6190
G1Y1.6568
G1X2.6340
G1Y10.1318
G1X2.6490
G1Y1.6568
G1X2.6640
G1Y10.1318
G1X2.6790
G1Y1.6568
G1X2.6940
G1Y10.1318
G1X2.7090
G1Y1.6568
G1X2.7240
G1Y10.1318
G1X2.7390
G1Y1.6568
G1X2.7540
G1Y10.1318
G1X2.7690
G1Y1.6568
G1X2.7840
G1Y10.1318
G1X2.7990
G1Y1.6568
G1X2.8140
G1Y10.1318
G1X2.8290
G1Y1.6568
G1X2.8440
G1Y10.1318
G1X2.8590
G1Y1.6568
G1X2.8740
G1Y10.1318
G1X2.8890
G1Y1.6568
G1X2.9040
G1Y10.1318
G1X2.9190
G1Y1.6568
G1X2.9340
G1Y10.1318
G1X2.9490
G1Y1.6568
G1X2.9640
G1Y10.1318
G1X2.9790
G1Y1.6568
G1X2.9940
G1Y10.1318
G1X3.0090
G1Y1.6568
G1X3.0240
G1Y10.1318
G1X3.0390
G1Y1.6568
G1X3.0540
G1Y10.1318
G1X3.0690
G1Y1.6568
G1X3.0840
G1Y10.1318
G1X3.0990
G1Y1.6568
G1X3.1140
G1Y10.1318
G1X3.1290
G1Y1.6568
G1X3.1440
G1Y10.1318
G1X3.1590
G1Y1.6568
G1X3.1740
G1Y10.1318
G1X3.1890
G1Y1.6568
G1X3.2040
G1Y10.1318
G1X3.2190
G1Y1.6568
G1X3.2340
G1Y10.1318
G1X3.2490
G1Y1.6568
G1X3.2640
G1Y10.1318
G1X3.2790
G1Y1.6568
G1X3.2940
G1Y10.1318
G1X3.3090
G1Y1.6568
G1X3.3240
G1Y10.1318
G1X3.3390
G1Y1.6568
G1X3.3540
G1Y10.1318
G1X3.3690
G1Y1.6568
G1X3.3840
G1Y10.1318
G1X3.3990
G1Y1.6568
G1X3.4140
G1Y10.1318
G1X3.4290
G1Y1.6568
G1X3.4440
G1Y10.1318
G1X3.4590
G1Y1.6568
G1X3.4740
G1Y10.1318
G1X3.4890
G1Y1.6568
G1X3.5040
G1Y10.1318
G1X3.5190
G1Y1.6568
G1X3.5340
G1Y10.1318
G1X3.5490
G1Y1.6568
G1X3.5640
G1Y10.1318
G1X3.5790
G1Y1.6568
G1X3.5940
G1Y10.1318
G1X3.6090
G1Y1.6568
G1X3.6240
G1Y10.1318
G1X3.6390
G1Y1.6568
G1X3.6540
G1Y10.1318
G1X3.6690
G1Y1.6568
G1X3.6840
G1Y10.1318
G1X3.6990
G1Y1.6568
G1X3.7140
G1Y10.1318
G1X3.7290
G1Y1.6568
G1X3.7440
G1Y10.1318
G1X3.7590
G1Y1.6568
G1X3.7740
G1Y10.1318
G1X3.7890
G1Y1.6568
G1X3.8040
G1Y10.1318
G1X3.8190
G1Y1.6568
G1X3.8340
G1Y10.1318
G1X3.8490
G1Y1.6568
G1X3.8640
G1Y10.1318
G1X3.8790
G1Y1.6568
G1X3.8940
G1Y10.1318
G1X3.9090
G1Y1.6568
G1X3.9240
G1Y10.1318
G1X3.9390
G1Y1.6568
G1X3.9540
G1Y10.1318
G1X3.9690
G1Y1.6568
G1X3.9840
G1Y10.1318
G1X3.9990
G1Y1.6568
G1X4.0140
G1Y10.1318
G1X4.0290
G1Y1.6568
G1X4.0440
G1Y10.1318
G1X4.0590
G1Y1.6568
G1X4.0740
G1Y10.1318
G1X4.0890
G1Y1.6568
G1X4.1040
G1Y10.1318
G1X4.1190
G1Y1.6568
G1X4.1340
G1Y10.1318
G1X4.1490
G1Y1.6568
G1X4.1640
G1Y10.1318
G1X4.1790
G1Y1.6568
G1X4.1940
G1Y10.1318
G1X4.2090
G1Y1.6568
G1X4.2240
G1Y10.1318
G1X4.2390
G1Y1.6568
G1X4.2540
G1Y10.1318
G1X4.2690
G1Y1.6568
G1X4.2840
G1Y10.1318
G1X4.2990
G1Y1.6568
G1X4.3140
G1Y10.1318
G1X4.3290
G1Y1.6568
G1X4.3440
G1Y10.1318
G1X4.3590
G1Y1.6568
G1X4.3740
G1Y10.1318
G1X4.3890
G1Y1.6568
G1X4.4040
G1Y10.1318
G1X4.4190
G1Y1.6568
G1X4.4340
G1Y10.1318
G1X4.4490
G1Y1.6568
G1X4.4640
G1Y10.1318
G1X4.4790
G1Y1.6568
G1X4.4940
G1Y10.1318
G1X4.5090
G1Y1.6568
G1X4.5240
G1Y10.1318
G1X4.5390
G1Y1.6568
G1X4.5540
G1Y10.1318
G1X4.5690
G1Y1.6568
G1X4.5840
G1Y10.1318
G1X4.5990
G1Y1.6568
G1X4.6140
G1Y10.1318
G1X4.6290
G1Y1.6568
G1X4.6440
G1Y10.1318
G1X4.6590
G1Y1.6568
G1X4.6740
G1Y10.1318
G1X4.6890
G1Y1.6568
G1X4.7040
G1Y10.1318
G1X4.7190
G1Y1.6568
G1X4.7340
G1Y10.1318
G1X4.7490
G1Y1.6568
G1X4.7640
G1Y10.1318
G1X4.7790
G1Y1.6568
G1X4.7940
G1Y10.1318
G1X4.8090
G1Y1.6568
G1X4.8240
G1Y10.1318
G1X4.8390
G1Y1.6568
G1X4.8540
G1Y10.1318
G1X4.8690
G1Y1.6568
G1X4.8840
G1Y10.1318
G1X4.8990
G1Y1.6568
G1X4.9140
G1Y10.1318
G1X4.9290
G1Y1.6568
G1X4.9440
G1Y10.1318
G1X4.9590
G1Y1.6568
G1X4.9740
G1Y10.1318
G1X4.9890
G1Y1.6568
G1X5.0040
G1Y10.1318
G1X5.0190
G1Y1.6568
G1X5.0340
G1Y10.1318
G1X5.0490
G1Y1.6568
G1X5.0640
G1Y10.1318
G1X5.0790
G1Y1.6568
G1X5.0940
G1Y10.1318
G1X5.1090
G1Y1.6568
G1X5.1240
G1Y10.1318
G1X5.1390
G1Y1.6568
G1X5.1540
G1Y10.1318
G1X5.1690
G1Y1.6568
G1X5.1840
G1Y10.1318
G1X5.1990
G1Y1.6568
G1X5.2140
G1Y10.1318
G1X5.2290
G1Y1.6568
G1X5.2440
G1Y10.1318
G1X5.2590
G1Y1.6568
G1X5.2740
G1Y10.1318
G1X5.2890
G1Y1.6568
G1X5.3040
G1Y10.1318
G1X5.3190
G1Y1.6568
G1X5.3340
G1Y10.1318
G1X5.3490
G1Y1.6568
G1X5.3640
G1Y10.1318
G1X5.3790
G1Y1.6568
G1X5.3940
G1Y10.1318
G1X5.4090
G1Y1.6568
G1X5.4240
G1Y10.1318
G1X5.4390
G1Y1.6568
G1X5.4540
G1Y10.1318
G1X5.4690
G1Y1.6568
G1X5.4840
G1Y10.1318
G1X5.4990
G1Y1.6568
G1X5.5140
G1Y10.1318
G1X5.5290
G1Y1.6568
G1X5.5440
G1Y10.1318
G1X5.5590
G1Y1.6568
G1X5.5740
G1Y10.1318
G1X5.5890
G1Y1.6568
G1X5.6040
G1Y10.1318
G1X5.6190
G1Y1.6568
G1X5.6340
G1Y10.1318
G1X5.6490
G1Y1.6568
G1X5.6640
G1Y10.1318
G1X5.6790
G1Y1.6568
G1X5.6940
G1Y10.1318
G1X5.7090
G1Y1.6568
G1X5.7240
G1Y10.1318
G1X5.7390
G1Y1.6568
G1X5.7540
G1Y10.1318
G1X5.7690
G1Y1.6568
G1X5.7840
G1Y10.1318
G1X5.7990
G1Y1.6568
G1X5.8140
G1Y10.1318
G1X5.8290
G1Y1.6568
G1X5.8440
G1Y10.1318
G1X5.8590
G1Y1.6568
G1X5.8740
G1Y10.1318
G1X5.8890
G1Y1.6568
G1X5.9040
G1Y10.1318
G1X5.9190
G1Y1.6568
G1X5.9340
G1Y10.1318
G1X5.9490
G1Y1.6568
G1X5.9640
G1Y10.1318
G1X5.9790
G1Y1.6568
G1X5.9940
G1Y10.1318
G1X6.0090
G1Y1.6568
G1X6.0240
G1Y10.1318
G1X6.0390
G1Y1.6568
G1X6.0540
G1Y10.1318
G1X6.0690
G1Y1.6568
G1X6.0840
G1Y10.1318
G1X6.0990
G1Y1.6568
G1X6.1140
G1Y10.1318
G1X6.1290
G1Y1.6568
G1X6.1440
G1Y10.1318
G1X6.1590
G1Y1.6568
G1X6.1740
G1Y10.1318
G1X6.1890
G1Y1.6568
G1X6.2040
G1Y10.1318
G1X6.2190
G1Y1.6568
G1X6.2340
G1Y10.1318
G1X6.2490
G1Y1.6568
G1X6.2640
G1Y10.1318
G1X6.2790
G1Y1.6568
G1X6.2940
G1Y10.1318
G1X6.3090
G1Y1.6568
G1X6.3240
G1Y10.1318
G1X6.3390
G1Y1.6568
G1X6.3540
G1Y10.1318
G1X6.3690
G1Y1.6568
G1X6.3840
G1Y10.1318
G1X6.3990
G1Y1.6568
G1X6.4140
G1Y10.1318
G1X6.4290
G1Y1.6568
G1X6.4440
G1Y10.1318
G1X6.4590
G1Y1.6568
G1X6.4740
G1Y10.1318
G1X6.4890
G1Y1.6568
G1X6.5040
G1Y10.1318
G1X6.5190
G1Y1.6568
G1X6.5340
G1Y10.1318
G1X6.5490
G1Y1.6568
G1X6.5640
G1Y10.1318
G1X6.5790
G1Y1.6568
G1X6.5940
G1Y10.1318
G1X6.6090
G1Y1.6568
G1X6.6240
G1Y10.1318
G1X6.6390
G1Y1.6568
G1X6.6540
G1Y10.1318
G1X6.6690
G1Y1.6568
G1X6.6840
G1Y10.1318
G1X6.6990
G1Y1.6568
G1X6.7140
G1Y10.1318
G1X6.7290
G1Y1.6568
G1X6.7440
G1Y10.1318
G1X6.7590
G1Y1.6568
G1X6.7740
G1Y10.1318
G1X6.7890
G1Y1.6568
G1X6.8040
G1Y10.1318
G1X6.8190
G1Y1.6568
G1X6.8340
G1Y10.1318
G1X6.8490
G1Y1.6568
G1X6.8640
G1Y10.1318
G1X6.8790
G1Y1.6568
G1X6.8940
G1Y10.1318
G1X6.9090
G1Y1.6568
G1X6.9240
G1Y10.1318
G1X6.9390
G1Y1.6568
G1X6.9540
G1Y10.1318
G1X6.9690
G1Y1.6568
G1X6.9840
G1Y10.1318
G1X6.9990
G1Y1.6568
G1X7.0140
G1Y10.1318
G1X7.0290
G1Y1.6568
G1X7.0440
G1Y10.1318
G1X7.0590
G1Y1.6568
G1X7.0740
G1Y10.1318
G1X7.0890
G1Y1.6568
G1X7.1040
G1Y10.1318
G1X7.1190
G1Y1.6568
G1X7.1340
G1Y10.1318
G1X7.1490
G1Y1.6568
G1X7.1640
G1Y10.1318
G1X7.1790
G1Y1.6568
G1X7.1940
G1Y10.1318
G1X7.2090
G1Y1.6568
G1X7.2240
G1Y10.1318
G1X7.2390
G1Y1.6568
G1X7.2540
G1Y10.1318
G1X7.2690
G1Y1.6568
G1X7.2840
G1Y10.1318
G1X7.2990
G1Y1.6568
G1X7.3140
G1Y10.1318
G1X7.3290
G1Y1.6568
G1X7.3440
G1Y10.1318
G1X7.3590
G1Y1.6568
G1X7.3740
G1Y10.1318
G1X7.3890
G1Y1.6568
G1X7.4040
G1Y10.1318
G1X7.4190
G1Y1.6568
G1X7.4340
G1Y10.1318
G1X7.4490
G1Y1.6568
G1X7.4640
G1Y10.1318
G1X7.4790
G1Y1.6568
G1X7.4940
G1Y10.1318
G1X7.5090
G1Y1.6568
G1X7.5240
G1Y10.1318
G1X7.5390
G1Y1.6568
G1X7.5540
G1Y10.1318
G1X7.5690
G1Y1.6568
G1X7.5840
G1Y10.1318
G1X7.5990
G1Y1.6568
G1X7.6140
G1Y10.1318
G1X7.6290
G1Y1.6568
G1X7.6440
G1Y10.1318
G1X7.6590
G1Y1.6568
G1X7.6740
G1Y10.1318
G1X7.6890
G1Y1.6568
G1X7.7040
G1Y10.1318
G1X7.7190
G1Y1.6568
G1X7.7340
G1Y10.1318
G1X7.7490
G1Y1.6568
G1X7.7640
G1Y10.1318
G1X7.7790
G1Y1.6568
G1X7.7940
G1Y10.1318
G1X7.8090
G1Y1.6568
G1X7.8240
G1Y10.1318
G1X7.8390
G1Y1.6568
G1X7.8540
G1Y10.1318
G1X7.8690
G1Y1.6568
G1X7.8840
G1Y10.1318
G1X7.8990
G1Y1.6568
G1X7.9140
G1Y10.1318
G1X7.9290
G1Y1.6568
G1X7.9440
G1Y10.1318
G1X7.9590
G1Y1.6568
G1X7.9740
G1Y10.1318
G1X7.9890
G1Y1.6568
G1X8.0040
G1Y10.1318
G1X8.0190
G1Y1.6568
G1X8.0340
G1Y10.1318
G1X8.0490
G1Y1.6568
G1X8.0640
G1Y10.1318
G1X8.0790
G1Y1.6568
G1X8.0940
G1Y10.1318
G1X8.1090
G1Y1.6568
G1X8.1240
G1Y10.1318
G1X8.1390
G1Y1.6568
G1X8.1540
G1Y10.1318
G1X8.1690
G1Y1.6568
G1X8.1840
G1Y10.1318
G1X8.1990
G1Y1.6568
G1X8.2140
G1Y10.1318
G1X8.2290
G1Y1.6568
G1X8.2440
G1Y10.1318
G1X8.2590
G1Y1.6568
G1X8.2740
G1Y10.1318
G1X8.2890
G1Y1.6568
G1X8.3040
G1Y10.1318
G1X8.3190
G1Y1.6568
G1X8.3340
G1Y10.1318
G1X8.3490
G1Y1.6568
G1X8.3640
G1Y10.1318
G1X8.3790
G1Y1.6568
G1X8.3940
G1Y10.1318
G1X8.4090
G1Y1.6568
G1X8.4240
G1Y10.1318
G1X8.4390
G1Y1.6568
G1X8.4540
G1Y10.1318
G1X8.4690
G1Y1.6568
G1X8.4840
G1Y10.1318
G1X8.4990
G1Y1.6568
G1X8.5140
G1Y10.1318
G1X8.5290
G1Y1.6568
G1X8.5440
G1Y10.1318
G1X8.5590
G1Y1.6568
G1X8.5740
G1Y10.1318
G1X8.5890
G1Y1.6568
G1X8.6040
G1Y10.1318
G1X8.6190
G1Y1.6568
G1X8.6340
G1Y10.1318
G1X8.6490
G1Y1.6568
G1X8.6640
G1Y10.1318
G1X8.6790
G1Y1.6568
G1X8.6940
G1Y10.1318
G1X8.7090
G1Y1.6568
G1X8.7240
G1Y10.1318
G1X8.7390
G1Y1.6568
G1X8.7540
G1Y10.1318
G1X8.7690
G1Y1.6568
G1X8.7840
G1Y10.1318
G1X8.7990
G1Y1.6568
G1X8.8140
G1Y10.1318
G1X8.8290
G1Y1.6568
G1X8.8440
G1Y10.1318
G1X8.8590
G1Y1.6568
G1X8.8740
G1Y10.1318
G1X8.8890
G1Y1.6568
G1X8.9040
G1Y10.1318
G1X8.9190
G1Y1.6568
G1X8.9340
G1Y10.1318
G1X8.9490
G1Y1.6568
G1X8.9640
G1Y10.1318
G1X8.9790
G1Y1.6568
G1X8.9940
G1Y10.1318
G1X9.0090
G1Y1.6568
G1X9.0240
G1Y10.1318
G1X9.0390
G1Y1.6568
G1X9.0540
G1Y10.1318
G1X9.0690
G1Y1.6568
G1X9.0840
G1Y10.1318
G1X9.0990
G1Y1.6568
G1X9.1140
G1Y10.1318
G1X9.1290
G1Y1.6568
G1X9.1440
G1Y10.1318
G1X9.1590
G1Y1.6568
G1X9.1740
G1Y10.1318
G1X9.1890
G1Y1.6568
G1X9.2040
G1Y10.1318
G1X9.2190
G1Y1.6568
G1X9.2340
G1Y10.1318
G1X9.2490
G1Y1.6568
G1X9.2640
G1Y10.1318
G1X9.2790
G1Y1.6568
G1X9.2940
G1Y10.1318
G1X9.3090
G1Y1.6568
G1X9.3240
G1Y10.1318
G1X9.3390
G1Y1.6568
G1X9.3540
G1Y10.1318
G1X9.3690
G1Y1.6568
G1X9.3840
G1Y10.1318
G1X9.3990
G1Y1.6568
G1X9.4140
G1Y10.1318
G1X9.4290
G1Y1.6568
G1X9.4440
G1Y10.1318
G1X9.4590
G1Y1.6568
G1X9.4740
G1Y10.1318
G1X9.4890
G1Y1.6568
G1X9.5040
G1Y10.1318
G1X9.5190
G1Y1.6568
G1X9.5340
G1Y10.1318
G1X9.5490
G1Y1.6568
G1X9.5640
G1Y10.1318
G1X9.5790
G1Y1.6568
G1X9.5940
G1Y10.1318
G1X9.6090
G1Y1.6568
G1X9.6240
G1Y10.1318
G1X9.6390
G1Y1.6568
G1X9.6540
G1Y10.1318
G1X9.6690
G1Y1.6568
G1X9.6840
G1Y10.1318
G1X9.6990
G1Y1.6568
G1X9.7140
G1Y10.1318
G1X9.7290
G1Y1.6568
G1X9.7440
G1Y10.1318
G1X9.7590
G1Y1.6568
G1X9.7740
G1Y10.1318
G1X9.7890
G1Y1.6568
G1X9.8040
G1Y10.1318
G1X9.8190
G1Y1.6568
G1X9.8340
G1Y10.1318
G1X9.8490
G1Y1.6568
G1X9.8640
G1Y10.1318
G1X9.8790
G1Y1.6568
G1X9.8940
G1Y10.1318
G1X9.9090
G1Y1.6568
G1X9.9240
G1Y10.1318
G1X9.9390
G1Y1.6568
G1X9.9540
G1Y10.1318
G1X9.9690
G1Y1.6568
G1X9.9840
G1Y10.1318
G1X9.9990
G1Y1.6568
G1X10.0140
G1Y10.1318
G1X10.0290
G1Y1.6568
G1X10.0440
G1Y10.1318
G1X10.0590
G1Y1.6568
G1X10.0740
G1Y10.1318
G1X10.0890
G1Y1.6568
G1X10.1040
G1Y10.1318
G1X10.1190
G1Y1.6568
G1X10.1340
G1Y10.1318
G1X10.1490
G1Y1.6568
G1X10.1640
G1Y10.1318
G1X10.1790
G1Y1.6568
G1X10.1940
G1Y10.1318
G1Z-0.0862F15.0
G1Y1.6568F45.0
G1X10.1790
G1Y10.1318
G1X10.1640
G1Y1.6568
G1X10.1490
G1Y10.1318
G1X10.1340
G1Y1.6568
G1X10.1190
G1Y10.1318
G1X10.1040
G1Y1.6568
G1X10.0890
G1Y10.1318
G1X10.0740
G1Y1.6568
G1X10.0590
G1Y10.1318
G1X10.0440
G1Y1.6568
G1X10.0290
G1Y10.1318
G1X10.0140
G1Y1.6568
G1X9.9990
G1Y10.1318
G1X9.9840
G1Y1.6568
G1X9.9690
G1Y10.1318
G1X9.9540
G1Y1.6568
G1X9.9390
G1Y10.1318
G1X9.9240
G1Y1.6568
G1X9.9090
G1Y10.1318
G1X9.8940
G1Y1.6568
G1X9.8790
G1Y10.1318
G1X9.8640
G1Y1.6568
G1X9.8490
G1Y10.1318
G1X9.8340
G1Y1.6568
G1X9.8190
G1Y10.1318
G1X9.8040
G1Y1.6568
G1X9.7890
G1Y10.1318
G1X9.7740
G1Y1.6568
G1X9.7590
G1Y10.1318
G1X9.7440
G1Y1.6568
G1X9.7290
G1Y10.1318
G1X9.7140
G1Y1.6568
G1X9.6990
G1Y10.1318
G1X9.6840
G1Y1.6568
G1X9.6690
G1Y10.1318
G1X9.6540
G1Y1.6568
G1X9.6390
G1Y10.1318
G1X9.6240
G1Y1.6568
G1X9.6090
G1Y10.1318
G1X9.5940
G1Y1.6568
G1X9.5790
G1Y10.1318
G1X9.5640
G1Y1.6568
G1X9.5490
G1Y10.1318
G1X9.5340
G1Y1.6568
G1X9.5190
G1Y10.1318
G1X9.5040
G1Y1.6568
G1X9.4890
G1Y10.1318
G1X9.4740
G1Y1.6568
G1X9.4590
G1Y10.1318
G1X9.4440
G1Y1.6568
G1X9.4290
G1Y10.1318
G1X9.4140
G1Y1.6568
G1X9.3990
G1Y10.1318
G1X9.3840
G1Y1.6568
G1X9.3690
G1Y10.1318
G1X9.3540
G1Y1.6568
G1X9.3390
G1Y10.1318
G1X9.3240
G1Y1.6568
G1X9.3090
G1Y10.1318
G1X9.2940
G1Y1.6568
G1X9.2790
G1Y10.1318
G1X9.2640
G1Y1.6568
G1X9.2490
G1Y10.1318
G1X9.2340
G1Y1.6568
G1X9.2190
G1Y10.1318
G1X9.2040
G1Y1.6568
G1X9.1890
G1Y10.1318
G1X9.1740
G1Y1.6568
G1X9.1590
G1Y10.1318
G1X9.1440
G1Y1.6568
G1X9.1290
G1Y10.1318
G1X9.1140
G1Y1.6568
G1X9.0990
G1Y10.1318
G1X9.0840
G1Y1.6568
G1X9.0690
G1Y10.1318
G1X9.0540
G1Y1.6568
G1X9.0390
G1Y10.1318
G1X9.0240
G1Y1.6568
G1X9.0090
G1Y10.1318
G1X8.9940
G1Y1.6568
G1X8.9790
G1Y10.1318
G1X8.9640
G1Y1.6568
G1X8.9490
G1Y10.1318
G1X8.9340
G1Y1.6568
G1X8.9190
G1Y10.1318
G1X8.9040
G1Y1.6568
G1X8.8890
G1Y10.1318
G1X8.8740
G1Y1.6568
G1X8.8590
G1Y10.1318
G1X8.8440
G1Y1.6568
G1X8.8290
G1Y10.1318
G1X8.8140
G1Y1.6568
G1X8.7990
G1Y10.1318
G1X8.7840
G1Y1.6568
G1X8.7690
G1Y10.1318
G1X8.7540
G1Y1.6568
G1X8.7390
G1Y10.1318
G1X8.7240
G1Y1.6568
G1X8.7090
G1Y10.1318
G1X8.6940
G1Y1.6568
G1X8.6790
G1Y10.1318
G1X8.6640
G1Y1.6568
G1X8.6490
G1Y10.1318
G1X8.6340
G1Y1.6568
G1X8.6190
G1Y10.1318
G1X8.6040
G1Y1.6568
G1X8.5890
G1Y10.1318
G1X8.5740
G1Y1.6568
G1X8.5590
G1Y10.1318
G1X8.5440
G1Y1.6568
G1X8.5290
G1Y10.1318
G1X8.5140
G1Y1.6568
G1X8.4990
G1Y10.1318
G1X8.4840
G1Y1.6568
G1X8.4690
G1Y10.1318
G1X8.4540
G1Y1.6568
G1X8.4390
G1Y10.1318
G1X8.4240
G1Y1.6568
G1X8.4090
G1Y10.1318
G1X8.3940
G1Y1.6568
G1X8.3790
G1Y10.1318
G1X8.3640
G1Y1.6568
G1X8.3490
G1Y10.1318
G1X8.3340
G1Y1.6568
G1X8.3190
G1Y10.1318
G1X8.3040
G1Y1.6568
G1X8.2890
G1Y10.1318
G1X8.2740
G1Y1.6568
G1X8.2590
G1Y10.1318
G1X8.2440
G1Y1.6568
G1X8.2290
G1Y10.1318
G1X8.2140
G1Y1.6568
G1X8.1990
G1Y10.1318
G1X8.1840
G1Y1.6568
G1X8.1690
G1Y10.1318
G1X8.1540
G1Y1.6568
G1X8.1390
G1Y10.1318
G1X8.1240
G1Y1.6568
G1X8.1090
G1Y10.1318
G1X8.0940
G1Y1.6568
G1X8.0790
G1Y10.1318
G1X8.0640
G1Y1.6568
G1X8.0490
G1Y10.1318
G1X8.0340
G1Y1.6568
G1X8.0190
G1Y10.1318
G1X8.0040
G1Y1.6568
G1X7.9890
G1Y10.1318
G1X7.9740
G1Y1.6568
G1X7.9590
G1Y10.1318
G1X7.9440
G1Y1.6568
G1X7.9290
G1Y10.1318
G1X7.9140
G1Y1.6568
G1X7.8990
G1Y10.1318
G1X7.8840
G1Y1.6568
G1X7.8690
G1Y10.1318
G1X7.8540
G1Y1.6568
G1X7.8390
G1Y10.1318
G1X7.8240
G1Y1.6568
G1X7.8090
G1Y10.1318
G1X7.7940
G1Y1.6568
G1X7.7790
G1Y10.1318
G1X7.7640
G1Y1.6568
G1X7.7490
G1Y10.1318
G1X7.7340
G1Y1.6568
G1X7.7190
G1Y10.1318
G1X7.7040
G1Y1.6568
G1X7.6890
G1Y10.1318
G1X7.6740
G1Y1.6568
G1X7.6590
G1Y10.1318
G1X7.6440
G1Y1.6568
G1X7.6290
G1Y10.1318
G1X7.6140
G1Y1.6568
G1X7.5990
G1Y10.1318
G1X7.5840
G1Y1.6568
G1X7.5690
G1Y10.1318
G1X7.5540
G1Y1.6568
G1X7.5390
G1Y10.1318
G1X7.5240
G1Y1.6568
G1X7.5090
G1Y10.1318
G1X7.4940
G1Y1.6568
G1X7.4790
G1Y10.1318
G1X7.4640
G1Y1.6568
G1X7.4490
G1Y10.1318
G1X7.4340
G1Y1.6568
G1X7.4190
G1Y10.1318
G1X7.4040
G1Y1.6568
G1X7.3890
G1Y10.1318
G1X7.3740
G1Y1.6568
G1X7.3590
G1Y10.1318
G1X7.3440
G1Y1.6568
G1X7.3290
G1Y10.1318
G1X7.3140
G1Y1.6568
G1X7.2990
G1Y10.1318
G1X7.2840
G1Y1.6568
G1X7.2690
G1Y10.1318
G1X7.2540
G1Y1.6568
G1X7.2390
G1Y10.1318
G1X7.2240
G1Y1.6568
G1X7.2090
G1Y10.1318
G1X7.1940
G1Y1.6568
G1X7.1790
G1Y10.1318
G1X7.1640
G1Y1.6568
G1X7.1490
G1Y10.1318
G1X7.1340
G1Y1.6568
G1X7.1190
G1Y10.1318
G1X7.1040
G1Y1.6568
G1X7.0890
G1Y10.1318
G1X7.0740
G1Y1.6568
G1X7.0590
G1Y10.1318
G1X7.0440
G1Y1.6568
G1X7.0290
G1Y10.1318
G1X7.0140
G1Y1.6568
G1X6.9990
G1Y10.1318
G1X6.9840
G1Y1.6568
G1X6.9690
G1Y10.1318
G1X6.9540
G1Y1.6568
G1X6.9390
G1Y10.1318
G1X6.9240
G1Y1.6568
G1X6.9090
G1Y10.1318
G1X6.8940
G1Y1.6568
G1X6.8790
G1Y10.1318
G1X6.8640
G1Y1.6568
G1X6.8490
G1Y10.1318
G1X6.8340
G1Y1.6568
G1X6.8190
G1Y10.1318
G1X6.8040
G1Y1.6568
G1X6.7890
G1Y10.1318
G1X6.7740
G1Y1.6568
G1X6.7590
G1Y10.1318
G1X6.7440
G1Y1.6568
G1X6.7290
G1Y10.1318
G1X6.7140
G1Y1.6568
G1X6.6990
G1Y10.1318
G1X6.6840
G1Y1.6568
G1X6.6690
G1Y10.1318
G1X6.6540
G1Y1.6568
G1X6.6390
G1Y10.1318
G1X6.6240
G1Y1.6568
G1X6.6090
G1Y10.1318
G1X6.5940
G1Y1.6568
G1X6.5790
G1Y10.1318
G1X6.5640
G1Y1.6568
G1X6.5490
G1Y10.1318
G1X6.5340
G1Y1.6568
G1X6.5190
G1Y10.1318
G1X6.5040
G1Y1.6568
G1X6.4890
G1Y10.1318
G1X6.4740
G1Y1.6568
G1X6.4590
G1Y10.1318
G1X6.4440
G1Y1.6568
G1X6.4290
G1Y10.1318
G1X6.4140
G1Y1.6568
G1X6.3990
G1Y10.1318
G1X6.3840
G1Y1.6568
G1X6.3690
G1Y10.1318
G1X6.3540
G1Y1.6568
G1X6.3390
G1Y10.1318
G1X6.3240
G1Y1.6568
G1X6.3090
G1Y10.1318
G1X6.2940
G1Y1.6568
G1X6.2790
G1Y10.1318
G1X6.2640
G1Y1.6568
G1X6.2490
G1Y10.1318
G1X6.2340
G1Y1.6568
G1X6.2190
G1Y10.1318
G1X6.2040
G1Y1.6568
G1X6.1890
G1Y10.1318
G1X6.1740
G1Y1.6568
G1X6.1590
G1Y10.1318
G1X6.1440
G1Y1.6568
G1X6.1290
G1Y10.1318
G1X6.1140
G1Y1.6568
G1X6.0990
G1Y10.1318
G1X6.0840
G1Y1.6568
G1X6.0690
G1Y10.1318
G1X6.0540
G1Y1.6568
G1X6.0390
G1Y10.1318
G1X6.0240
G1Y1.6568
G1X6.0090
G1Y10.1318
G1X5.9940
G1Y1.6568
G1X5.9790
G1Y10.1318
G1X5.9640
G1Y1.6568
G1X5.9490
G1Y10.1318
G1X5.9340
G1Y1.6568
G1X5.9190
G1Y10.1318
G1X5.9040
G1Y1.6568
G1X5.8890
G1Y10.1318
G1X5.8740
G1Y1.6568
G1X5.8590
G1Y10.1318
G1X5.8440
G1Y1.6568
G1X5.8290
G1Y10.1318
G1X5.8140
G1Y1.6568
G1X5.7990
G1Y10.1318
G1X5.7840
G1Y1.6568
G1X5.7690
G1Y10.1318
G1X5.7540
G1Y1.6568
G1X5.7390
G1Y10.1318
G1X5.7240
G1Y1.6568
G1X5.7090
G1Y10.1318
G1X5.6940
G1Y1.6568
G1X5.6790
G1Y10.1318
G1X5.6640
G1Y1.6568
G1X5.6490
G1Y10.1318
G1X5.6340
G1Y1.6568
G1X5.6190
G1Y10.1318
G1X5.6040
G1Y1.6568
G1X5.5890
G1Y10.1318
G1X5.5740
G1Y1.6568
G1X5.5590
G1Y10.1318
G1X5.5440
G1Y1.6568
G1X5.5290
G1Y10.1318
G1X5.5140
G1Y1.6568
G1X5.4990
G1Y10.1318
G1X5.4840
G1Y1.6568
G1X5.4690
G1Y10.1318
G1X5.4540
G1Y1.6568
G1X5.4390
G1Y10.1318
G1X5.4240
G1Y1.6568
G1X5.4090
G1Y10.1318
G1X5.3940
G1Y1.6568
G1X5.3790
G1Y10.1318
G1X5.3640
G1Y1.6568
G1X5.3490
G1Y10.1318
G1X5.3340
G1Y1.6568
G1X5.3190
G1Y10.1318
G1X5.3040
G1Y1.6568
G1X5.2890
G1Y10.1318
G1X5.2740
G1Y1.6568
G1X5.2590
G1Y10.1318
G1X5.2440
G1Y1.6568
G1X5.2290
G1Y10.1318
G1X5.2140
G1Y1.6568
G1X5.1990
G1Y10.1318
G1X5.1840
G1Y1.6568
G1X5.1690
G1Y10.1318
G1X5.1540
G1Y1.6568
G1X5.1390
G1Y10.1318
G1X5.1240
G1Y1.6568
G1X5.1090
G1Y10.1318
G1X5.0940
G1Y1.6568
G1X5.0790
G1Y10.1318
G1X5.0640
G1Y1.6568
G1X5.0490
G1Y10.1318
G1X5.0340
G1Y1.6568
G1X5.0190
G1Y10.1318
G1X5.0040
G1Y1.6568
G1X4.9890
G1Y10.1318
G1X4.9740
G1Y1.6568
G1X4.9590
G1Y10.1318
G1X4.9440
G1Y1.6568
G1X4.9290
G1Y10.1318
G1X4.9140
G1Y1.6568
G1X4.8990
G1Y10.1318
G1X4.8840
G1Y1.6568
G1X4.8690
G1Y10.1318
G1X4.8540
G1Y1.6568
G1X4.8390
G1Y10.1318
G1X4.8240
G1Y1.6568
G1X4.8090
G1Y10.1318
G1X4.7940
G1Y1.6568
G1X4.7790
G1Y10.1318
G1X4.7640
G1Y1.6568
G1X4.7490
G1Y10.1318
G1X4.7340
G1Y1.6568
G1X4.7190
G1Y10.1318
G1X4.7040
G1Y1.6568
G1X4.6890
G1Y10.1318
G1X4.6740
G1Y1.6568
G1X4.6590
G1Y10.1318
G1X4.6440
G1Y1.6568
G1X4.6290
G1Y10.1318
G1X4.6140
G1Y1.6568
G1X4.5990
G1Y10.1318
G1X4.5840
G1Y1.6568
G1X4.5690
G1Y10.1318
G1X4.5540
G1Y1.6568
G1X4.5390
G1Y10.1318
G1X4.5240
G1Y1.6568
G1X4.5090
G1Y10.1318
G1X4.4940
G1Y1.6568
G1X4.4790
G1Y10.1318
G1X4.4640
G1Y1.6568
G1X4.4490
G1Y10.1318
G1X4.4340
G1Y1.6568
G1X4.4190
G1Y10.1318
G1X4.4040
G1Y1.6568
G1X4.3890
G1Y10.1318
G1X4.3740
G1Y1.6568
G1X4.3590
G1Y10.1318
G1X4.3440
G1Y1.6568
G1X4.3290
G1Y10.1318
G1X4.3140
G1Y1.6568
G1X4.2990
G1Y10.1318
G1X4.2840
G1Y1.6568
G1X4.2690
G1Y10.1318
G1X4.2540
G1Y1.6568
G1X4.2390
G1Y10.1318
G1X4.2240
G1Y1.6568
G1X4.2090
G1Y10.1318
G1X4.1940
G1Y1.6568
G1X4.1790
G1Y10.1318
G1X4.1640
G1Y1.6568
G1X4.1490
G1Y10.1318
G1X4.1340
G1Y1.6568
G1X4.1190
G1Y10.1318
G1X4.1040
G1Y1.6568
G1X4.0890
G1Y10.1318
G1X4.0740
G1Y1.6568
G1X4.0590
G1Y10.1318
G1X4.0440
G1Y1.6568
G1X4.0290
G1Y10.1318
G1X4.0140
G1Y1.6568
G1X3.9990
G1Y10.1318
G1X3.9840
G1Y1.6568
G1X3.9690
G1Y10.1318
G1X3.9540
G1Y1.6568
G1X3.9390
G1Y10.1318
G1X3.9240
G1Y1.6568
G1X3.9090
G1Y10.1318
G1X3.8940
G1Y1.6568
G1X3.8790
G1Y10.1318
G1X3.8640
G1Y1.6568
G1X3.8490
G1Y10.1318
G1X3.8340
G1Y1.6568
G1X3.8190
G1Y10.1318
G1X3.8040
G1Y1.6568
G1X3.7890
G1Y10.1318
G1X3.7740
G1Y1.6568
G1X3.7590
G1Y10.1318
G1X3.7440
G1Y1.6568
G1X3.7290
G1Y10.1318
G1X3.7140
G1Y1.6568
G1X3.6990
G1Y10.1318
G1X3.6840
G1Y1.6568
G1X3.6690
G1Y10.1318
G1X3.6540
G1Y1.6568
G1X3.6390
G1Y10.1318
G1X3.6240
G1Y1.6568
G1X3.6090
G1Y10.1318
G1X3.5940
G1Y1.6568
G1X3.5790
G1Y10.1318
G1X3.5640
G1Y1.6568
G1X3.5490
G1Y10.1318
G1X3.5340
G1Y1.6568
G1X3.5190
G1Y10.1318
G1X3.5040
G1Y1.6568
G1X3.4890
G1Y10.1318
G1X3.4740
G1Y1.6568
G1X3.4590
G1Y10.1318
G1X3.4440
G1Y1.6568
G1X3.4290
G1Y10.1318
G1X3.4140
G1Y1.6568
G1X3.3990
G1Y10.1318
G1X3.3840
G1Y1.6568
G1X3.3690
G1Y10.1318
G1X3.3540
G1Y1.6568
G1X3.3390
G1Y10.1318
G1X3.3240
G1Y1.6568
G1X3.3090
G1Y10.1318
G1X3.2940
G1Y1.6568
G1X3.2790
G1Y10.1318
G1X3.2640
G1Y1.6568
G1X3.2490
G1Y10.1318
G1X3.2340
G1Y1.6568
G1X3.2190
G1Y10.1318
G1X3.2040
G1Y1.6568
G1X3.1890
G1Y10.1318
G1X3.1740
G1Y1.6568
G1X3.1590
G1Y10.1318
G1X3.1440
G1Y1.6568
G1X3.1290
G1Y10.1318
G1X3.1140
G1Y1.6568
G1X3.0990
G1Y10.1318
G1X3.0840
G1Y1.6568
G1X3.0690
G1Y10.1318
G1X3.0540
G1Y1.6568
G1X3.0390
G1Y10.1318
G1X3.0240
G1Y1.6568
G1X3.0090
G1Y10.1318
G1X2.9940
G1Y1.6568
G1X2.9790
G1Y10.1318
G1X2.9640
G1Y1.6568
G1X2.9490
G1Y10.1318
G1X2.9340
G1Y1.6568
G1X2.9190
G1Y10.1318
G1X2.9040
G1Y1.6568
G1X2.8890
G1Y10.1318
G1X2.8740
G1Y1.6568
G1X2.8590
G1Y10.1318
G1X2.8440
G1Y1.6568
G1X2.8290
G1Y10.1318
G1X2.8140
G1Y1.6568
G1X2.7990
G1Y10.1318
G1X2.7840
G1Y1.6568
G1X2.7690
G1Y10.1318
G1X2.7540
G1Y1.6568
G1X2.7390
G1Y10.1318
G1X2.7240
G1Y1.6568
G1X2.7090
G1Y10.1318
G1X2.6940
G1Y1.6568
G1X2.6790
G1Y10.1318
G1X2.6640
G1Y1.6568
G1X2.6490
G1Y10.1318
G1X2.6340
G1Y1.6568
G1X2.6190
G1Y10.1318
G1X2.6040
G1Y1.6568
G1X2.5890
G1Y10.1318
G1X2.5740
G1Y1.6568
G1X2.5590
G1Y10.1318
G1X2.5440
G1Y1.6568
G1X2.5290
G1Y10.1318
G1X2.5140
G1Y1.6568
G1X2.4990
G1Y10.1318
G1X2.4840
G1Y1.6568
G1X2.4690
G1Y10.1318
G1X2.4540
G1Y1.6568
G1X2.4390
G1Y10.1318
G1X2.4240
G1Y1.6568
G1X2.4090
G1Y10.1318
G1X2.3940
G1Y1.6568
G1X2.3790
G1Y10.1318
G1X2.3640
G1Y1.6568
G1X2.3490
G1Y10.1318
G1X2.3340
G1Y1.6568
G1X2.3191
G1Y10.1318
G1Z-0.1150F15.0
G1Y1.6568F45.0
G1X2.3340
G1Y10.1318
G1X2.3490
G1Y1.6568
G1X2.3640
G1Y10.1318
G1X2.3790
G1Y1.6568
G1X2.3940
G1Y10.1318
G1X2.4090
G1Y1.6568
G1X2.4240
G1Y10.1318
G1X2.4390
G1Y1.6568
G1X2.4540
G1Y10.1318
G1X2.4690
G1Y1.6568
G1X2.4840
G1Y10.1318
G1X2.4990
G1Y1.6568
G1X2.5140
G1Y10.1318
G1X2.5290
G1Y1.6568
G1X2.5440
G1Y10.1318
G1X2.5590
G1Y1.6568
G1X2.5740
G1Y10.1318
G1X2.5890
G1Y1.6568
G1X2.6040
G1Y10.1318
G1X2.6190
G1Y1.6568
G1X2.6340
G1Y10.1318
G1X2.6490
G1Y1.6568
G1X2.6640
G1Y10.1318
G1X2.6790
G1Y1.6568
G1X2.6940
G1Y10.1318
G1X2.7090
G1Y1.6568
G1X2.7240
G1Y10.1318
G1X2.7390
G1Y1.6568
G1X2.7540
G1Y10.1318
G1X2.7690
G1Y1.6568
G1X2.7840
G1Y10.1318
G1X2.7990
G1Y1.6568
G1X2.8140
G1Y10.1318
G1X2.8290
G1Y1.6568
G1X2.8440
G1Y10.1318
G1X2.8590
G1Y1.6568
G1X2.8740
G1Y10.1318
G1X2.8890
G1Y1.6568
G1X2.9040
G1Y10.1318
G1X2.9190
G1Y1.6568
G1X2.9340
G1Y10.1318
G1X2.9490
G1Y1.6568
G1X2.9640
G1Y10.1318
G1X2.9790
G1Y1.6568
G1X2.9940
G1Y10.1318
G1X3.0090
G1Y1.6568
G1X3.0240
G1Y10.1318
G1X3.0390
G1Y1.6568
G1X3.0540
G1Y10.1318
G1X3.0690
G1Y1.6568
G1X3.0840
G1Y10.1318
G1X3.0990
G1Y1.6568
G1X3.1140
G1Y10.1318
G1X3.1290
G1Y1.6568
G1X3.1440
G1Y10.1318
G1X3.1590
G1Y1.6568
G1X3.1740
G1Y10.1318
G1X3.1890
G1Y1.6568
G1X3.2040
G1Y10.1318
G1X3.2190
G1Y1.6568
G1X3.2340
G1Y10.1318
G1X3.2490
G1Y1.6568
G1X3.2640
G1Y10.1318
G1X3.2790
G1Y1.6568
G1X3.2940
G1Y10.1318
G1X3.3090
G1Y1.6568
G1X3.3240
G1Y10.1318
G1X3.3390
G1Y1.6568
G1X3.3540
G1Y10.1318
G1X3.3690
G1Y1.6568
G1X3.3840
G1Y10.1318
G1X3.3990
G1Y1.6568
G1X3.4140
G1Y10.1318
G1X3.4290
G1Y1.6568
G1X3.4440
G1Y10.1318
G1X3.4590
G1Y1.6568
G1X3.4740
G1Y10.1318
G1X3.4890
G1Y1.6568
G1X3.5040
G1Y10.1318
G1X3.5190
G1Y1.6568
G1X3.5340
G1Y10.1318
G1X3.5490
G1Y1.6568
G1X3.5640
G1Y10.1318
G1X3.5790
G1Y1.6568
G1X3.5940
G1Y10.1318
G1X3.6090
G1Y1.6568
G1X3.6240
G1Y10.1318
G1X3.6390
G1Y1.6568
G1X3.6540
G1Y10.1318
G1X3.6690
G1Y1.6568
G1X3.6840
G1Y10.1318
G1X3.6990
G1Y1.6568
G1X3.7140
G1Y10.1318
G1X3.7290
G1Y1.6568
G1X3.7440
G1Y10.1318
G1X3.7590
G1Y1.6568
G1X3.7740
G1Y10.1318
G1X3.7890
G1Y1.6568
G1X3.8040
G1Y10.1318
G1X3.8190
G1Y1.6568
G1X3.8340
G1Y10.1318
G1X3.8490
G1Y1.6568
G1X3.8640
G1Y10.1318
G1X3.8790
G1Y1.6568
G1X3.8940
G1Y10.1318
G1X3.9090
G1Y1.6568
G1X3.9240
G1Y10.1318
G1X3.9390
G1Y1.6568
G1X3.9540
G1Y10.1318
G1X3.9690
G1Y1.6568
G1X3.9840
G1Y10.1318
G1X3.9990
G1Y1.6568
G1X4.0140
G1Y10.1318
G1X4.0290
G1Y1.6568
G1X4.0440
G1Y10.1318
G1X4.0590
G1Y1.6568
G1X4.0740
G1Y10.1318
G1X4.0890
G1Y1.6568
G1X4.1040
G1Y10.1318
G1X4.1190
G1Y1.6568
G1X4.1340
G1Y10.1318
G1X4.1490
G1Y1.6568
G1X4.1640
G1Y10.1318
G1X4.1790
G1Y1.6568
G1X4.1940
G1Y10.1318
G1X4.2090
G1Y1.6568
G1X4.2240
G1Y10.1318
G1X4.2390
G1Y1.6568
G1X4.2540
G1Y10.1318
G1X4.2690
G1Y1.6568
G1X4.2840
G1Y10.1318
G1X4.2990
G1Y1.6568
G1X4.3140
G1Y10.1318
G1X4.3290
G1Y1.6568
G1X4.3440
G1Y10.1318
G1X4.3590
G1Y1.6568
G1X4.3740
G1Y10.1318
G1X4.3890
G1Y1.6568
G1X4.4040
G1Y10.1318
G1X4.4190
G1Y1.6568
G1X4.4340
G1Y10.1318
G1X4.4490
G1Y1.6568
G1X4.4640
G1Y10.1318
G1X4.4790
G1Y1.6568
G1X4.4940
G1Y10.1318
G1X4.5090
G1Y1.6568
G1X4.5240
G1Y10.1318
G1X4.5390
G1Y1.6568
G1X4.5540
G1Y10.1318
G1X4.5690
G1Y1.6568
G1X4.5840
G1Y10.1318
G1X4.5990
G1Y1.6568
G1X4.6140
G1Y10.1318
G1X4.6290
G1Y1.6568
G1X4.6440
G1Y10.1318
G1X4.6590
G1Y1.6568
G1X4.6740
G1Y10.1318
G1X4.6890
G1Y1.6568
G1X4.7040
G1Y10.1318
G1X4.7190
G1Y1.6568
G1X4.7340
G1Y10.1318
G1X4.7490
G1Y1.6568
G1X4.7640
G1Y10.1318
G1X4.7790
G1Y1.6568
G1X4.7940
G1Y10.1318
G1X4.8090
G1Y1.6568
G1X4.8240
G1Y10.1318
G1X4.8390
G1Y1.6568
G1X4.8540
G1Y10.1318
G1X4.8690
G1Y1.6568
G1X4.8840
G1Y10.1318
G1X4.8990
G1Y1.6568
G1X4.9140
G1Y10.1318
G1X4.9290
G1Y1.6568
G1X4.9440
G1Y10.1318
G1X4.9590
G1Y1.6568
G1X4.9740
G1Y10.1318
G1X4.9890
G1Y1.6568
G1X5.0040
G1Y10.1318
G1X5.0190
G1Y1.6568
G1X5.0340
G1Y10.1318
G1X5.0490
G1Y1.6568
G1X5.0640
G1Y10.1318
G1X5.0790
G1Y1.6568
G1X5.0940
G1Y10.1318
G1X5.1090
G1Y1.6568
G1X5.1240
G1Y10.1318
G1X5.1390
G1Y1.6568
G1X5.1540
G1Y10.1318
G1X5.1690
G1Y1.6568
G1X5.1840
G1Y10.1318
G1X5.1990
G1Y1.6568
G1X5.2140
G1Y10.1318
G1X5.2290
G1Y1.6568
G1X5.2440
G1Y10.1318
G1X5.2590
G1Y1.6568
G1X5.2740
G1Y10.1318
G1X5.2890
G1Y1.6568
G1X5.3040
G1Y10.1318
G1X5.3190
G1Y1.6568
G1X5.3340
G1Y10.1318
G1X5.3490
G1Y1.6568
G1X5.3640
G1Y10.1318
G1X5.3790
G1Y1.6568
G1X5.3940
G1Y10.1318
G1X5.4090
G1Y1.6568
G1X5.4240
G1Y10.1318
G1X5.4390
G1Y1.6568
G1X5.4540
G1Y10.1318
G1X5.4690
G1Y1.6568
G1X5.4840
G1Y10.1318
G1X5.4990
G1Y1.6568
G1X5.5140
G1Y10.1318
G1X5.5290
G1Y1.6568
G1X5.5440
G1Y10.1318
G1X5.5590
G1Y1.6568
G1X5.5740
G1Y10.1318
G1X5.5890
G1Y1.6568
G1X5.6040
G1Y10.1318
G1X5.6190
G1Y1.6568
G1X5.6340
G1Y10.1318
G1X5.6490
G1Y1.6568
G1X5.6640
G1Y10.1318
G1X5.6790
G1Y1.6568
G1X5.6940
G1Y10.1318
G1X5.7090
G1Y1.6568
G1X5.7240
G1Y10.1318
G1X5.7390
G1Y1.6568
G1X5.7540
G1Y10.1318
G1X5.7690
G1Y1.6568
G1X5.7840
G1Y10.1318
G1X5.7990
G1Y1.6568
G1X5.8140
G1Y10.1318
G1X5.8290
G1Y1.6568
G1X5.8440
G1Y10.1318
G1X5.8590
G1Y1.6568
G1X5.8740
G1Y10.1318
G1X5.8890
G1Y1.6568
G1X5.9040
G1Y10.1318
G1X5.9190
G1Y1.6568
G1X5.9340
G1Y10.1318
G1X5.9490
G1Y1.6568
G1X5.9640
G1Y10.1318
G1X5.9790
G1Y1.6568
G1X5.9940
G1Y10.1318
G1X6.0090
G1Y1.6568
G1X6.0240
G1Y10.1318
G1X6.0390
G1Y1.6568
G1X6.0540
G1Y10.1318
G1X6.0690
G1Y1.6568
G1X6.0840
G1Y10.1318
G1X6.0990
G1Y1.6568
G1X6.1140
G1Y10.1318
G1X6.1290
G1Y1.6568
G1X6.1440
G1Y10.1318
G1X6.1590
G1Y1.6568
G1X6.1740
G1Y10.1318
G1X6.1890
G1Y1.6568
G1X6.2040
G1Y10.1318
G1X6.2190
G1Y1.6568
G1X6.2340
G1Y10.1318
G1X6.2490
G1Y1.6568
G1X6.2640
G1Y10.1318
G1X6.2790
G1Y1.6568
G1X6.2940
G1Y10.1318
G1X6.3090
G1Y1.6568
G1X6.3240
G1Y10.1318
G1X6.3390
G1Y1.6568
G1X6.3540
G1Y10.1318
G1X6.3690
G1Y1.6568
G1X6.3840
G1Y10.1318
G1X6.3990
G1Y1.6568
G1X6.4140
G1Y10.1318
G1X6.4290
G1Y1.6568
G1X6.4440
G1Y10.1318
G1X6.4590
G1Y1.6568
G1X6.4740
G1Y10.1318
G1X6.4890
G1Y1.6568
G1X6.5040
G1Y10.1318
G1X6.5190
G1Y1.6568
G1X6.5340
G1Y10.1318
G1X6.5490
G1Y1.6568
G1X6.5640
G1Y10.1318
G1X6.5790
G1Y1.6568
G1X6.5940
G1Y10.1318
G1X6.6090
G1Y1.6568
G1X6.6240
G1Y10.1318
G1X6.6390
G1Y1.6568
G1X6.6540
G1Y10.1318
G1X6.6690
G1Y1.6568
G1X6.6840
G1Y10.1318
G1X6.6990
G1Y1.6568
G1X6.7140
G1Y10.1318
G1X6.7290
G1Y1.6568
G1X6.7440
G1Y10.1318
G1X6.7590
G1Y1.6568
G1X6.7740
G1Y10.1318
G1X6.7890
G1Y1.6568
G1X6.8040
G1Y10.1318
G1X6.8190
G1Y1.6568
G1X6.8340
G1Y10.1318
G1X6.8490
G1Y1.6568
G1X6.8640
G1Y10.1318
G1X6.8790
G1Y1.6568
G1X6.8940
G1Y10.1318
G1X6.9090
G1Y1.6568
G1X6.9240
G1Y10.1318
G1X6.9390
G1Y1.6568
G1X6.9540
G1Y10.1318
G1X6.9690
G1Y1.6568
G1X6.9840
G1Y10.1318
G1X6.9990
G1Y1.6568
G1X7.0140
G1Y10.1318
G1X7.0290
G1Y1.6568
G1X7.0440
G1Y10.1318
G1X7.0590
G1Y1.6568
G1X7.0740
G1Y10.1318
G1X7.0890
G1Y1.6568
G1X7.1040
G1Y10.1318
G1X7.1190
G1Y1.6568
G1X7.1340
G1Y10.1318
G1X7.1490
G1Y1.6568
G1X7.1640
G1Y10.1318
G1X7.1790
G1Y1.6568
G1X7.1940
G1Y10.1318
G1X7.2090
G1Y1.6568
G1X7.2240
G1Y10.1318
G1X7.2390
G1Y1.6568
G1X7.2540
G1Y10.1318
G1X7.2690
G1Y1.6568
G1X7.2840
G1Y10.1318
G1X7.2990
G1Y1.6568
G1X7.3140
G1Y10.1318
G1X7.3290
G1Y1.6568
G1X7.3440
G1Y10.1318
G1X7.3590
G1Y1.6568
G1X7.3740
G1Y10.1318
G1X7.3890
G1Y1.6568
G1X7.4040
G1Y10.1318
G1X7.4190
G1Y1.6568
G1X7.4340
G1Y10.1318
G1X7.4490
G1Y1.6568
G1X7.4640
G1Y10.1318
G1X7.4790
G1Y1.6568
G1X7.4940
G1Y10.1318
G1X7.5090
G1Y1.6568
G1X7.5240
G1Y10.1318
G1X7.5390
G1Y1.6568
G1X7.5540
G1Y10.1318
G1X7.5690
G1Y1.6568
G1X7.5840
G1Y10.1318
G1X7.5990
G1Y1.6568
G1X7.6140
G1Y10.1318
G1X7.6290
G1Y1.6568
G1X7.6440
G1Y10.1318
G1X7.6590
G1Y1.6568
G1X7.6740
G1Y10.1318
G1X7.6890
G1Y1.6568
G1X7.7040
G1Y10.1318
G1X7.7190
G1Y1.6568
G1X7.7340
G1Y10.1318
G1X7.7490
G1Y1.6568
G1X7.7640
G1Y10.1318
G1X7.7790
G1Y1.6568
G1X7.7940
G1Y10.1318
G1X7.8090
G1Y1.6568
G1X7.8240
G1Y10.1318
G1X7.8390
G1Y1.6568
G1X7.8540
G1Y10.1318
G1X7.8690
G1Y1.6568
G1X7.8840
G1Y10.1318
G1X7.8990
G1Y1.6568
G1X7.9140
G1Y10.1318
G1X7.9290
G1Y1.6568
G1X7.9440
G1Y10.1318
G1X7.9590
G1Y1.6568
G1X7.9740
G1Y10.1318
G1X7.9890
G1Y1.6568
G1X8.0040
G1Y10.1318
G1X8.0190
G1Y1.6568
G1X8.0340
G1Y10.1318
G1X8.0490
G1Y1.6568
G1X8.0640
G1Y10.1318
G1X8.0790
G1Y1.6568
G1X8.0940
G1Y10.1318
G1X8.1090
G1Y1.6568
G1X8.1240
G1Y10.1318
G1X8.1390
G1Y1.6568
G1X8.1540
G1Y10.1318
G1X8.1690
G1Y1.6568
G1X8.1840
G1Y10.1318
G1X8.1990
G1Y1.6568
G1X8.2140
G1Y10.1318
G1X8.2290
G1Y1.6568
G1X8.2440
G1Y10.1318
G1X8.2590
G1Y1.6568
G1X8.2740
G1Y10.1318
G1X8.2890
G1Y1.6568
G1X8.3040
G1Y10.1318
G1X8.3190
G1Y1.6568
G1X8.3340
G1Y10.1318
G1X8.3490
G1Y1.6568
G1X8.3640
G1Y10.1318
G1X8.3790
G1Y1.6568
G1X8.3940
G1Y10.1318
G1X8.4090
G1Y1.6568
G1X8.4240
G1Y10.1318
G1X8.4390
G1Y1.6568
G1X8.4540
G1Y10.1318
G1X8.4690
G1Y1.6568
G1X8.4840
G1Y10.1318
G1X8.4990
G1Y1.6568
G1X8.5140
G1Y10.1318
G1X8.5290
G1Y1.6568
G1X8.5440
G1Y10.1318
G1X8.5590
G1Y1.6568
G1X8.5740
G1Y10.1318
G1X8.5890
G1Y1.6568
G1X8.6040
G1Y10.1318
G1X8.6190
G1Y1.6568
G1X8.6340
G1Y10.1318
G1X8.6490
G1Y1.6568
G1X8.6640
G1Y10.1318
G1X8.6790
G1Y1.6568
G1X8.6940
G1Y10.1318
G1X8.7090
G1Y1.6568
G1X8.7240
G1Y10.1318
G1X8.7390
G1Y1.6568
G1X8.7540
G1Y10.1318
G1X8.7690
G1Y1.6568
G1X8.7840
G1Y10.1318
G1X8.7990
G1Y1.6568
G1X8.8140
G1Y10.1318
G1X8.8290
G1Y1.6568
G1X8.8440
G1Y10.1318
G1X8.8590
G1Y1.6568
G1X8.8740
G1Y10.1318
G1X8.8890
G1Y1.6568
G1X8.9040
G1Y10.1318
G1X8.9190
G1Y1.6568
G1X8.9340
G1Y10.1318
G1X8.9490
G1Y1.6568
G1X8.9640
G1Y10.1318
G1X8.9790
G1Y1.6568
G1X8.9940
G1Y10.1318
G1X9.0090
G1Y1.6568
G1X9.0240
G1Y10.1318
G1X9.0390
G1Y1.6568
G1X9.0540
G1Y10.1318
G1X9.0690
G1Y1.6568
G1X9.0840
G1Y10.1318
G1X9.0990
G1Y1.6568
G1X9.1140
G1Y10.1318
G1X9.1290
G1Y1.6568
G1X9.1440
G1Y10.1318
G1X9.1590
G1Y1.6568
G1X9.1740
G1Y10.1318
G1X9.1890
G1Y1.6568
G1X9.2040
G1Y10.1318
G1X9.2190
G1Y1.6568
G1X9.2340
G1Y10.1318
G1X9.2490
G1Y1.6568
G1X9.2640
G1Y10.1318
G1X9.2790
G1Y1.6568
G1X9.2940
G1Y10.1318
G1X9.3090
G1Y1.6568
G1X9.3240
G1Y10.1318
G1X9.3390
G1Y1.6568
G1X9.3540
G1Y10.1318
G1X9.3690
G1Y1.6568
G1X9.3840
G1Y10.1318
G1X9.3990
G1Y1.6568
G1X9.4140
G1Y10.1318
G1X9.4290
G1Y1.6568
G1X9.4440
G1Y10.1318
G1X9.4590
G1Y1.6568
G1X9.4740
G1Y10.1318
G1X9.4890
G1Y1.6568
G1X9.5040
G1Y10.1318
G1X9.5190
G1Y1.6568
G1X9.5340
G1Y10.1318
G1X9.5490
G1Y1.6568
G1X9.5640
G1Y10.1318
G1X9.5790
G1Y1.6568
G1X9.5940
G1Y10.1318
G1X9.6090
G1Y1.6568
G1X9.6240
G1Y10.1318
G1X9.6390
G1Y1.6568
G1X9.6540
G1Y10.1318
G1X9.6690
G1Y1.6568
G1X9.6840
G1Y10.1318
G1X9.6990
G1Y1.6568
G1X9.7140
G1Y10.1318
G1X9.7290
G1Y1.6568
G1X9.7440
G1Y10.1318
G1X9.7590
G1Y1.6568
G1X9.7740
G1Y10.1318
G1X9.7890
G1Y1.6568
G1X9.8040
G1Y10.1318
G1X9.8190
G1Y1.6568
G1X9.8340
G1Y10.1318
G1X9.8490
G1Y1.6568
G1X9.8640
G1Y10.1318
G1X9.8790
G1Y1.6568
G1X9.8940
G1Y10.1318
G1X9.9090
G1Y1.6568
G1X9.9240
G1Y10.1318
G1X9.9390
G1Y1.6568
G1X9.9540
G1Y10.1318
G1X9.9690
G1Y1.6568
G1X9.9840
G1Y10.1318
G1X9.9990
G1Y1.6568
G1X10.0140
G1Y10.1318
G1X10.0290
G1Y1.6568
G1X10.0440
G1Y10.1318
G1X10.0590
G1Y1.6568
G1X10.0740
G1Y10.1318
G1X10.0890
G1Y1.6568
G1X10.1040
G1Y10.1318
G1X10.1190
G1Y1.6568
G1X10.1340
G1Y10.1318
G1X10.1490
G1Y1.6568
G1X10.1640
G1Y10.1318
G1X10.1790
G1Y1.6568
G1X10.1940
G1Y10.1318
G1Z-0.1437F15.0
G1Y1.6568F45.0
G1X10.1790
G1Y10.1318
G1X10.1640
G1Y1.6568
G1X10.1490
G1Y10.1318
G1X10.1340
G1Y1.6568
G1X10.1190
G1Y10.1318
G1X10.1040
G1Y1.6568
G1X10.0890
G1Y10.1318
G1X10.0740
G1Y1.6568
G1X10.0590
G1Y10.1318
G1X10.0440
G1Y1.6568
G1X10.0290
G1Y10.1318
G1X10.0140
G1Y1.6568
G1X9.9990
G1Y10.1318
G1X9.9840
G1Y1.6568
G1X9.9690
G1Y10.1318
G1X9.9540
G1Y1.6568
G1X9.9390
G1Y10.1318
G1X9.9240
G1Y1.6568
G1X9.9090
G1Y10.1318
G1X9.8940
G1Y1.6568
G1X9.8790
G1Y10.1318
G1X9.8640
G1Y1.6568
G1X9.8490
G1Y10.1318
G1X9.8340
G1Y1.6568
G1X9.8190
G1Y10.1318
G1X9.8040
G1Y1.6568
G1X9.7890
G1Y10.1318
G1X9.7740
G1Y1.6568
G1X9.7590
G1Y10.1318
G1X9.7440
G1Y1.6568
G1X9.7290
G1Y10.1318
G1X9.7140
G1Y1.6568
G1X9.6990
G1Y10.1318
G1X9.6840
G1Y1.6568
G1X9.6690
G1Y10.1318
G1X9.6540
G1Y1.6568
G1X9.6390
G1Y10.1318
G1X9.6240
G1Y1.6568
G1X9.6090
G1Y10.1318
G1X9.5940
G1Y1.6568
G1X9.5790
G1Y10.1318
G1X9.5640
G1Y1.6568
G1X9.5490
G1Y10.1318
G1X9.5340
G1Y1.6568
G1X9.5190
G1Y10.1318
G1X9.5040
G1Y1.6568
G1X9.4890
G1Y10.1318
G1X9.4740
G1Y1.6568
G1X9.4590
G1Y10.1318
G1X9.4440
G1Y1.6568
G1X9.4290
G1Y10.1318
G1X9.4140
G1Y1.6568
G1X9.3990
G1Y10.1318
G1X9.3840
G1Y1.6568
G1X9.3690
G1Y10.1318
G1X9.3540
G1Y1.6568
G1X9.3390
G1Y10.1318
G1X9.3240
G1Y1.6568
G1X9.3090
G1Y10.1318
G1X9.2940
G1Y1.6568
G1X9.2790
G1Y10.1318
G1X9.2640
G1Y1.6568
G1X9.2490
G1Y10.1318
G1X9.2340
G1Y1.6568
G1X9.2190
G1Y10.1318
G1X9.2040
G1Y1.6568
G1X9.1890
G1Y10.1318
G1X9.1740
G1Y1.6568
G1X9.1590
G1Y10.1318
G1X9.1440
G1Y1.6568
G1X9.1290
G1Y10.1318
G1X9.1140
G1Y1.6568
G1X9.0990
G1Y10.1318
G1X9.0840
G1Y1.6568
G1X9.0690
G1Y10.1318
G1X9.0540
G1Y1.6568
G1X9.0390
G1Y10.1318
G1X9.0240
G1Y1.6568
G1X9.0090
G1Y10.1318
G1X8.9940
G1Y1.6568
G1X8.9790
G1Y10.1318
G1X8.9640
G1Y1.6568
G1X8.9490
G1Y10.1318
G1X8.9340
G1Y1.6568
G1X8.9190
G1Y10.1318
G1X8.9040
G1Y1.6568
G1X8.8890
G1Y10.1318
G1X8.8740
G1Y1.6568
G1X8.8590
G1Y10.1318
G1X8.8440
G1Y1.6568
G1X8.8290
G1Y10.1318
G1X8.8140
G1Y1.6568
G1X8.7990
G1Y10.1318
G1X8.7840
G1Y1.6568
G1X8.7690
G1Y10.1318
G1X8.7540
G1Y1.6568
G1X8.7390
G1Y10.1318
G1X8.7240
G1Y1.6568
G1X8.7090
G1Y10.1318
G1X8.6940
G1Y1.6568
G1X8.6790
G1Y10.1318
G1X8.6640
G1Y1.6568
G1X8.6490
G1Y10.1318
G1X8.6340
G1Y1.6568
G1X8.6190
G1Y10.1318
G1X8.6040
G1Y1.6568
G1X8.5890
G1Y10.1318
G1X8.5740
G1Y1.6568
G1X8.5590
G1Y10.1318
G1X8.5440
G1Y1.6568
G1X8.5290
G1Y10.1318
G1X8.5140
G1Y1.6568
G1X8.4990
G1Y10.1318
G1X8.4840
G1Y1.6568
G1X8.4690
G1Y10.1318
G1X8.4540
G1Y1.6568
G1X8.4390
G1Y10.1318
G1X8.4240
G1Y1.6568
G1X8.4090
G1Y10.1318
G1X8.3940
G1Y1.6568
G1X8.3790
G1Y10.1318
G1X8.3640
G1Y1.6568
G1X8.3490
G1Y10.1318
G1X8.3340
G1Y1.6568
G1X8.3190
G1Y10.1318
G1X8.3040
G1Y1.6568
G1X8.2890
G1Y10.1318
G1X8.2740
G1Y1.6568
G1X8.2590
G1Y10.1318
G1X8.2440
G1Y1.6568
G1X8.2290
G1Y10.1318
G1X8.2140
G1Y1.6568
G1X8.1990
G1Y10.1318
G1X8.1840
G1Y1.6568
G1X8.1690
G1Y10.1318
G1X8.1540
G1Y1.6568
G1X8.1390
G1Y10.1318
G1X8.1240
G1Y1.6568
G1X8.1090
G1Y10.1318
G1X8.0940
G1Y1.6568
G1X8.0790
G1Y10.1318
G1X8.0640
G1Y1.6568
G1X8.0490
G1Y10.1318
G1X8.0340
G1Y1.6568
G1X8.0190
G1Y10.1318
G1X8.0040
G1Y1.6568
G1X7.9890
G1Y10.1318
G1X7.9740
G1Y1.6568
G1X7.9590
G1Y10.1318
G1X7.9440
G1Y1.6568
G1X7.9290
G1Y10.1318
G1X7.9140
G1Y1.6568
G1X7.8990
G1Y10.1318
G1X7.8840
G1Y1.6568
G1X7.8690
G1Y10.1318
G1X7.8540
G1Y1.6568
G1X7.8390
G1Y10.1318
G1X7.8240
G1Y1.6568
G1X7.8090
G1Y10.1318
G1X7.7940
G1Y1.6568
G1X7.7790
G1Y10.1318
G1X7.7640
G1Y1.6568
G1X7.7490
G1Y10.1318
G1X7.7340
G1Y1.6568
G1X7.7190
G1Y10.1318
G1X7.7040
G1Y1.6568
G1X7.6890
G1Y10.1318
G1X7.6740
G1Y1.6568
G1X7.6590
G1Y10.1318
G1X7.6440
G1Y1.6568
G1X7.6290
G1Y10.1318
G1X7.6140
G1Y1.6568
G1X7.5990
G1Y10.1318
G1X7.5840
G1Y1.6568
G1X7.5690
G1Y10.1318
G1X7.5540
G1Y1.6568
G1X7.5390
G1Y10.1318
G1X7.5240
G1Y1.6568
G1X7.5090
G1Y10.1318
G1X7.4940
G1Y1.6568
G1X7.4790
G1Y10.1318
G1X7.4640
G1Y1.6568
G1X7.4490
G1Y10.1318
G1X7.4340
G1Y1.6568
G1X7.4190
G1Y10.1318
G1X7.4040
G1Y1.6568
G1X7.3890
G1Y10.1318
G1X7.3740
G1Y1.6568
G1X7.3590
G1Y10.1318
G1X7.3440
G1Y1.6568
G1X7.3290
G1Y10.1318
G1X7.3140
G1Y1.6568
G1X7.2990
G1Y10.1318
G1X7.2840
G1Y1.6568
G1X7.2690
G1Y10.1318
G1X7.2540
G1Y1.6568
G1X7.2390
G1Y10.1318
G1X7.2240
G1Y1.6568
G1X7.2090
G1Y10.1318
G1X7.1940
G1Y1.6568
G1X7.1790
G1Y10.1318
G1X7.1640
G1Y1.6568
G1X7.1490
G1Y10.1318
G1X7.1340
G1Y1.6568
G1X7.1190
G1Y10.1318
G1X7.1040
G1Y1.6568
G1X7.0890
G1Y10.1318
G1X7.0740
G1Y1.6568
G1X7.0590
G1Y10.1318
G1X7.0440
G1Y1.6568
G1X7.0290
G1Y10.1318
G1X7.0140
G1Y1.6568
G1X6.9990
G1Y10.1318
G1X6.9840
G1Y1.6568
G1X6.9690
G1Y10.1318
G1X6.9540
G1Y1.6568
G1X6.9390
G1Y10.1318
G1X6.9240
G1Y1.6568
G1X6.9090
G1Y10.1318
G1X6.8940
G1Y1.6568
G1X6.8790
G1Y10.1318
G1X6.8640
G1Y1.6568
G1X6.8490
G1Y10.1318
G1X6.8340
G1Y1.6568
G1X6.8190
G1Y10.1318
G1X6.8040
G1Y1.6568
G1X6.7890
G1Y10.1318
G1X6.7740
G1Y1.6568
G1X6.7590
G1Y10.1318
G1X6.7440
G1Y1.6568
G1X6.7290
G1Y10.1318
G1X6.7140
G1Y1.6568
G1X6.6990
G1Y10.1318
G1X6.6840
G1Y1.6568
G1X6.6690
G1Y10.1318
G1X6.6540
G1Y1.6568
G1X6.6390
G1Y10.1318
G1X6.6240
G1Y1.6568
G1X6.6090
G1Y10.1318
G1X6.5940
G1Y1.6568
G1X6.5790
G1Y10.1318
G1X6.5640
G1Y1.6568
G1X6.5490
G1Y10.1318
G1X6.5340
G1Y1.6568
G1X6.5190
G1Y10.1318
G1X6.5040
G1Y1.6568
G1X6.4890
G1Y10.1318
G1X6.4740
G1Y1.6568
G1X6.4590
G1Y10.1318
G1X6.4440
G1Y1.6568
G1X6.4290
G1Y10.1318
G1X6.4140
G1Y1.6568
G1X6.3990
G1Y10.1318
G1X6.3840
G1Y1.6568
G1X6.3690
G1Y10.1318
G1X6.3540
G1Y1.6568
G1X6.3390
G1Y10.1318
G1X6.3240
G1Y1.6568
G1X6.3090
G1Y10.1318
G1X6.2940
G1Y1.6568
G1X6.2790
G1Y10.1318
G1X6.2640
G1Y1.6568
G1X6.2490
G1Y10.1318
G1X6.2340
G1Y1.6568
G1X6.2190
G1Y10.1318
G1X6.2040
G1Y1.6568
G1X6.1890
G1Y10.1318
G1X6.1740
G1Y1.6568
G1X6.1590
G1Y10.1318
G1X6.1440
G1Y1.6568
G1X6.1290
G1Y10.1318
G1X6.1140
G1Y1.6568
G1X6.0990
G1Y10.1318
G1X6.0840
G1Y1.6568
G1X6.0690
G1Y10.1318
G1X6.0540
G1Y1.6568
G1X6.0390
G1Y10.1318
G1X6.0240
G1Y1.6568
G1X6.0090
G1Y10.1318
G1X5.9940
G1Y1.6568
G1X5.9790
G1Y10.1318
G1X5.9640
G1Y1.6568
G1X5.9490
G1Y10.1318
G1X5.9340
G1Y1.6568
G1X5.9190
G1Y10.1318
G1X5.9040
G1Y1.6568
G1X5.8890
G1Y10.1318
G1X5.8740
G1Y1.6568
G1X5.8590
G1Y10.1318
G1X5.8440
G1Y1.6568
G1X5.8290
G1Y10.1318
G1X5.8140
G1Y1.6568
G1X5.7990
G1Y10.1318
G1X5.7840
G1Y1.6568
G1X5.7690
G1Y10.1318
G1X5.7540
G1Y1.6568
G1X5.7390
G1Y10.1318
G1X5.7240
G1Y1.6568
G1X5.7090
G1Y10.1318
G1X5.6940
G1Y1.6568
G1X5.6790
G1Y10.1318
G1X5.6640
G1Y1.6568
G1X5.6490
G1Y10.1318
G1X5.6340
G1Y1.6568
G1X5.6190
G1Y10.1318
G1X5.6040
G1Y1.6568
G1X5.5890
G1Y10.1318
G1X5.5740
G1Y1.6568
G1X5.5590
G1Y10.1318
G1X5.5440
G1Y1.6568
G1X5.5290
G1Y10.1318
G1X5.5140
G1Y1.6568
G1X5.4990
G1Y10.1318
G1X5.4840
G1Y1.6568
G1X5.4690
G1Y10.1318
G1X5.4540
G1Y1.6568
G1X5.4390
G1Y10.1318
G1X5.4240
G1Y1.6568
G1X5.4090
G1Y10.1318
G1X5.3940
G1Y1.6568
G1X5.3790
G1Y10.1318
G1X5.3640
G1Y1.6568
G1X5.3490
G1Y10.1318
G1X5.3340
G1Y1.6568
G1X5.3190
G1Y10.1318
G1X5.3040
G1Y1.6568
G1X5.2890
G1Y10.1318
G1X5.2740
G1Y1.6568
G1X5.2590
G1Y10.1318
G1X5.2440
G1Y1.6568
G1X5.2290
G1Y10.1318
G1X5.2140
G1Y1.6568
G1X5.1990
G1Y10.1318
G1X5.1840
G1Y1.6568
G1X5.1690
G1Y10.1318
G1X5.1540
G1Y1.6568
G1X5.1390
G1Y10.1318
G1X5.1240
G1Y1.6568
G1X5.1090
G1Y10.1318
G1X5.0940
G1Y1.6568
G1X5.0790
G1Y10.1318
G1X5.0640
G1Y1.6568
G1X5.0490
G1Y10.1318
G1X5.0340
G1Y1.6568
G1X5.0190
G1Y10.1318
G1X5.0040
G1Y1.6568
G1X4.9890
G1Y10.1318
G1X4.9740
G1Y1.6568
G1X4.9590
G1Y10.1318
G1X4.9440
G1Y1.6568
G1X4.9290
G1Y10.1318
G1X4.9140
G1Y1.6568
G1X4.8990
G1Y10.1318
G1X4.8840
G1Y1.6568
G1X4.8690
G1Y10.1318
G1X4.8540
G1Y1.6568
G1X4.8390
G1Y10.1318
G1X4.8240
G1Y1.6568
G1X4.8090
G1Y10.1318
G1X4.7940
G1Y1.6568
G1X4.7790
G1Y10.1318
G1X4.7640
G1Y1.6568
G1X4.7490
G1Y10.1318
G1X4.7340
G1Y1.6568
G1X4.7190
G1Y10.1318
G1X4.7040
G1Y1.6568
G1X4.6890
G1Y10.1318
G1X4.6740
G1Y1.6568
G1X4.6590
G1Y10.1318
G1X4.6440
G1Y1.6568
G1X4.6290
G1Y10.1318
G1X4.6140
G1Y1.6568
G1X4.5990
G1Y10.1318
G1X4.5840
G1Y1.6568
G1X4.5690
G1Y10.1318
G1X4.5540
G1Y1.6568
G1X4.5390
G1Y10.1318
G1X4.5240
G1Y1.6568
G1X4.5090
G1Y10.1318
G1X4.4940
G1Y1.6568
G1X4.4790
G1Y10.1318
G1X4.4640
G1Y1.6568
G1X4.4490
G1Y10.1318
G1X4.4340
G1Y1.6568
G1X4.4190
G1Y10.1318
G1X4.4040
G1Y1.6568
G1X4.3890
G1Y10.1318
G1X4.3740
G1Y1.6568
G1X4.3590
G1Y10.1318
G1X4.3440
G1Y1.6568
G1X4.3290
G1Y10.1318
G1X4.3140
G1Y1.6568
G1X4.2990
G1Y10.1318
G1X4.2840
G1Y1.6568
G1X4.2690
G1Y10.1318
G1X4.2540
G1Y1.6568
G1X4.2390
G1Y10.1318
G1X4.2240
G1Y1.6568
G1X4.2090
G1Y10.1318
G1X4.1940
G1Y1.6568
G1X4.1790
G1Y10.1318
G1X4.1640
G1Y1.6568
G1X4.1490
G1Y10.1318
G1X4.1340
G1Y1.6568
G1X4.1190
G1Y10.1318
G1X4.1040
G1Y1.6568
G1X4.0890
G1Y10.1318
G1X4.0740
G1Y1.6568
G1X4.0590
G1Y10.1318
G1X4.0440
G1Y1.6568
G1X4.0290
G1Y10.1318
G1X4.0140
G1Y1.6568
G1X3.9990
G1Y10.1318
G1X3.9840
G1Y1.6568
G1X3.9690
G1Y10.1318
G1X3.9540
G1Y1.6568
G1X3.9390
G1Y10.1318
G1X3.9240
G1Y1.6568
G1X3.9090
G1Y10.1318
G1X3.8940
G1Y1.6568
G1X3.8790
G1Y10.1318
G1X3.8640
G1Y1.6568
G1X3.8490
G1Y10.1318
G1X3.8340
G1Y1.6568
G1X3.8190
G1Y10.1318
G1X3.8040
G1Y1.6568
G1X3.7890
G1Y10.1318
G1X3.7740
G1Y1.6568
G1X3.7590
G1Y10.1318
G1X3.7440
G1Y1.6568
G1X3.7290
G1Y10.1318
G1X3.7140
G1Y1.6568
G1X3.6990
G1Y10.1318
G1X3.6840
G1Y1.6568
G1X3.6690
G1Y10.1318
G1X3.6540
G1Y1.6568
G1X3.6390
G1Y10.1318
G1X3.6240
G1Y1.6568
G1X3.6090
G1Y10.1318
G1X3.5940
G1Y1.6568
G1X3.5790
G1Y10.1318
G1X3.5640
G1Y1.6568
G1X3.5490
G1Y10.1318
G1X3.5340
G1Y1.6568
G1X3.5190
G1Y10.1318
G1X3.5040
G1Y1.6568
G1X3.4890
G1Y10.1318
G1X3.4740
G1Y1.6568
G1X3.4590
G1Y10.1318
G1X3.4440
G1Y1.6568
G1X3.4290
G1Y10.1318
G1X3.4140
G1Y1.6568
G1X3.3990
G1Y10.1318
G1X3.3840
G1Y1.6568
G1X3.3690
G1Y10.1318
G1X3.3540
G1Y1.6568
G1X3.3390
G1Y10.1318
G1X3.3240
G1Y1.6568
G1X3.3090
G1Y10.1318
G1X3.2940
G1Y1.6568
G1X3.2790
G1Y10.1318
G1X3.2640
G1Y1.6568
G1X3.2490
G1Y10.1318
G1X3.2340
G1Y1.6568
G1X3.2190
G1Y10.1318
G1X3.2040
G1Y1.6568
G1X3.1890
G1Y10.1318
G1X3.1740
G1Y1.6568
G1X3.1590
G1Y10.1318
G1X3.1440
G1Y1.6568
G1X3.1290
G1Y10.1318
G1X3.1140
G1Y1.6568
G1X3.0990
G1Y10.1318
G1X3.0840
G1Y1.6568
G1X3.0690
G1Y10.1318
G1X3.0540
G1Y1.6568
G1X3.0390
G1Y10.1318
G1X3.0240
G1Y1.6568
G1X3.0090
G1Y10.1318
G1X2.9940
G1Y1.6568
G1X2.9790
G1Y10.1318
G1X2.9640
G1Y1.6568
G1X2.9490
G1Y10.1318
G1X2.9340
G1Y1.6568
G1X2.9190
G1Y10.1318
G1X2.9040
G1Y1.6568
G1X2.8890
G1Y10.1318
G1X2.8740
G1Y1.6568
G1X2.8590
G1Y10.1318
G1X2.8440
G1Y1.6568
G1X2.8290
G1Y10.1318
G1X2.8140
G1Y1.6568
G1X2.7990
G1Y10.1318
G1X2.7840
G1Y1.6568
G1X2.7690
G1Y10.1318
G1X2.7540
G1Y1.6568
G1X2.7390
G1Y10.1318
G1X2.7240
G1Y1.6568
G1X2.7090
G1Y10.1318
G1X2.6940
G1Y1.6568
G1X2.6790
G1Y10.1318
G1X2.6640
G1Y1.6568
G1X2.6490
G1Y10.1318
G1X2.6340
G1Y1.6568
G1X2.6190
G1Y10.1318
G1X2.6040
G1Y1.6568
G1X2.5890
G1Y10.1318
G1X2.5740
G1Y1.6568
G1X2.5590
G1Y10.1318
G1X2.5440
G1Y1.6568
G1X2.5290
G1Y10.1318
G1X2.5140
G1Y1.6568
G1X2.4990
G1Y10.1318
G1X2.4840
G1Y1.6568
G1X2.4690
G1Y10.1318
G1X2.4540
G1Y1.6568
G1X2.4390
G1Y10.1318
G1X2.4240
G1Y1.6568
G1X2.4090
G1Y10.1318
G1X2.3940
G1Y1.6568
G1X2.3790
G1Y10.1318
G1X2.3640
G1Y1.6568
G1X2.3490
G1Y10.1318
G1X2.3340
G1Y1.6568
G1X2.3191
G1Y10.1318
G1Z-0.1725F15.0
G1Y1.6568F45.0
G1X2.3340
G1Y10.1318
G1X2.3490
G1Y1.6568
G1X2.3640
G1Y10.1318
G1X2.3790
G1Y1.6568
G1X2.3940
G1Y10.1318
G1X2.4090
G1Y1.6568
G1X2.4240
G1Y10.1318
G1X2.4390
G1Y1.6568
G1X2.4540
G1Y10.1318
G1X2.4690
G1Y1.6568
G1X2.4840
G1Y10.1318
G1X2.4990
G1Y1.6568
G1X2.5140
G1Y10.1318
G1X2.5290
G1Y1.6568
G1X2.5440
G1Y10.1318
G1X2.5590
G1Y1.6568
G1X2.5740
G1Y10.1318
G1X2.5890
G1Y1.6568
G1X2.6040
G1Y10.1318
G1X2.6190
G1Y1.6568
G1X2.6340
G1Y10.1318
G1X2.6490
G1Y1.6568
G1X2.6640
G1Y10.1318
G1X2.6790
G1Y1.6568
G1X2.6940
G1Y10.1318
G1X2.7090
G1Y1.6568
G1X2.7240
G1Y10.1318
G1X2.7390
G1Y1.6568
G1X2.7540
G1Y10.1318
G1X2.7690
G1Y1.6568
G1X2.7840
G1Y10.1318
G1X2.7990
G1Y1.6568
G1X2.8140
G1Y10.1318
G1X2.8290
G1Y1.6568
G1X2.8440
G1Y10.1318
G1X2.8590
G1Y1.6568
G1X2.8740
G1Y10.1318
G1X2.8890
G1Y1.6568
G1X2.9040
G1Y10.1318
G1X2.9190
G1Y1.6568
G1X2.9340
G1Y10.1318
G1X2.9490
G1Y1.6568
G1X2.9640
G1Y10.1318
G1X2.9790
G1Y1.6568
G1X2.9940
G1Y10.1318
G1X3.0090
G1Y1.6568
G1X3.0240
G1Y10.1318
G1X3.0390
G1Y1.6568
G1X3.0540
G1Y10.1318
G1X3.0690
G1Y1.6568
G1X3.0840
G1Y10.1318
G1X3.0990
G1Y1.6568
G1X3.1140
G1Y10.1318
G1X3.1290
G1Y1.6568
G1X3.1440
G1Y10.1318
G1X3.1590
G1Y1.6568
G1X3.1740
G1Y10.1318
G1X3.1890
G1Y1.6568
G1X3.2040
G1Y10.1318
G1X3.2190
G1Y1.6568
G1X3.2340
G1Y10.1318
G1X3.2490
G1Y1.6568
G1X3.2640
G1Y10.1318
G1X3.2790
G1Y1.6568
G1X3.2940
G1Y10.1318
G1X3.3090
G1Y1.6568
G1X3.3240
G1Y10.1318
G1X3.3390
G1Y1.6568
G1X3.3540
G1Y10.1318
G1X3.3690
G1Y1.6568
G1X3.3840
G1Y10.1318
G1X3.3990
G1Y1.6568
G1X3.4140
G1Y10.1318
G1X3.4290
G1Y1.6568
G1X3.4440
G1Y10.1318
G1X3.4590
G1Y1.6568
G1X3.4740
G1Y10.1318
G1X3.4890
G1Y1.6568
G1X3.5040
G1Y10.1318
G1X3.5190
G1Y1.6568
G1X3.5340
G1Y10.1318
G1X3.5490
G1Y1.6568
G1X3.5640
G1Y10.1318
G1X3.5790
G1Y1.6568
G1X3.5940
G1Y10.1318
G1X3.6090
G1Y1.6568
G1X3.6240
G1Y10.1318
G1X3.6390
G1Y1.6568
G1X3.6540
G1Y10.1318
G1X3.6690
G1Y1.6568
G1X3.6840
G1Y10.1318
G1X3.6990
G1Y1.6568
G1X3.7140
G1Y10.1318
G1X3.7290
G1Y1.6568
G1X3.7440
G1Y10.1318
G1X3.7590
G1Y1.6568
G1X3.7740
G1Y10.1318
G1X3.7890
G1Y1.6568
G1X3.8040
G1Y10.1318
G1X3.8190
G1Y1.6568
G1X3.8340
G1Y10.1318
G1X3.8490
G1Y1.6568
G1X3.8640
G1Y10.1318
G1X3.8790
G1Y1.6568
G1X3.8940
G1Y10.1318
G1X3.9090
G1Y1.6568
G1X3.9240
G1Y10.1318
G1X3.9390
G1Y1.6568
G1X3.9540
G1Y10.1318
G1X3.9690
G1Y1.6568
G1X3.9840
G1Y10.1318
G1X3.9990
G1Y1.6568
G1X4.0140
G1Y10.1318
G1X4.0290
G1Y1.6568
G1X4.0440
G1Y10.1318
G1X4.0590
G1Y1.6568
G1X4.0740
G1Y10.1318
G1X4.0890
G1Y1.6568
G1X4.1040
G1Y10.1318
G1X4.1190
G1Y1.6568
G1X4.1340
G1Y10.1318
G1X4.1490
G1Y1.6568
G1X4.1640
G1Y10.1318
G1X4.1790
G1Y1.6568
G1X4.1940
G1Y10.1318
G1X4.2090
G1Y1.6568
G1X4.2240
G1Y10.1318
G1X4.2390
G1Y1.6568
G1X4.2540
G1Y10.1318
G1X4.2690
G1Y1.6568
G1X4.2840
G1Y10.1318
G1X4.2990
G1Y1.6568
G1X4.3140
G1Y10.1318
G1X4.3290
G1Y1.6568
G1X4.3440
G1Y10.1318
G1X4.3590
G1Y1.6568
G1X4.3740
G1Y10.1318
G1X4.3890
G1Y1.6568
G1X4.4040
G1Y10.1318
G1X4.4190
G1Y1.6568
G1X4.4340
G1Y10.1318
G1X4.4490
G1Y1.6568
G1X4.4640
G1Y10.1318
G1X4.4790
G1Y1.6568
G1X4.4940
G1Y10.1318
G1X4.5090
G1Y1.6568
G1X4.5240
G1Y10.1318
G1X4.5390
G1Y1.6568
G1X4.5540
G1Y10.1318
G1X4.5690
G1Y1.6568
G1X4.5840
G1Y10.1318
G1X4.5990
G1Y1.6568
G1X4.6140
G1Y10.1318
G1X4.6290
G1Y1.6568
G1X4.6440
G1Y10.1318
G1X4.6590
G1Y1.6568
G1X4.6740
G1Y10.1318
G1X4.6890
G1Y1.6568
G1X4.7040
G1Y10.1318
G1X4.7190
G1Y1.6568
G1X4.7340
G1Y10.1318
G1X4.7490
G1Y1.6568
G1X4.7640
G1Y10.1318
G1X4.7790
G1Y1.6568
G1X4.7940
G1Y10.1318
G1X4.8090
G1Y1.6568
G1X4.8240
G1Y10.1318
G1X4.8390
G1Y1.6568
G1X4.8540
G1Y10.1318
G1X4.8690
G1Y1.6568
G1X4.8840
G1Y10.1318
G1X4.8990
G1Y1.6568
G1X4.9140
G1Y10.1318
G1X4.9290
G1Y1.6568
G1X4.9440
G1Y10.1318
G1X4.9590
G1Y1.6568
G1X4.9740
G1Y10.1318
G1X4.9890
G1Y1.6568
G1X5.0040
G1Y10.1318
G1X5.0190
G1Y1.6568
G1X5.0340
G1Y10.1318
G1X5.0490
G1Y1.6568
G1X5.0640
G1Y10.1318
G1X5.0790
G1Y1.6568
G1X5.0940
G1Y10.1318
G1X5.1090
G1Y1.6568
G1X5.1240
G1Y10.1318
G1X5.1390
G1Y1.6568
G1X5.1540
G1Y10.1318
G1X5.1690
G1Y1.6568
G1X5.1840
G1Y10.1318
G1X5.1990
G1Y1.6568
G1X5.2140
G1Y10.1318
G1X5.2290
G1Y1.6568
G1X5.2440
G1Y10.1318
G1X5.2590
G1Y1.6568
G1X5.2740
G1Y10.1318
G1X5.2890
G1Y1.6568
G1X5.3040
G1Y10.1318
G1X5.3190
G1Y1.6568
G1X5.3340
G1Y10.1318
G1X5.3490
G1Y1.6568
G1X5.3640
G1Y10.1318
G1X5.3790
G1Y1.6568
G1X5.3940
G1Y10.1318
G1X5.4090
G1Y1.6568
G1X5.4240
G1Y10.1318
G1X5.4390
G1Y1.6568
G1X5.4540
G1Y10.1318
G1X5.4690
G1Y1.6568
G1X5.4840
G1Y10.1318
G1X5.4990
G1Y1.6568
G1X5.5140
G1Y10.1318
G1X5.5290
G1Y1.6568
G1X5.5440
G1Y10.1318
G1X5.5590
G1Y1.6568
G1X5.5740
G1Y10.1318
G1X5.5890
G1Y1.6568
G1X5.6040
G1Y10.1318
G1X5.6190
G1Y1.6568
G1X5.6340
G1Y10.1318
G1X5.6490
G1Y1.6568
G1X5.6640
G1Y10.1318
G1X5.6790
G1Y1.6568
G1X5.6940
G1Y10.1318
G1X5.7090
G1Y1.6568
G1X5.7240
G1Y10.1318
G1X5.7390
G1Y1.6568
G1X5.7540
G1Y10.1318
G1X5.7690
G1Y1.6568
G1X5.7840
G1Y10.1318
G1X5.7990
G1Y1.6568
G1X5.8140
G1Y10.1318
G1X5.8290
G1Y1.6568
G1X5.8440
G1Y10.1318
G1X5.8590
G1Y1.6568
G1X5.8740
G1Y10.1318
G1X5.8890
G1Y1.6568
G1X5.9040
G1Y10.1318
G1X5.9190
G1Y1.6568
G1X5.9340
G1Y10.1318
G1X5.9490
G1Y1.6568
G1X5.9640
G1Y10.1318
G1X5.9790
G1Y1.6568
G1X5.9940
G1Y10.1318
G1X6.0090
G1Y1.6568
G1X6.0240
G1Y10.1318
G1X6.0390
G1Y1.6568
G1X6.0540
G1Y10.1318
G1X6.0690
G1Y1.6568
G1X6.0840
G1Y10.1318
G1X6.0990
G1Y1.6568
G1X6.1140
G1Y10.1318
G1X6.1290
G1Y1.6568
G1X6.1440
G1Y10.1318
G1X6.1590
G1Y1.6568
G1X6.1740
G1Y10.1318
G1X6.1890
G1Y1.6568
G1X6.2040
G1Y10.1318
G1X6.2190
G1Y1.6568
G1X6.2340
G1Y10.1318
G1X6.2490
G1Y1.6568
G1X6.2640
G1Y10.1318
G1X6.2790
G1Y1.6568
G1X6.2940
G1Y10.1318
G1X6.3090
G1Y1.6568
G1X6.3240
G1Y10.1318
G1X6.3390
G1Y1.6568
G1X6.3540
G1Y10.1318
G1X6.3690
G1Y1.6568
G1X6.3840
G1Y10.1318
G1X6.3990
G1Y1.6568
G1X6.4140
G1Y10.1318
G1X6.4290
G1Y1.6568
G1X6.4440
G1Y10.1318
G1X6.4590
G1Y1.6568
G1X6.4740
G1Y10.1318
G1X6.4890
G1Y1.6568
G1X6.5040
G1Y10.1318
G1X6.5190
G1Y1.6568
G1X6.5340
G1Y10.1318
G1X6.5490
G1Y1.6568
G1X6.5640
G1Y10.1318
G1X6.5790
G1Y1.6568
G1X6.5940
G1Y10.1318
G1X6.6090
G1Y1.6568
G1X6.6240
G1Y10.1318
G1X6.6390
G1Y1.6568
G1X6.6540
G1Y10.1318
G1X6.6690
G1Y1.6568
G1X6.6840
G1Y10.1318
G1X6.6990
G1Y1.6568
G1X6.7140
G1Y10.1318
G1X6.7290
G1Y1.6568
G1X6.7440
G1Y10.1318
G1X6.7590
G1Y1.6568
G1X6.7740
G1Y10.1318
G1X6.7890
G1Y1.6568
G1X6.8040
G1Y10.1318
G1X6.8190
G1Y1.6568
G1X6.8340
G1Y10.1318
G1X6.8490
G1Y1.6568
G1X6.8640
G1Y10.1318
G1X6.8790
G1Y1.6568
G1X6.8940
G1Y10.1318
G1X6.9090
G1Y1.6568
G1X6.9240
G1Y10.1318
G1X6.9390
G1Y1.6568
G1X6.9540
G1Y10.1318
G1X6.9690
G1Y1.6568
G1X6.9840
G1Y10.1318
G1X6.9990
G1Y1.6568
G1X7.0140
G1Y10.1318
G1X7.0290
G1Y1.6568
G1X7.0440
G1Y10.1318
G1X7.0590
G1Y1.6568
G1X7.0740
G1Y10.1318
G1X7.0890
G1Y1.6568
G1X7.1040
G1Y10.1318
G1X7.1190
G1Y1.6568
G1X7.1340
G1Y10.1318
G1X7.1490
G1Y1.6568
G1X7.1640
G1Y10.1318
G1X7.1790
G1Y1.6568
G1X7.1940
G1Y10.1318
G1X7.2090
G1Y1.6568
G1X7.2240
G1Y10.1318
G1X7.2390
G1Y1.6568
G1X7.2540
G1Y10.1318
G1X7.2690
G1Y1.6568
G1X7.2840
G1Y10.1318
G1X7.2990
G1Y1.6568
G1X7.3140
G1Y10.1318
G1X7.3290
G1Y1.6568
G1X7.3440
G1Y10.1318
G1X7.3590
G1Y1.6568
G1X7.3740
G1Y10.1318
G1X7.3890
G1Y1.6568
G1X7.4040
G1Y10.1318
G1X7.4190
G1Y1.6568
G1X7.4340
G1Y10.1318
G1X7.4490
G1Y1.6568
G1X7.4640
G1Y10.1318
G1X7.4790
G1Y1.6568
G1X7.4940
G1Y10.1318
G1X7.5090
G1Y1.6568
G1X7.5240
G1Y10.1318
G1X7.5390
G1Y1.6568
G1X7.5540
G1Y10.1318
G1X7.5690
G1Y1.6568
G1X7.5840
G1Y10.1318
G1X7.5990
G1Y1.6568
G1X7.6140
G1Y10.1318
G1X7.6290
G1Y1.6568
G1X7.6440
G1Y10.1318
G1X7.6590
G1Y1.6568
G1X7.6740
G1Y10.1318
G1X7.6890
G1Y1.6568
G1X7.7040
G1Y10.1318
G1X7.7190
G1Y1.6568
G1X7.7340
G1Y10.1318
G1X7.7490
G1Y1.6568
G1X7.7640
G1Y10.1318
G1X7.7790
G1Y1.6568
G1X7.7940
G1Y10.1318
G1X7.8090
G1Y1.6568
G1X7.8240
G1Y10.1318
G1X7.8390
G1Y1.6568
G1X7.8540
G1Y10.1318
G1X7.8690
G1Y1.6568
G1X7.8840
G1Y10.1318
G1X7.8990
G1Y1.6568
G1X7.9140
G1Y10.1318
G1X7.9290
G1Y1.6568
G1X7.9440
G1Y10.1318
G1X7.9590
G1Y1.6568
G1X7.9740
G1Y10.1318
G1X7.9890
G1Y1.6568
G1X8.0040
G1Y10.1318
G1X8.0190
G1Y1.6568
G1X8.0340
G1Y10.1318
G1X8.0490
G1Y1.6568
G1X8.0640
G1Y10.1318
G1X8.0790
G1Y1.6568
G1X8.0940
G1Y10.1318
G1X8.1090
G1Y1.6568
G1X8.1240
G1Y10.1318
G1X8.1390
G1Y1.6568
G1X8.1540
G1Y10.1318
G1X8.1690
G1Y1.6568
G1X8.1840
G1Y10.1318
G1X8.1990
G1Y1.6568
G1X8.2140
G1Y10.1318
G1X8.2290
G1Y1.6568
G1X8.2440
G1Y10.1318
G1X8.2590
G1Y1.6568
G1X8.2740
G1Y10.1318
G1X8.2890
G1Y1.6568
G1X8.3040
G1Y10.1318
G1X8.3190
G1Y1.6568
G1X8.3340
G1Y10.1318
G1X8.3490
G1Y1.6568
G1X8.3640
G1Y10.1318
G1X8.3790
G1Y1.6568
G1X8.3940
G1Y10.1318
G1X8.4090
G1Y1.6568
G1X8.4240
G1Y10.1318
G1X8.4390
G1Y1.6568
G1X8.4540
G1Y10.1318
G1X8.4690
G1Y1.6568
G1X8.4840
G1Y10.1318
G1X8.4990
G1Y1.6568
G1X8.5140
G1Y10.1318
G1X8.5290
G1Y1.6568
G1X8.5440
G1Y10.1318
G1X8.5590
G1Y1.6568
G1X8.5740
G1Y10.1318
G1X8.5890
G1Y1.6568
G1X8.6040
G1Y10.1318
G1X8.6190
G1Y1.6568
G1X8.6340
G1Y10.1318
G1X8.6490
G1Y1.6568
G1X8.6640
G1Y10.1318
G1X8.6790
G1Y1.6568
G1X8.6940
G1Y10.1318
G1X8.7090
G1Y1.6568
G1X8.7240
G1Y10.1318
G1X8.7390
G1Y1.6568
G1X8.7540
G1Y10.1318
G1X8.7690
G1Y1.6568
G1X8.7840
G1Y10.1318
G1X8.7990
G1Y1.6568
G1X8.8140
G1Y10.1318
G1X8.8290
G1Y1.6568
G1X8.8440
G1Y10.1318
G1X8.8590
G1Y1.6568
G1X8.8740
G1Y10.1318
G1X8.8890
G1Y1.6568
G1X8.9040
G1Y10.1318
G1X8.9190
G1Y1.6568
G1X8.9340
G1Y10.1318
G1X8.9490
G1Y1.6568
G1X8.9640
G1Y10.1318
G1X8.9790
G1Y1.6568
G1X8.9940
G1Y10.1318
G1X9.0090
G1Y1.6568
G1X9.0240
G1Y10.1318
G1X9.0390
G1Y1.6568
G1X9.0540
G1Y10.1318
G1X9.0690
G1Y1.6568
G1X9.0840
G1Y10.1318
G1X9.0990
G1Y1.6568
G1X9.1140
G1Y10.1318
G1X9.1290
G1Y1.6568
G1X9.1440
G1Y10.1318
G1X9.1590
G1Y1.6568
G1X9.1740
G1Y10.1318
G1X9.1890
G1Y1.6568
G1X9.2040
G1Y10.1318
G1X9.2190
G1Y1.6568
G1X9.2340
G1Y10.1318
G1X9.2490
G1Y1.6568
G1X9.2640
G1Y10.1318
G1X9.2790
G1Y1.6568
G1X9.2940
G1Y10.1318
G1X9.3090
G1Y1.6568
G1X9.3240
G1Y10.1318
G1X9.3390
G1Y1.6568
G1X9.3540
G1Y10.1318
G1X9.3690
G1Y1.6568
G1X9.3840
G1Y10.1318
G1X9.3990
G1Y1.6568
G1X9.4140
G1Y10.1318
G1X9.4290
G1Y1.6568
G1X9.4440
G1Y10.1318
G1X9.4590
G1Y1.6568
G1X9.4740
G1Y10.1318
G1X9.4890
G1Y1.6568
G1X9.5040
G1Y10.1318
G1X9.5190
G1Y1.6568
G1X9.5340
G1Y10.1318
G1X9.5490
G1Y1.6568
G1X9.5640
G1Y10.1318
G1X9.5790
G1Y1.6568
G1X9.5940
G1Y10.1318
G1X9.6090
G1Y1.6568
G1X9.6240
G1Y10.1318
G1X9.6390
G1Y1.6568
G1X9.6540
G1Y10.1318
G1X9.6690
G1Y1.6568
G1X9.6840
G1Y10.1318
G1X9.6990
G1Y1.6568
G1X9.7140
G1Y10.1318
G1X9.7290
G1Y1.6568
G1X9.7440
G1Y10.1318
G1X9.7590
G1Y1.6568
G1X9.7740
G1Y10.1318
G1X9.7890
G1Y1.6568
G1X9.8040
G1Y10.1318
G1X9.8190
G1Y1.6568
G1X9.8340
G1Y10.1318
G1X9.8490
G1Y1.6568
G1X9.8640
G1Y10.1318
G1X9.8790
G1Y1.6568
G1X9.8940
G1Y10.1318
G1X9.9090
G1Y1.6568
G1X9.9240
G1Y10.1318
G1X9.9390
G1Y1.6568
G1X9.9540
G1Y10.1318
G1X9.9690
G1Y1.6568
G1X9.9840
G1Y10.1318
G1X9.9990
G1Y1.6568
G1X10.0140
G1Y10.1318
G1X10.0290
G1Y1.6568
G1X10.0440
G1Y10.1318
G1X10.0590
G1Y1.6568
G1X10.0740
G1Y10.1318
G1X10.0890
G1Y1.6568
G1X10.1040
G1Y10.1318
G1X10.1190
G1Y1.6568
G1X10.1340
G1Y10.1318
G1X10.1490
G1Y1.6568
G1X10.1640
G1Y10.1318
G1X10.1790
G1Y1.6568
G1X10.1940
G1Y10.1318
G1Z-0.2013F15.0
G1Y1.6568F45.0
G1X10.1790
G1Y10.1318
G1X10.1640
G1Y1.6568
G1X10.1490
G1Y10.1318
G1X10.1340
G1Y1.6568
G1X10.1190
G1Y10.1318
G1X10.1040
G1Y1.6568
G1X10.0890
G1Y10.1318
G1X10.0740
G1Y1.6568
G1X10.0590
G1Y10.1318
G1X10.0440
G1Y1.6568
G1X10.0290
G1Y10.1318
G1X10.0140
G1Y1.6568
G1X9.9990
G1Y10.1318
G1X9.9840
G1Y1.6568
G1X9.9690
G1Y10.1318
G1X9.9540
G1Y1.6568
G1X9.9390
G1Y10.1318
G1X9.9240
G1Y1.6568
G1X9.9090
G1Y10.1318
G1X9.8940
G1Y1.6568
G1X9.8790
G1Y10.1318
G1X9.8640
G1Y1.6568
G1X9.8490
G1Y10.1318
G1X9.8340
G1Y1.6568
G1X9.8190
G1Y10.1318
G1X9.8040
G1Y1.6568
G1X9.7890
G1Y10.1318
G1X9.7740
G1Y1.6568
G1X9.7590
G1Y10.1318
G1X9.7440
G1Y1.6568
G1X9.7290
G1Y10.1318
G1X9.7140
G1Y1.6568
G1X9.6990
G1Y10.1318
G1X9.6840
G1Y1.6568
G1X9.6690
G1Y10.1318
G1X9.6540
G1Y1.6568
G1X9.6390
G1Y10.1318
G1X9.6240
G1Y1.6568
G1X9.6090
G1Y10.1318
G1X9.5940
G1Y1.6568
G1X9.5790
G1Y10.1318
G1X9.5640
G1Y1.6568
G1X9.5490
G1Y10.1318
G1X9.5340
G1Y1.6568
G1X9.5190
G1Y10.1318
G1X9.5040
G1Y1.6568
G1X9.4890
G1Y10.1318
G1X9.4740
G1Y1.6568
G1X9.4590
G1Y10.1318
G1X9.4440
G1Y1.6568
G1X9.4290
G1Y10.1318
G1X9.4140
G1Y1.6568
G1X9.3990
G1Y10.1318
G1X9.3840
G1Y1.6568
G1X9.3690
G1Y10.1318
G1X9.3540
G1Y1.6568
G1X9.3390
G1Y10.1318
G1X9.3240
G1Y1.6568
G1X9.3090
G1Y10.1318
G1X9.2940
G1Y1.6568
G1X9.2790
G1Y10.1318
G1X9.2640
G1Y1.6568
G1X9.2490
G1Y10.1318
G1X9.2340
G1Y1.6568
G1X9.2190
G1Y10.1318
G1X9.2040
G1Y1.6568
G1X9.1890
G1Y10.1318
G1X9.1740
G1Y1.6568
G1X9.1590
G1Y10.1318
G1X9.1440
G1Y1.6568
G1X9.1290
G1Y10.1318
G1X9.1140
G1Y1.6568
G1X9.0990
G1Y10.1318
G1X9.0840
G1Y1.6568
G1X9.0690
G1Y10.1318
G1X9.0540
G1Y1.6568
G1X9.0390
G1Y10.1318
G1X9.0240
G1Y1.6568
G1X9.0090
G1Y10.1318
G1X8.9940
G1Y1.6568
G1X8.9790
G1Y10.1318
G1X8.9640
G1Y1.6568
G1X8.9490
G1Y10.1318
G1X8.9340
G1Y1.6568
G1X8.9190
G1Y10.1318
G1X8.9040
G1Y1.6568
G1X8.8890
G1Y10.1318
G1X8.8740
G1Y1.6568
G1X8.8590
G1Y10.1318
G1X8.8440
G1Y1.6568
G1X8.8290
G1Y10.1318
G1X8.8140
G1Y1.6568
G1X8.7990
G1Y10.1318
G1X8.7840
G1Y1.6568
G1X8.7690
G1Y10.1318
G1X8.7540
G1Y1.6568
G1X8.7390
G1Y10.1318
G1X8.7240
G1Y1.6568
G1X8.7090
G1Y10.1318
G1X8.6940
G1Y1.6568
G1X8.6790
G1Y10.1318
G1X8.6640
G1Y1.6568
G1X8.6490
G1Y10.1318
G1X8.6340
G1Y1.6568
G1X8.6190
G1Y10.1318
G1X8.6040
G1Y1.6568
G1X8.5890
G1Y10.1318
G1X8.5740
G1Y1.6568
G1X8.5590
G1Y10.1318
G1X8.5440
G1Y1.6568
G1X8.5290
G1Y10.1318
G1X8.5140
G1Y1.6568
G1X8.4990
G1Y10.1318
G1X8.4840
G1Y1.6568
G1X8.4690
G1Y10.1318
G1X8.4540
G1Y1.6568
G1X8.4390
G1Y10.1318
G1X8.4240
G1Y1.6568
G1X8.4090
G1Y10.1318
G1X8.3940
G1Y1.6568
G1X8.3790
G1Y10.1318
G1X8.3640
G1Y1.6568
G1X8.3490
G1Y10.1318
G1X8.3340
G1Y1.6568
G1X8.3190
G1Y10.1318
G1X8.3040
G1Y1.6568
G1X8.2890
G1Y10.1318
G1X8.2740
G1Y1.6568
G1X8.2590
G1Y10.1318
G1X8.2440
G1Y1.6568
G1X8.2290
G1Y10.1318
G1X8.2140
G1Y1.6568
G1X8.1990
G1Y10.1318
G1X8.1840
G1Y1.6568
G1X8.1690
G1Y10.1318
G1X8.1540
G1Y1.6568
G1X8.1390
G1Y10.1318
G1X8.1240
G1Y1.6568
G1X8.1090
G1Y10.1318
G1X8.0940
G1Y1.6568
G1X8.0790
G1Y10.1318
G1X8.0640
G1Y1.6568
G1X8.0490
G1Y10.1318
G1X8.0340
G1Y1.6568
G1X8.0190
G1Y10.1318
G1X8.0040
G1Y1.6568
G1X7.9890
G1Y10.1318
G1X7.9740
G1Y1.6568
G1X7.9590
G1Y10.1318
G1X7.9440
G1Y1.6568
G1X7.9290
G1Y10.1318
G1X7.9140
G1Y1.6568
G1X7.8990
G1Y10.1318
G1X7.8840
G1Y1.6568
G1X7.8690
G1Y10.1318
G1X7.8540
G1Y1.6568
G1X7.8390
G1Y10.1318
G1X7.8240
G1Y1.6568
G1X7.8090
G1Y10.1318
G1X7.7940
G1Y1.6568
G1X7.7790
G1Y10.1318
G1X7.7640
G1Y1.6568
G1X7.7490
G1Y10.1318
G1X7.7340
G1Y1.6568
G1X7.7190
G1Y10.1318
G1X7.7040
G1Y1.6568
G1X7.6890
G1Y10.1318
G1X7.6740
G1Y1.6568
G1X7.6590
G1Y10.1318
G1X7.6440
G1Y1.6568
G1X7.6290
G1Y10.1318
G1X7.6140
G1Y1.6568
G1X7.5990
G1Y10.1318
G1X7.5840
G1Y1.6568
G1X7.5690
G1Y10.1318
G1X7.5540
G1Y1.6568
G1X7.5390
G1Y10.1318
G1X7.5240
G1Y1.6568
G1X7.5090
G1Y10.1318
G1X7.4940
G1Y1.6568
G1X7.4790
G1Y10.1318
G1X7.4640
G1Y1.6568
G1X7.4490
G1Y10.1318
G1X7.4340
G1Y1.6568
G1X7.4190
G1Y10.1318
G1X7.4040
G1Y1.6568
G1X7.3890
G1Y10.1318
G1X7.3740
G1Y1.6568
G1X7.3590
G1Y10.1318
G1X7.3440
G1Y1.6568
G1X7.3290
G1Y10.1318
G1X7.3140
G1Y1.6568
G1X7.2990
G1Y10.1318
G1X7.2840
G1Y1.6568
G1X7.2690
G1Y10.1318
G1X7.2540
G1Y1.6568
G1X7.2390
G1Y10.1318
G1X7.2240
G1Y1.6568
G1X7.2090
G1Y10.1318
G1X7.1940
G1Y1.6568
G1X7.1790
G1Y10.1318
G1X7.1640
G1Y1.6568
G1X7.1490
G1Y10.1318
G1X7.1340
G1Y1.6568
G1X7.1190
G1Y10.1318
G1X7.1040
G1Y1.6568
G1X7.0890
G1Y10.1318
G1X7.0740
G1Y1.6568
G1X7.0590
G1Y10.1318
G1X7.0440
G1Y1.6568
G1X7.0290
G1Y10.1318
G1X7.0140
G1Y1.6568
G1X6.9990
G1Y10.1318
G1X6.9840
G1Y1.6568
G1X6.9690
G1Y10.1318
G1X6.9540
G1Y1.6568
G1X6.9390
G1Y10.1318
G1X6.9240
G1Y1.6568
G1X6.9090
G1Y10.1318
G1X6.8940
G1Y1.6568
G1X6.8790
G1Y10.1318
G1X6.8640
G1Y1.6568
G1X6.8490
G1Y10.1318
G1X6.8340
G1Y1.6568
G1X6.8190
G1Y10.1318
G1X6.8040
G1Y1.6568
G1X6.7890
G1Y10.1318
G1X6.7740
G1Y1.6568
G1X6.7590
G1Y10.1318
G1X6.7440
G1Y1.6568
G1X6.7290
G1Y10.1318
G1X6.7140
G1Y1.6568
G1X6.6990
G1Y10.1318
G1X6.6840
G1Y1.6568
G1X6.6690
G1Y10.1318
G1X6.6540
G1Y1.6568
G1X6.6390
G1Y10.1318
G1X6.6240
G1Y1.6568
G1X6.6090
G1Y10.1318
G1X6.5940
G1Y1.6568
G1X6.5790
G1Y10.1318
G1X6.5640
G1Y1.6568
G1X6.5490
G1Y10.1318
G1X6.5340
G1Y1.6568
G1X6.5190
G1Y10.1318
G1X6.5040
G1Y1.6568
G1X6.4890
G1Y10.1318
G1X6.4740
G1Y1.6568
G1X6.4590
G1Y10.1318
G1X6.4440
G1Y1.6568
G1X6.4290
G1Y10.1318
G1X6.4140
G1Y1.6568
G1X6.3990
G1Y10.1318
G1X6.3840
G1Y1.6568
G1X6.3690
G1Y10.1318
G1X6.3540
G1Y1.6568
G1X6.3390
G1Y10.1318
G1X6.3240
G1Y1.6568
G1X6.3090
G1Y10.1318
G1X6.2940
G1Y1.6568
G1X6.2790
G1Y10.1318
G1X6.2640
G1Y1.6568
G1X6.2490
G1Y10.1318
G1X6.2340
G1Y1.6568
G1X6.2190
G1Y10.1318
G1X6.2040
G1Y1.6568
G1X6.1890
G1Y10.1318
G1X6.1740
G1Y1.6568
G1X6.1590
G1Y10.1318
G1X6.1440
G1Y1.6568
G1X6.1290
G1Y10.1318
G1X6.1140
G1Y1.6568
G1X6.0990
G1Y10.1318
G1X6.0840
G1Y1.6568
G1X6.0690
G1Y10.1318
G1X6.0540
G1Y1.6568
G1X6.0390
G1Y10.1318
G1X6.0240
G1Y1.6568
G1X6.0090
G1Y10.1318
G1X5.9940
G1Y1.6568
G1X5.9790
G1Y10.1318
G1X5.9640
G1Y1.6568
G1X5.9490
G1Y10.1318
G1X5.9340
G1Y1.6568
G1X5.9190
G1Y10.1318
G1X5.9040
G1Y1.6568
G1X5.8890
G1Y10.1318
G1X5.8740
G1Y1.6568
G1X5.8590
G1Y10.1318
G1X5.8440
G1Y1.6568
G1X5.8290
G1Y10.1318
G1X5.8140
G1Y1.6568
G1X5.7990
G1Y10.1318
G1X5.7840
G1Y1.6568
G1X5.7690
G1Y10.1318
G1X5.7540
G1Y1.6568
G1X5.7390
G1Y10.1318
G1X5.7240
G1Y1.6568
G1X5.7090
G1Y10.1318
G1X5.6940
G1Y1.6568
G1X5.6790
G1Y10.1318
G1X5.6640
G1Y1.6568
G1X5.6490
G1Y10.1318
G1X5.6340
G1Y1.6568
G1X5.6190
G1Y10.1318
G1X5.6040
G1Y1.6568
G1X5.5890
G1Y10.1318
G1X5.5740
G1Y1.6568
G1X5.5590
G1Y10.1318
G1X5.5440
G1Y1.6568
G1X5.5290
G1Y10.1318
G1X5.5140
G1Y1.6568
G1X5.4990
G1Y10.1318
G1X5.4840
G1Y1.6568
G1X5.4690
G1Y10.1318
G1X5.4540
G1Y1.6568
G1X5.4390
G1Y10.1318
G1X5.4240
G1Y1.6568
G1X5.4090
G1Y10.1318
G1X5.3940
G1Y1.6568
G1X5.3790
G1Y10.1318
G1X5.3640
G1Y1.6568
G1X5.3490
G1Y10.1318
G1X5.3340
G1Y1.6568
G1X5.3190
G1Y10.1318
G1X5.3040
G1Y1.6568
G1X5.2890
G1Y10.1318
G1X5.2740
G1Y1.6568
G1X5.2590
G1Y10.1318
G1X5.2440
G1Y1.6568
G1X5.2290
G1Y10.1318
G1X5.2140
G1Y1.6568
G1X5.1990
G1Y10.1318
G1X5.1840
G1Y1.6568
G1X5.1690
G1Y10.1318
G1X5.1540
G1Y1.6568
G1X5.1390
G1Y10.1318
G1X5.1240
G1Y1.6568
G1X5.1090
G1Y10.1318
G1X5.0940
G1Y1.6568
G1X5.0790
G1Y10.1318
G1X5.0640
G1Y1.6568
G1X5.0490
G1Y10.1318
G1X5.0340
G1Y1.6568
G1X5.0190
G1Y10.1318
G1X5.0040
G1Y1.6568
G1X4.9890
G1Y10.1318
G1X4.9740
G1Y1.6568
G1X4.9590
G1Y10.1318
G1X4.9440
G1Y1.6568
G1X4.9290
G1Y10.1318
G1X4.9140
G1Y1.6568
G1X4.8990
G1Y10.1318
G1X4.8840
G1Y1.6568
G1X4.8690
G1Y10.1318
G1X4.8540
G1Y1.6568
G1X4.8390
G1Y10.1318
G1X4.8240
G1Y1.6568
G1X4.8090
G1Y10.1318
G1X4.7940
G1Y1.6568
G1X4.7790
G1Y10.1318
G1X4.7640
G1Y1.6568
G1X4.7490
G1Y10.1318
G1X4.7340
G1Y1.6568
G1X4.7190
G1Y10.1318
G1X4.7040
G1Y1.6568
G1X4.6890
G1Y10.1318
G1X4.6740
G1Y1.6568
G1X4.6590
G1Y10.1318
G1X4.6440
G1Y1.6568
G1X4.6290
G1Y10.1318
G1X4.6140
G1Y1.6568
G1X4.5990
G1Y10.1318
G1X4.5840
G1Y1.6568
G1X4.5690
G1Y10.1318
G1X4.5540
G1Y1.6568
G1X4.5390
G1Y10.1318
G1X4.5240
G1Y1.6568
G1X4.5090
G1Y10.1318
G1X4.4940
G1Y1.6568
G1X4.4790
G1Y10.1318
G1X4.4640
G1Y1.6568
G1X4.4490
G1Y10.1318
G1X4.4340
G1Y1.6568
G1X4.4190
G1Y10.1318
G1X4.4040
G1Y1.6568
G1X4.3890
G1Y10.1318
G1X4.3740
G1Y1.6568
G1X4.3590
G1Y10.1318
G1X4.3440
G1Y1.6568
G1X4.3290
G1Y10.1318
G1X4.3140
G1Y1.6568
G1X4.2990
G1Y10.1318
G1X4.2840
G1Y1.6568
G1X4.2690
G1Y10.1318
G1X4.2540
G1Y1.6568
G1X4.2390
G1Y10.1318
G1X4.2240
G1Y1.6568
G1X4.2090
G1Y10.1318
G1X4.1940
G1Y1.6568
G1X4.1790
G1Y10.1318
G1X4.1640
G1Y1.6568
G1X4.1490
G1Y10.1318
G1X4.1340
G1Y1.6568
G1X4.1190
G1Y10.1318
G1X4.1040
G1Y1.6568
G1X4.0890
G1Y10.1318
G1X4.0740
G1Y1.6568
G1X4.0590
G1Y10.1318
G1X4.0440
G1Y1.6568
G1X4.0290
G1Y10.1318
G1X4.0140
G1Y1.6568
G1X3.9990
G1Y10.1318
G1X3.9840
G1Y1.6568
G1X3.9690
G1Y10.1318
G1X3.9540
G1Y1.6568
G1X3.9390
G1Y10.1318
G1X3.9240
G1Y1.6568
G1X3.9090
G1Y10.1318
G1X3.8940
G1Y1.6568
G1X3.8790
G1Y10.1318
G1X3.8640
G1Y1.6568
G1X3.8490
G1Y10.1318
G1X3.8340
G1Y1.6568
G1X3.8190
G1Y10.1318
G1X3.8040
G1Y1.6568
G1X3.7890
G1Y10.1318
G1X3.7740
G1Y1.6568
G1X3.7590
G1Y10.1318
G1X3.7440
G1Y1.6568
G1X3.7290
G1Y10.1318
G1X3.7140
G1Y1.6568
G1X3.6990
G1Y10.1318
G1X3.6840
G1Y1.6568
G1X3.6690
G1Y10.1318
G1X3.6540
G1Y1.6568
G1X3.6390
G1Y10.1318
G1X3.6240
G1Y1.6568
G1X3.6090
G1Y10.1318
G1X3.5940
G1Y1.6568
G1X3.5790
G1Y10.1318
G1X3.5640
G1Y1.6568
G1X3.5490
G1Y10.1318
G1X3.5340
G1Y1.6568
G1X3.5190
G1Y10.1318
G1X3.5040
G1Y1.6568
G1X3.4890
G1Y10.1318
G1X3.4740
G1Y1.6568
G1X3.4590
G1Y10.1318
G1X3.4440
G1Y1.6568
G1X3.4290
G1Y10.1318
G1X3.4140
G1Y1.6568
G1X3.3990
G1Y10.1318
G1X3.3840
G1Y1.6568
G1X3.3690
G1Y10.1318
G1X3.3540
G1Y1.6568
G1X3.3390
G1Y10.1318
G1X3.3240
G1Y1.6568
G1X3.3090
G1Y10.1318
G1X3.2940
G1Y1.6568
G1X3.2790
G1Y10.1318
G1X3.2640
G1Y1.6568
G1X3.2490
G1Y10.1318
G1X3.2340
G1Y1.6568
G1X3.2190
G1Y10.1318
G1X3.2040
G1Y1.6568
G1X3.1890
G1Y10.1318
G1X3.1740
G1Y1.6568
G1X3.1590
G1Y10.1318
G1X3.1440
G1Y1.6568
G1X3.1290
G1Y10.1318
G1X3.1140
G1Y1.6568
G1X3.0990
G1Y10.1318
G1X3.0840
G1Y1.6568
G1X3.0690
G1Y10.1318
G1X3.0540
G1Y1.6568
G1X3.0390
G1Y10.1318
G1X3.0240
G1Y1.6568
G1X3.0090
G1Y10.1318
G1X2.9940
G1Y1.6568
G1X2.9790
G1Y10.1318
G1X2.9640
G1Y1.6568
G1X2.9490
G1Y10.1318
G1X2.9340
G1Y1.6568
G1X2.9190
G1Y10.1318
G1X2.9040
G1Y1.6568
G1X2.8890
G1Y10.1318
G1X2.8740
G1Y1.6568
G1X2.8590
G1Y10.1318
G1X2.8440
G1Y1.6568
G1X2.8290
G1Y10.1318
G1X2.8140
G1Y1.6568
G1X2.7990
G1Y10.1318
G1X2.7840
G1Y1.6568
G1X2.7690
G1Y10.1318
G1X2.7540
G1Y1.6568
G1X2.7390
G1Y10.1318
G1X2.7240
G1Y1.6568
G1X2.7090
G1Y10.1318
G1X2.6940
G1Y1.6568
G1X2.6790
G1Y10.1318
G1X2.6640
G1Y1.6568
G1X2.6490
G1Y10.1318
G1X2.6340
G1Y1.6568
G1X2.6190
G1Y10.1318
G1X2.6040
G1Y1.6568
G1X2.5890
G1Y10.1318
G1X2.5740
G1Y1.6568
G1X2.5590
G1Y10.1318
G1X2.5440
G1Y1.6568
G1X2.5290
G1Y10.1318
G1X2.5140
G1Y1.6568
G1X2.4990
G1Y10.1318
G1X2.4840
G1Y1.6568
G1X2.4690
G1Y10.1318
G1X2.4540
G1Y1.6568
G1X2.4390
G1Y10.1318
G1X2.4240
G1Y1.6568
G1X2.4090
G1Y10.1318
G1X2.3940
G1Y1.6568
G1X2.3790
G1Y10.1318
G1X2.3640
G1Y1.6568
G1X2.3490
G1Y10.1318
G1X2.3340
G1Y1.6568
G1X2.3191
G1Y10.1318
G1Z-0.2300F15.0
G1Y1.6568F45.0
G1X2.3340
G1Y10.1318
G1X2.3490
G1Y1.6568
G1X2.3640
G1Y10.1318
G1X2.3790
G1Y1.6568
G1X2.3940
G1Y10.1318
G1X2.4090
G1Y1.6568
G1X2.4240
G1Y10.1318
G1X2.4390
G1Y1.6568
G1X2.4540
G1Y10.1318
G1X2.4690
G1Y1.6568
G1X2.4840
G1Y10.1318
G1X2.4990
G1Y1.6568
G1X2.5140
G1Y10.1318
G1X2.5290
G1Y1.6568
G1X2.5440
G1Y10.1318
G1X2.5590
G1Y1.6568
G1X2.5740
G1Y10.1318
G1X2.5890
G1Y1.6568
G1X2.6040
G1Y10.1318
G1X2.6190
G1Y1.6568
G1X2.6340
G1Y10.1318
G1X2.6490
G1Y1.6568
G1X2.6640
G1Y10.1318
G1X2.6790
G1Y1.6568
G1X2.6940
G1Y10.1318
G1X2.7090
G1Y1.6568
G1X2.7240
G1Y10.1318
G1X2.7390
G1Y1.6568
G1X2.7540
G1Y10.1318
G1X2.7690
G1Y1.6568
G1X2.7840
G1Y10.1318
G1X2.7990
G1Y1.6568
G1X2.8140
G1Y10.1318
G1X2.8290
G1Y1.6568
G1X2.8440
G1Y10.1318
G1X2.8590
G1Y1.6568
G1X2.8740
G1Y10.1318
G1X2.8890
G1Y1.6568
G1X2.9040
G1Y10.1318
G1X2.9190
G1Y1.6568
G1X2.9340
G1Y10.1318
G1X2.9490
G1Y1.6568
G1X2.9640
G1Y10.1318
G1X2.9790
G1Y1.6568
G1X2.9940
G1Y10.1318
G1X3.0090
G1Y1.6568
G1X3.0240
G1Y10.1318
G1X3.0390
G1Y1.6568
G1X3.0540
G1Y10.1318
G1X3.0690
G1Y1.6568
G1X3.0840
G1Y10.1318
G1X3.0990
G1Y1.6568
G1X3.1140
G1Y10.1318
G1X3.1290
G1Y1.6568
G1X3.1440
G1Y10.1318
G1X3.1590
G1Y1.6568
G1X3.1740
G1Y10.1318
G1X3.1890
G1Y1.6568
G1X3.2040
G1Y10.1318
G1X3.2190
G1Y1.6568
G1X3.2340
G1Y10.1318
G1X3.2490
G1Y1.6568
G1X3.2640
G1Y10.1318
G1X3.2790
G1Y1.6568
G1X3.2940
G1Y10.1318
G1X3.3090
G1Y1.6568
G1X3.3240
G1Y10.1318
G1X3.3390
G1Y1.6568
G1X3.3540
G1Y10.1318
G1X3.3690
G1Y1.6568
G1X3.3840
G1Y10.1318
G1X3.3990
G1Y1.6568
G1X3.4140
G1Y10.1318
G1X3.4290
G1Y1.6568
G1X3.4440
G1Y10.1318
G1X3.4590
G1Y1.6568
G1X3.4740
G1Y10.1318
G1X3.4890
G1Y1.6568
G1X3.5040
G1Y10.1318
G1X3.5190
G1Y1.6568
G1X3.5340
G1Y10.1318
G1X3.5490
G1Y1.6568
G1X3.5640
G1Y10.1318
G1X3.5790
G1Y1.6568
G1X3.5940
G1Y10.1318
G1X3.6090
G1Y1.6568
G1X3.6240
G1Y10.1318
G1X3.6390
G1Y1.6568
G1X3.6540
G1Y10.1318
G1X3.6690
G1Y1.6568
G1X3.6840
G1Y10.1318
G1X3.6990
G1Y1.6568
G1X3.7140
G1Y10.1318
G1X3.7290
G1Y1.6568
G1X3.7440
G1Y10.1318
G1X3.7590
G1Y1.6568
G1X3.7740
G1Y10.1318
G1X3.7890
G1Y1.6568
G1X3.8040
G1Y10.1318
G1X3.8190
G1Y1.6568
G1X3.8340
G1Y10.1318
G1X3.8490
G1Y1.6568
G1X3.8640
G1Y10.1318
G1X3.8790
G1Y1.6568
G1X3.8940
G1Y10.1318
G1X3.9090
G1Y1.6568
G1X3.9240
G1Y10.1318
G1X3.9390
G1Y1.6568
G1X3.9540
G1Y10.1318
G1X3.9690
G1Y1.6568
G1X3.9840
G1Y10.1318
G1X3.9990
G1Y1.6568
G1X4.0140
G1Y10.1318
G1X4.0290
G1Y1.6568
G1X4.0440
G1Y10.1318
G1X4.0590
G1Y1.6568
G1X4.0740
G1Y10.1318
G1X4.0890
G1Y1.6568
G1X4.1040
G1Y10.1318
G1X4.1190
G1Y1.6568
G1X4.1340
G1Y10.1318
G1X4.1490
G1Y1.6568
G1X4.1640
G1Y10.1318
G1X4.1790
G1Y1.6568
G1X4.1940
G1Y10.1318
G1X4.2090
G1Y1.6568
G1X4.2240
G1Y10.1318
G1X4.2390
G1Y1.6568
G1X4.2540
G1Y10.1318
G1X4.2690
G1Y1.6568
G1X4.2840
G1Y10.1318
G1X4.2990
G1Y1.6568
G1X4.3140
G1Y10.1318
G1X4.3290
G1Y1.6568
G1X4.3440
G1Y10.1318
G1X4.3590
G1Y1.6568
G1X4.3740
G1Y10.1318
G1X4.3890
G1Y1.6568
G1X4.4040
G1Y10.1318
G1X4.4190
G1Y1.6568
G1X4.4340
G1Y10.1318
G1X4.4490
G1Y1.6568
G1X4.4640
G1Y10.1318
G1X4.4790
G1Y1.6568
G1X4.4940
G1Y10.1318
G1X4.5090
G1Y1.6568
G1X4.5240
G1Y10.1318
G1X4.5390
G1Y1.6568
G1X4.5540
G1Y10.1318
G1X4.5690
G1Y1.6568
G1X4.5840
G1Y10.1318
G1X4.5990
G1Y1.6568
G1X4.6140
G1Y10.1318
G1X4.6290
G1Y1.6568
G1X4.6440
G1Y10.1318
G1X4.6590
G1Y1.6568
G1X4.6740
G1Y10.1318
G1X4.6890
G1Y1.6568
G1X4.7040
G1Y10.1318
G1X4.7190
G1Y1.6568
G1X4.7340
G1Y10.1318
G1X4.7490
G1Y1.6568
G1X4.7640
G1Y10.1318
G1X4.7790
G1Y1.6568
G1X4.7940
G1Y10.1318
G1X4.8090
G1Y1.6568
G1X4.8240
G1Y10.1318
G1X4.8390
G1Y1.6568
G1X4.8540
G1Y10.1318
G1X4.8690
G1Y1.6568
G1X4.8840
G1Y10.1318
G1X4.8990
G1Y1.6568
G1X4.9140
G1Y10.1318
G1X4.9290
G1Y1.6568
G1X4.9440
G1Y10.1318
G1X4.9590
G1Y1.6568
G1X4.9740
G1Y10.1318
G1X4.9890
G1Y1.6568
G1X5.0040
G1Y10.1318
G1X5.0190
G1Y1.6568
G1X5.0340
G1Y10.1318
G1X5.0490
G1Y1.6568
G1X5.0640
G1Y10.1318
G1X5.0790
G1Y1.6568
G1X5.0940
G1Y10.1318
G1X5.1090
G1Y1.6568
G1X5.1240
G1Y10.1318
G1X5.1390
G1Y1.6568
G1X5.1540
G1Y10.1318
G1X5.1690
G1Y1.6568
G1X5.1840
G1Y10.1318
G1X5.1990
G1Y1.6568
G1X5.2140
G1Y10.1318
G1X5.2290
G1Y1.6568
G1X5.2440
G1Y10.1318
G1X5.2590
G1Y1.6568
G1X5.2740
G1Y10.1318
G1X5.2890
G1Y1.6568
G1X5.3040
G1Y10.1318
G1X5.3190
G1Y1.6568
G1X5.3340
G1Y10.1318
G1X5.3490
G1Y1.6568
G1X5.3640
G1Y10.1318
G1X5.3790
G1Y1.6568
G1X5.3940
G1Y10.1318
G1X5.4090
G1Y1.6568
G1X5.4240
G1Y10.1318
G1X5.4390
G1Y1.6568
G1X5.4540
G1Y10.1318
G1X5.4690
G1Y1.6568
G1X5.4840
G1Y10.1318
G1X5.4990
G1Y1.6568
G1X5.5140
G1Y10.1318
G1X5.5290
G1Y1.6568
G1X5.5440
G1Y10.1318
G1X5.5590
G1Y1.6568
G1X5.5740
G1Y10.1318
G1X5.5890
G1Y1.6568
G1X5.6040
G1Y10.1318
G1X5.6190
G1Y1.6568
G1X5.6340
G1Y10.1318
G1X5.6490
G1Y1.6568
G1X5.6640
G1Y10.1318
G1X5.6790
G1Y1.6568
G1X5.6940
G1Y10.1318
G1X5.7090
G1Y1.6568
G1X5.7240
G1Y10.1318
G1X5.7390
G1Y1.6568
G1X5.7540
G1Y10.1318
G1X5.7690
G1Y1.6568
G1X5.7840
G1Y10.1318
G1X5.7990
G1Y1.6568
G1X5.8140
G1Y10.1318
G1X5.8290
G1Y1.6568
G1X5.8440
G1Y10.1318
G1X5.8590
G1Y1.6568
G1X5.8740
G1Y10.1318
G1X5.8890
G1Y1.6568
G1X5.9040
G1Y10.1318
G1X5.9190
G1Y1.6568
G1X5.9340
G1Y10.1318
G1X5.9490
G1Y1.6568
G1X5.9640
G1Y10.1318
G1X5.9790
G1Y1.6568
G1X5.9940
G1Y10.1318
G1X6.0090
G1Y1.6568
G1X6.0240
G1Y10.1318
G1X6.0390
G1Y1.6568
G1X6.0540
G1Y10.1318
G1X6.0690
G1Y1.6568
G1X6.0840
G1Y10.1318
G1X6.0990
G1Y1.6568
G1X6.1140
G1Y10.1318
G1X6.1290
G1Y1.6568
G1X6.1440
G1Y10.1318
G1X6.1590
G1Y1.6568
G1X6.1740
G1Y10.1318
G1X6.1890
G1Y1.6568
G1X6.2040
G1Y10.1318
G1X6.2190
G1Y1.6568
G1X6.2340
G1Y10.1318
G1X6.2490
G1Y1.6568
G1X6.2640
G1Y10.1318
G1X6.2790
G1Y1.6568
G1X6.2940
G1Y10.1318
G1X6.3090
G1Y1.6568
G1X6.3240
G1Y10.1318
G1X6.3390
G1Y1.6568
G1X6.3540
G1Y10.1318
G1X6.3690
G1Y1.6568
G1X6.3840
G1Y10.1318
G1X6.3990
G1Y1.6568
G1X6.4140
G1Y10.1318
G1X6.4290
G1Y1.6568
G1X6.4440
G1Y10.1318
G1X6.4590
G1Y1.6568
G1X6.4740
G1Y10.1318
G1X6.4890
G1Y1.6568
G1X6.5040
G1Y10.1318
G1X6.5190
G1Y1.6568
G1X6.5340
G1Y10.1318
G1X6.5490
G1Y1.6568
G1X6.5640
G1Y10.1318
G1X6.5790
G1Y1.6568
G1X6.5940
G1Y10.1318
G1X6.6090
G1Y1.6568
G1X6.6240
G1Y10.1318
G1X6.6390
G1Y1.6568
G1X6.6540
G1Y10.1318
G1X6.6690
G1Y1.6568
G1X6.6840
G1Y10.1318
G1X6.6990
G1Y1.6568
G1X6.7140
G1Y10.1318
G1X6.7290
G1Y1.6568
G1X6.7440
G1Y10.1318
G1X6.7590
G1Y1.6568
G1X6.7740
G1Y10.1318
G1X6.7890
G1Y1.6568
G1X6.8040
G1Y10.1318
G1X6.8190
G1Y1.6568
G1X6.8340
G1Y10.1318
G1X6.8490
G1Y1.6568
G1X6.8640
G1Y10.1318
G1X6.8790
G1Y1.6568
G1X6.8940
G1Y10.1318
G1X6.9090
G1Y1.6568
G1X6.9240
G1Y10.1318
G1X6.9390
G1Y1.6568
G1X6.9540
G1Y10.1318
G1X6.9690
G1Y1.6568
G1X6.9840
G1Y10.1318
G1X6.9990
G1Y1.6568
G1X7.0140
G1Y10.1318
G1X7.0290
G1Y1.6568
G1X7.0440
G1Y10.1318
G1X7.0590
G1Y1.6568
G1X7.0740
G1Y10.1318
G1X7.0890
G1Y1.6568
G1X7.1040
G1Y10.1318
G1X7.1190
G1Y1.6568
G1X7.1340
G1Y10.1318
G1X7.1490
G1Y1.6568
G1X7.1640
G1Y10.1318
G1X7.1790
G1Y1.6568
G1X7.1940
G1Y10.1318
G1X7.2090
G1Y1.6568
G1X7.2240
G1Y10.1318
G1X7.2390
G1Y1.6568
G1X7.2540
G1Y10.1318
G1X7.2690
G1Y1.6568
G1X7.2840
G1Y10.1318
G1X7.2990
G1Y1.6568
G1X7.3140
G1Y10.1318
G1X7.3290
G1Y1.6568
G1X7.3440
G1Y10.1318
G1X7.3590
G1Y1.6568
G1X7.3740
G1Y10.1318
G1X7.3890
G1Y1.6568
G1X7.4040
G1Y10.1318
G1X7.4190
G1Y1.6568
G1X7.4340
G1Y10.1318
G1X7.4490
G1Y1.6568
G1X7.4640
G1Y10.1318
G1X7.4790
G1Y1.6568
G1X7.4940
G1Y10.1318
G1X7.5090
G1Y1.6568
G1X7.5240
G1Y10.1318
G1X7.5390
G1Y1.6568
G1X7.5540
G1Y10.1318
G1X7.5690
G1Y1.6568
G1X7.5840
G1Y10.1318
G1X7.5990
G1Y1.6568
G1X7.6140
G1Y10.1318
G1X7.6290
G1Y1.6568
G1X7.6440
G1Y10.1318
G1X7.6590
G1Y1.6568
G1X7.6740
G1Y10.1318
G1X7.6890
G1Y1.6568
G1X7.7040
G1Y10.1318
G1X7.7190
G1Y1.6568
G1X7.7340
G1Y10.1318
G1X7.7490
G1Y1.6568
G1X7.7640
G1Y10.1318
G1X7.7790
G1Y1.6568
G1X7.7940
G1Y10.1318
G1X7.8090
G1Y1.6568
G1X7.8240
G1Y10.1318
G1X7.8390
G1Y1.6568
G1X7.8540
G1Y10.1318
G1X7.8690
G1Y1.6568
G1X7.8840
G1Y10.1318
G1X7.8990
G1Y1.6568
G1X7.9140
G1Y10.1318
G1X7.9290
G1Y1.6568
G1X7.9440
G1Y10.1318
G1X7.9590
G1Y1.6568
G1X7.9740
G1Y10.1318
G1X7.9890
G1Y1.6568
G1X8.0040
G1Y10.1318
G1X8.0190
G1Y1.6568
G1X8.0340
G1Y10.1318
G1X8.0490
G1Y1.6568
G1X8.0640
G1Y10.1318
G1X8.0790
G1Y1.6568
G1X8.0940
G1Y10.1318
G1X8.1090
G1Y1.6568
G1X8.1240
G1Y10.1318
G1X8.1390
G1Y1.6568
G1X8.1540
G1Y10.1318
G1X8.1690
G1Y1.6568
G1X8.1840
G1Y10.1318
G1X8.1990
G1Y1.6568
G1X8.2140
G1Y10.1318
G1X8.2290
G1Y1.6568
G1X8.2440
G1Y10.1318
G1X8.2590
G1Y1.6568
G1X8.2740
G1Y10.1318
G1X8.2890
G1Y1.6568
G1X8.3040
G1Y10.1318
G1X8.3190
G1Y1.6568
G1X8.3340
G1Y10.1318
G1X8.3490
G1Y1.6568
G1X8.3640
G1Y10.1318
G1X8.3790
G1Y1.6568
G1X8.3940
G1Y10.1318
G1X8.4090
G1Y1.6568
G1X8.4240
G1Y10.1318
G1X8.4390
G1Y1.6568
G1X8.4540
G1Y10.1318
G1X8.4690
G1Y1.6568
G1X8.4840
G1Y10.1318
G1X8.4990
G1Y1.6568
G1X8.5140
G1Y10.1318
G1X8.5290
G1Y1.6568
G1X8.5440
G1Y10.1318
G1X8.5590
G1Y1.6568
G1X8.5740
G1Y10.1318
G1X8.5890
G1Y1.6568
G1X8.6040
G1Y10.1318
G1X8.6190
G1Y1.6568
G1X8.6340
G1Y10.1318
G1X8.6490
G1Y1.6568
G1X8.6640
G1Y10.1318
G1X8.6790
G1Y1.6568
G1X8.6940
G1Y10.1318
G1X8.7090
G1Y1.6568
G1X8.7240
G1Y10.1318
G1X8.7390
G1Y1.6568
G1X8.7540
G1Y10.1318
G1X8.7690
G1Y1.6568
G1X8.7840
G1Y10.1318
G1X8.7990
G1Y1.6568
G1X8.8140
G1Y10.1318
G1X8.8290
G1Y1.6568
G1X8.8440
G1Y10.1318
G1X8.8590
G1Y1.6568
G1X8.8740
G1Y10.1318
G1X8.8890
G1Y1.6568
G1X8.9040
G1Y10.1318
G1X8.9190
G1Y1.6568
G1X8.9340
G1Y10.1318
G1X8.9490
G1Y1.6568
G1X8.9640
G1Y10.1318
G1X8.9790
G1Y1.6568
G1X8.9940
G1Y10.1318
G1X9.0090
G1Y1.6568
G1X9.0240
G1Y10.1318
G1X9.0390
G1Y1.6568
G1X9.0540
G1Y10.1318
G1X9.0690
G1Y1.6568
G1X9.0840
G1Y10.1318
G1X9.0990
G1Y1.6568
G1X9.1140
G1Y10.1318
G1X9.1290
G1Y1.6568
G1X9.1440
G1Y10.1318
G1X9.1590
G1Y1.6568
G1X9.1740
G1Y10.1318
G1X9.1890
G1Y1.6568
G1X9.2040
G1Y10.1318
G1X9.2190
G1Y1.6568
G1X9.2340
G1Y10.1318
G1X9.2490
G1Y1.6568
G1X9.2640
G1Y10.1318
G1X9.2790
G1Y1.6568
G1X9.2940
G1Y10.1318
G1X9.3090
G1Y1.6568
G1X9.3240
G1Y10.1318
G1X9.3390
G1Y1.6568
G1X9.3540
G1Y10.1318
G1X9.3690
G1Y1.6568
G1X9.3840
G1Y10.1318
G1X9.3990
G1Y1.6568
G1X9.4140
G1Y10.1318
G1X9.4290
G1Y1.6568
G1X9.4440
G1Y10.1318
G1X9.4590
G1Y1.6568
G1X9.4740
G1Y10.1318
G1X9.4890
G1Y1.6568
G1X9.5040
G1Y10.1318
G1X9.5190
G1Y1.6568
G1X9.5340
G1Y10.1318
G1X9.5490
G1Y1.6568
G1X9.5640
G1Y10.1318
G1X9.5790
G1Y1.6568
G1X9.5940
G1Y10.1318
G1X9.6090
G1Y1.6568
G1X9.6240
G1Y10.1318
G1X9.6390
G1Y1.6568
G1X9.6540
G1Y10.1318
G1X9.6690
G1Y1.6568
G1X9.6840
G1Y10.1318
G1X9.6990
G1Y1.6568
G1X9.7140
G1Y10.1318
G1X9.7290
G1Y1.6568
G1X9.7440
G1Y10.1318
G1X9.7590
G1Y1.6568
G1X9.7740
G1Y10.1318
G1X9.7890
G1Y1.6568
G1X9.8040
G1Y10.1318
G1X9.8190
G1Y1.6568
G1X9.8340
G1Y10.1318
G1X9.8490
G1Y1.6568
G1X9.8640
G1Y10.1318
G1X9.8790
G1Y1.6568
G1X9.8940
G1Y10.1318
G1X9.9090
G1Y1.6568
G1X9.9240
G1Y10.1318
G1X9.9390
G1Y1.6568
G1X9.9540
G1Y10.1318
G1X9.9690
G1Y1.6568
G1X9.9840
G1Y10.1318
G1X9.9990
G1Y1.6568
G1X10.0140
G1Y10.1318
G1X10.0290
G1Y1.6568
G1X10.0440
G1Y10.1318
G1X10.0590
G1Y1.6568
G1X10.0740
G1Y10.1318
G1X10.0890
G1Y1.6568
G1X10.1040
G1Y10.1318
G1X10.1190
G1Y1.6568
G1X10.1340
G1Y10.1318
G1X10.1490
G1Y1.6568
G1X10.1640
G1Y10.1318
G1X10.1790
G1Y1.6568
G1X10.1940
G1Y10.1318
G0Z0.5000
M5
G0Z3.0000
G0X0.0000Y0.0000
M2
