(VECTRIC POST REVISION)
(93ED0936BEE5F26550666258809E8C35)
T1
G17
G20
G90
M6 T202
G0Z3.0000
G0X0.0000Y0.0000
M3S18000
G0X3.8026Y4.0687
G0Z0.5000
G1Z-0.0400F12.0
G1X3.7581F60.0
G1X3.6929Y4.0706
G1X3.6263Y4.0742
G1X3.5656Y4.0789
G1X3.5070Y4.0846
G1X3.4717Y4.0887
G1X4.0771
G1X4.1166Y4.0939
G1X4.1635Y4.1008
G1X4.2102Y4.1084
G1X4.2118Y4.1087
G1X3.3343
G1X3.2860Y4.1176
G1X3.2321Y4.1287
G1X3.2320Y4.1287
G1X4.3157
G1X4.3472Y4.1355
G1X4.3913Y4.1458
G1X4.4025Y4.1487
G1X3.1461
G1X3.1084Y4.1578
G1X3.0945Y4.1621
G1X3.0718Y4.1687
G1X4.4771
G1X4.5449Y4.1887
G1X3.0025
G1X2.9882Y4.1928
G1X2.9648Y4.2005
G1X2.9432Y4.2087
G1X4.6062
G1X4.6278Y4.2176
G1X4.6435Y4.2239
G1X4.6564Y4.2287
G1X2.8935
G1X2.8741Y4.2362
G1X2.8643Y4.2395
G1X2.8560Y4.2414
G1X2.8493Y4.2438
G1X2.8380Y4.2487
G1X4.7094
G1X4.7445Y4.2623
G1X4.7597Y4.2687
G1X2.7880
G1X2.7619Y4.2801
G1X2.7424Y4.2887
G1X4.8061
G1X4.8321Y4.3002
G1X4.8516Y4.3086
G1X4.8517Y4.3087
G1X2.6962
G1X2.6551Y4.3287
G1X4.8925
G1X4.9129Y4.3387
G1X4.9327Y4.3487
G1X2.6139
G1X2.5826Y4.3639
G1X2.5794Y4.3657
G1X2.5752Y4.3687
G1X4.9716
G1X4.9886Y4.3777
G1X5.0088Y4.3887
G1X2.5413
G1X2.5403Y4.3892
G1X2.5047Y4.4087
G1X5.0448
G1X5.0649Y4.4201
G1X5.0795Y4.4287
G1X2.4699
G1X2.4470Y4.4421
G1X2.4364Y4.4487
G1X5.1131
G1X5.1347Y4.4619
G1X5.1452Y4.4687
G1X2.4042
G1X2.3990Y4.4719
G1X2.3735Y4.4887
G1X5.1757
G1X5.1913Y4.4993
G1X5.2049Y4.5087
G1X2.3434
G1X2.3139Y4.5287
G1X5.2339
G1X5.2526Y4.5416
G1X5.2630Y4.5487
G1X2.2861
G1X2.2849Y4.5497
G1X2.2747Y4.5578
G1X2.2594Y4.5687
G1X5.2896
G1X5.2909Y4.5698
G1X5.3055Y4.5802
G1X5.3175Y4.5887
G1X2.2327
G1X2.2136Y4.6038
G1X2.2072Y4.6087
G1X5.3423
G1X5.3556Y4.6192
G1X5.3675Y4.6287
G1X2.1826
G1X2.1723Y4.6373
G1X2.1576Y4.6487
G1X5.3923
G1X5.4030Y4.6575
G1X5.4168Y4.6687
G1X2.1324
G1X2.1210Y4.6778
G1X2.1079Y4.6887
G1X5.4406
G1X5.4559Y4.7017
G1X5.4640Y4.7087
G1X2.0842
G1X2.0610Y4.7287
G1X5.4870
G1X5.4921Y4.7331
G1X5.5077Y4.7487
G1X2.0404
G1X2.0206Y4.7687
G1X5.5277
G1X5.5477Y4.7887
G1X2.0008
G1X1.9810Y4.8087
G1X5.5677
G1X5.5877Y4.8287
G1X1.9612
G1X1.9415Y4.8487
G1X5.6077
G1X5.6276Y4.8687
G1X1.9217
G1X1.9019Y4.8887
G1X5.6476
G1X5.6649Y4.9060
G1X5.6673Y4.9087
G1X1.8822
G1X1.8645Y4.9287
G1X5.6849
G1X5.6871Y4.9312
G1X5.7019Y4.9487
G1X1.8469
G1X1.8296Y4.9687
G1X5.7188
G1X5.7343Y4.9869
G1X5.7358Y4.9887
G1X1.8124
G1X1.8045Y4.9979
G1X1.7954Y5.0087
G1X5.7525
G1X5.7621Y5.0201
G1X5.7689Y5.0287
G1X1.7789
G1X1.7636Y5.0480
G1X1.7630Y5.0487
G1X5.7849
G1X5.7991Y5.0662
G1X5.8017Y5.0687
G1X1.7458
G1X1.7400Y5.0749
G1X1.7370Y5.0779
G1X1.7357Y5.0802
G1X1.7343Y5.0835
G1X1.7317Y5.0887
G1X5.8163
G1X5.8210Y5.0972
G1X5.8292Y5.1087
G1X1.7197
G1X1.7052Y5.1287
G1X5.8452
G1X5.8538Y5.1411
G1X5.8595Y5.1487
G1X1.6908
G1X1.6771Y5.1677
G1X1.6761Y5.1687
G1X5.8754
G1X5.8756Y5.1691
G1X5.8834Y5.1824
G1X5.8882Y5.1887
G1X1.6614
G1X1.6568Y5.1961
G1X1.6477Y5.2073
G1X1.6469Y5.2084
G1X1.6467Y5.2087
G1X5.9014
G1X5.9067Y5.2189
G1X5.9127Y5.2278
G1X5.9133Y5.2287
G1X1.6353
G1X1.6300Y5.2362
G1X1.6269Y5.2402
G1X1.6255Y5.2423
G1X1.6216Y5.2487
G1X5.9273
G1X5.9399Y5.2687
G1X1.6096
G1X1.5975Y5.2887
G1X5.9518
G1X5.9612Y5.3048
G1X5.9642Y5.3087
G1X1.5855
G1X1.5736Y5.3287
G1X5.9772
G1X5.9806Y5.3375
G1X5.9869Y5.3487
G1X1.5618
G1X1.5558Y5.3586
G1X1.5502Y5.3687
G1X5.9980
G1X6.0071Y5.3849
G1X6.0091Y5.3887
G1X1.5388
G1X1.5300Y5.4043
G1X1.5277Y5.4087
G1X6.0197
G1X6.0304Y5.4287
G1X1.5171
G1X1.5066Y5.4487
G1X6.0408
G1X6.0509Y5.4687
G1X1.4966
G1X1.4866Y5.4887
G1X6.0610
G1X6.0690Y5.5047
G1X6.0710Y5.5087
G1X1.4767
G1X1.4670Y5.5287
G1X6.0808
G1X6.0906Y5.5487
G1X1.4572
G1X1.4474Y5.5687
G1X6.1004Y5.5687
G1X6.1031Y5.5743
G1X6.1098Y5.5887
G1X1.4387
G1X1.4299Y5.6087
G1X6.1191
G1X6.1278Y5.6287
G1X1.4212
G1X1.4194Y5.6327
G1X1.4128Y5.6487
G1X6.1363
G1X6.1442Y5.6687
G1X1.4051
G1X1.3988Y5.6856
G1X1.3977Y5.6887
G1X6.1520
G1X6.1575Y5.7032
G1X6.1597Y5.7087
G1X1.3905
G1X1.3899Y5.7102
G1X1.3824Y5.7287
G1X6.1680
G1X6.1740Y5.7423
G1X6.1761Y5.7487
G1X1.3735
G1X1.3669Y5.7687
G1X6.1828
G1X6.1895Y5.7887
G1X1.3602
G1X1.3535Y5.8087
G1X6.1962
G1X6.2028Y5.8287
G1X1.3468
G1X1.3401Y5.8487
G1X6.2095
G1X6.2162Y5.8687
G1X1.3334
G1X1.3332Y5.8694
G1X1.3283Y5.8875
G1X1.3280Y5.8887
G1X6.2223
G1X6.2277Y5.9087
G1X1.3224
G1X1.3182Y5.9237
G1X1.3168Y5.9287
G1X6.2328
G1X6.2379Y5.9487
G1X1.3113
G1X1.3058Y5.9687
G1X6.2430
G1X6.2480Y5.9887
G1X1.3007
G1X1.2956Y6.0087
G1X6.2531
G1X6.2582Y6.0287
G1X1.2907
G1X1.2859Y6.0487
G1X6.2632
G1X6.2672Y6.0643
G1X6.2681Y6.0687
G1X1.2812
G1X1.2768Y6.0887
G1X6.2723
G1X6.2741Y6.0978
G1X6.2764Y6.1087
G1X1.2724
G1X1.2717Y6.1120
G1X1.2683Y6.1287
G1X6.2807
G1X6.2849Y6.1487
G1X1.2643
G1X1.2621Y6.1592
G1X1.2604Y6.1687
G1X6.2888
G1X6.2907Y6.1786
G1X6.2924Y6.1887
G1X1.2567
G1X1.2537Y6.2050
G1X1.2531Y6.2087
G1X6.2957
G1X6.2962Y6.2114
G1X6.2986Y6.2287
G1X1.2498
G1X1.2465Y6.2487
G1X6.3014
G1X6.3042Y6.2687
G1X1.2437
G1X1.2409Y6.2887
G1X6.3070
G1X6.3076Y6.2927
G1X6.3097Y6.3087
G1X1.2383
G1X1.2358Y6.3287
G1X6.3123
G1X6.3149Y6.3487
G1X1.2332
G1X1.2306Y6.3687
G1X6.3175
G1X6.3199Y6.3873
G1X6.3201Y6.3887
G1X1.2282
G1X1.2267Y6.4038
G1X1.2263Y6.4087
G1X6.3228
G1X6.3254Y6.4287
G1X1.2249
G1X1.2248Y6.4308
G1X1.2240Y6.4487
G1X6.3266
G1X6.3266Y6.4687
G1X1.2234
G1X1.2231Y6.4862
G1X1.2231Y6.4887
G1X6.3266
G1X6.3267Y6.5087
G1X1.2223
G1X1.2223Y6.5092
G1X1.2196Y6.5238
G1X1.2182Y6.5287
G1X6.3267
G1X6.3267Y6.5487
G1X1.2121
G1X1.2120Y6.5505
G1Y6.5687
G1X6.3267
G1X6.3267Y6.5887
G1X1.2120
G1Y6.6087
G1X6.3267
G1X6.3268Y6.6287
G1X1.2120
G1Y6.6487
G1X6.3268
G1X6.3268Y6.6687
G1X1.2120
G1Y6.6887
G1X6.3268
G1X6.3268Y6.7087
G1X1.2128
G1X1.2154Y6.7157
G1X1.2193Y6.7287
G1X6.3268
G1X6.3269Y6.7487
G1X1.2225
G1X1.2231Y6.7591
G1Y6.7644
G1X1.2232Y6.7687
G1X6.3269
G1X6.3269Y6.7887
G1X1.2236
G1X1.2236Y6.7902
G1X1.2244Y6.8087
G1X6.3264
G1X6.3240Y6.8287
G1X1.2255
G1X1.2267Y6.8458
G1X1.2270Y6.8487
G1X6.3215
G1X6.3200Y6.8607
G1X6.3190Y6.8687
G1X1.2289
G1X1.2290Y6.8688
G1X1.2315Y6.8887
G1X6.3165
G1X6.3139Y6.9087
G1X1.2340
G1X1.2365Y6.9287
G1X6.3114
G1X6.3088Y6.9487
G1X1.2390
G1X1.2401Y6.9573
G1X1.2417Y6.9687
G1X6.3062
G1X6.3033Y6.9887
G1X1.2445
G1X1.2473Y7.0087
G1X6.3004
G1X6.2976Y7.0287
G1X1.2501
G1X1.2534Y7.0487
G1X6.2944
G1X6.2911Y7.0687
G1X1.2567
G1X1.2575Y7.0736
G1X1.2606Y7.0887
G1X6.2877
G1X6.2859Y7.0992
G1X6.2840Y7.1087
G1X1.2648
G1X1.2693Y7.1287
G1X6.2799
G1X6.2759Y7.1487
G1X1.2738
G1X1.2783Y7.1687
G1X6.2716
G1X6.2696Y7.1782
G1X6.2670Y7.1887
G1X1.2829
G1X1.2874Y7.2087
G1X6.2622
G1X6.2573Y7.2287
G1X1.2921
G1X1.2971Y7.2487
G1X6.2525
G1X6.2477Y7.2687
G1X1.3022
G1X1.3074Y7.2887
G1X6.2429
G1X6.2380Y7.3087
G1X1.3125
G1X1.3143Y7.3157
G1X1.3181Y7.3287
G1X6.2327
G1X6.2263Y7.3487
G1X1.3238
G1X1.3300Y7.3687
G1X6.2199
G1X6.2135Y7.3887
G1X1.3361
G1X1.3399Y7.4009
G1X1.3423Y7.4087
G1X6.2072
G1X6.2061Y7.4121
G1X6.2005Y7.4287
G1X1.3487
G1X1.3497Y7.4317
G1X1.3559Y7.4487
G1X6.1938
G1X6.1871Y7.4687
G1X1.3635
G1X1.3699Y7.4872
G1X1.3704Y7.4887
G1X6.1801
G1X6.1728Y7.5087
G1X1.3774
G1X1.3805Y7.5177
G1X1.3846Y7.5287
G1X6.1655
G1X6.1628Y7.5360
G1X6.1576Y7.5487
G1X1.3920
G1X1.3947Y7.5559
G1X1.3997Y7.5687
G1X6.1496
G1X6.1419Y7.5887
G1X1.4076
G1X1.4104Y7.5959
G1X1.4157Y7.6087
G1X6.1338
G1X6.1275Y7.6237
G1X6.1252Y7.6287
G1X1.4239
G1X1.4253Y7.6320
G1X1.4327Y7.6487
G1X6.1161
G1X6.1091Y7.6641
G1X6.1069Y7.6687
G1X1.4415
G1X1.4504Y7.6887
G1X6.0974
G1X6.0878Y7.7087
G1X1.4598
G1X1.4692Y7.7287
G1X6.0783
G1X6.0687Y7.7487
G1X1.4786
G1X1.4885Y7.7687
G1X6.0590
G1X6.0490Y7.7887
G1X1.4984
G1X1.5051Y7.8021
G1X1.5086Y7.8087
G1X6.0389
G1X6.0289Y7.8287
G1X1.5194
G1X1.5274Y7.8437
G1X1.5303Y7.8487
G1X6.0188
G1X6.0160Y7.8544
G1X6.0083Y7.8687
G1X1.5420
G1X1.5538Y7.8887
G1X5.9974
G1X5.9940Y7.8946
G1X5.9905Y7.8993
G1X5.9846Y7.9075
G1X5.9839Y7.9087
G1X1.5658
G1X1.5779Y7.9287
G1X5.9724
G1X5.9691Y7.9349
G1X5.9645Y7.9453
G1X5.9640Y7.9464
G1X5.9629Y7.9487
G1X1.5901
G1X1.5906Y7.9496
G1X1.6026Y7.9687
G1X5.9501
G1X5.9367Y7.9887
G1X1.6151
G1X1.6243Y8.0033
G1X1.6278Y8.0087
G1X5.9234
G1X5.9100Y8.0287
G1X1.6407
G1X1.6536Y8.0487
G1X5.8967
G1X5.8833Y8.0687
G1X1.6669
G1X1.6802Y8.0887
G1X5.8700
G1X5.8566Y8.1087
G1X1.6938
G1X1.7077Y8.1287
G1X5.8402
G1X5.8378Y8.1312
G1X5.8254Y8.1487
G1X1.7217
G1X1.7364Y8.1687
G1X5.8110
G1X5.7963Y8.1887
G1X1.7516
G1X1.7652Y8.2056
G1X1.7677Y8.2087
G1X5.7804
G1X5.7678Y8.2237
G1X5.7638Y8.2287
G1X1.7840
G1X1.7968Y8.2445
G1X1.8003Y8.2487
G1X5.7479
G1X5.7351Y8.2648
G1X5.7316Y8.2687
G1X1.8169
G1X1.8206Y8.2731
G1X1.8345Y8.2887
G1X5.7137
G1X5.7084Y8.2946
G1X5.6962Y8.3087
G1X1.8523
G1X1.8533Y8.3099
G1X1.8707Y8.3287
G1X5.6790
G1X5.6621Y8.3487
G1X1.8892
G1X1.8921Y8.3519
G1X1.9081Y8.3687
G1X5.6436
G1X5.6236Y8.3887
G1X1.9271
G1X1.9343Y8.3962
G1X1.9464Y8.4087
G1X5.6036
G1X5.5837Y8.4287
G1X1.9659
G1X1.9770Y8.4401
G1X1.9856Y8.4487
G1X5.5637
G1X5.5437Y8.4687
G1X2.0056
G1X2.0175Y8.4806
G1X2.0260Y8.4887
G1X5.5237
G1X5.5037Y8.5087
G1X2.0468
G1X2.0531Y8.5148
G1X2.0686Y8.5287
G1X5.4801
G1X5.4670Y8.5397
G1X5.4566Y8.5487
G1X2.0913
G1X2.1148Y8.5687
G1X5.4336
G1X5.4225Y8.5788
G1X5.4112Y8.5887
G1X2.1387
G1X2.1418Y8.5912
G1X2.1641Y8.6087
G1X5.3859
G1X5.3768Y8.6158
G1X5.3614Y8.6287
G1X2.1893
G1X2.1973Y8.6351
G1X2.2133Y8.6487
G1X5.3359
G1X5.3111Y8.6669
G1X5.3085Y8.6687
G1X2.2424
G1X2.2426Y8.6688
G1X2.2543Y8.6784
G1X2.2683Y8.6887
G1X5.2803
G1X5.2799Y8.6890
G1X5.2692Y8.6990
G1X5.2668Y8.7009
G1X5.2554Y8.7087
G1X2.2937
G1X2.2953Y8.7102
G1X2.2977Y8.7120
G1X2.3217Y8.7287
G1X5.2264
G1X5.1974Y8.7487
G1X2.3506
G1X2.3794Y8.7687
G1X5.1684
G1X5.1489Y8.7821
G1X5.1376Y8.7887
G1X2.4089
G1X2.4110Y8.7901
G1X2.4157Y8.7937
G1X2.4181Y8.7954
G1X2.4245Y8.7978
G1X2.4344Y8.8022
G1X2.4439Y8.8074
G1X2.4460Y8.8087
G1X5.1042
G1X5.0911Y8.8165
G1X5.0702Y8.8287
G1X2.4794
G1X2.5134Y8.8487
G1X5.0360
G1X5.0270Y8.8540
G1X5.0020Y8.8683
G1X5.0012Y8.8687
G1X2.5491
G1X2.5881Y8.8887
G1X4.9607
G1X4.9203Y8.9087
G1X2.6271
G1X2.6661Y8.9287
G1X4.8798
G1X4.8393Y8.9487
G1X2.7106
G1X2.7281Y8.9562
G1X2.7552Y8.9687
G1X4.7929
G1X4.7681Y8.9797
G1X4.7473Y8.9887
G1X2.8058
G1X2.8230Y8.9957
G1X2.8545Y9.0087
G1X4.6946
G1X4.6807Y9.0144
G1X4.6435Y9.0287
G1X2.9050
G1X2.9441Y9.0439
G1X2.9574Y9.0487
G1X4.5901
G1X4.5780Y9.0529
G1X4.5438Y9.0637
G1X4.5264Y9.0687
G1X3.0242
G1X3.0610Y9.0795
G1X3.0937Y9.0887
G1X4.4567
G1X4.3806Y9.1087
G1X3.1702
G1X3.2175Y9.1200
G1X3.2583Y9.1287
G1X4.2911
G1X4.2529Y9.1362
G1X4.1989Y9.1458
G1X4.1802Y9.1487
G1X3.3661
G1X3.4272Y9.1579
G1X3.4648Y9.1634
G1X3.5248Y9.1687
G1X4.0230
G1X3.8330Y9.1857
G1X3.7149
G0Z0.5000
G0X5.9940Y7.8946
G1Z-0.0400F12.0
G1X5.9905Y7.8993F60.0
G1X5.9846Y7.9075
G1X5.9766Y7.9208
G1X5.9691Y7.9349
G1X5.9645Y7.9453
G1X5.9640Y7.9464
G1X5.9628Y7.9490
G1X5.9616Y7.9511
G1X5.9562Y7.9587
G1X5.9502Y7.9685
G1X5.8516Y8.1162
G1X5.8494Y8.1192
G1X5.8378Y8.1312
G1X5.8166Y8.1611
G1X5.7954Y8.1899
G1X5.7807Y8.2084
G1X5.7678Y8.2237
G1X5.7512Y8.2446
G1X5.7351Y8.2648
G1X5.7234Y8.2780
G1X5.7084Y8.2946
G1X5.6842Y8.3226
G1X5.6536Y8.3587
G1X5.5032Y8.5092
G1X5.4670Y8.5397
G1X5.4390Y8.5638
G1X5.4225Y8.5788
G1X5.4108Y8.5890
G1X5.3946Y8.6019
G1X5.3768Y8.6158
G1X5.3612Y8.6289
G1X5.3407Y8.6451
G1X5.3111Y8.6669
G1X5.2799Y8.6890
G1X5.2692Y8.6990
G1X5.2668Y8.7009
G1X5.1489Y8.7821
G1X5.1347Y8.7904
G1X5.1286Y8.7942
G1X5.0911Y8.8165
G1X5.0270Y8.8540
G1X5.0020Y8.8683
G1X4.8132Y8.9616
G1X4.8102Y8.9629
G1X4.7968Y8.9670
G1X4.7681Y8.9797
G1X4.7407Y8.9915
G1X4.7311Y8.9951
G1X4.7263Y8.9964
G1X4.7053Y9.0040
G1X4.6994Y9.0067
G1X4.6807Y9.0144
G1X4.6038Y9.0439
G1X4.5780Y9.0529
G1X4.5438Y9.0637
G1X4.4610Y9.0876
G1X4.3757Y9.1100
G1X4.3386Y9.1189
G1X4.3086Y9.1253
G1X4.2529Y9.1362
G1X4.1989Y9.1458
G1X4.1206Y9.1579
G1X4.0830Y9.1634
G1X3.8324Y9.1857
G1X3.7154
G1X3.4648Y9.1634
G1X3.4272Y9.1579
G1X3.3450Y9.1455
G1X3.3089Y9.1392
G1X3.2643Y9.1300
G1X3.2175Y9.1200
G1X3.1647Y9.1074
G1X3.1108Y9.0935
G1X3.0610Y9.0795
G1X3.0026Y9.0624
G1X2.9859Y9.0580
G1X2.9667Y9.0520
G1X2.9441Y9.0439
G1X2.8670Y9.0139
G1X2.8230Y8.9957
G1X2.8050Y8.9884
G1X2.7948Y8.9853
G1X2.7904Y8.9841
G1X2.7818Y8.9807
G1X2.7571Y8.9696
G1X2.7281Y8.9562
G1X2.7046Y8.9462
G1X2.6851Y8.9384
G1X2.5459Y8.8671
G1X2.5232Y8.8545
G1X2.4628Y8.8189
G1X2.4439Y8.8074
G1X2.4245Y8.7978
G1X2.4181Y8.7954
G1X2.4157Y8.7937
G1X2.4110Y8.7901
G1X2.4009Y8.7836
G1X2.2977Y8.7120
G1X2.2953Y8.7102
G1X2.2854Y8.7010
G1X2.2702Y8.6901
G1X2.2543Y8.6784
G1X2.2426Y8.6688
G1X2.2274Y8.6599
G1X2.2254Y8.6586
G1X2.2144Y8.6497
G1X2.1973Y8.6351
G1X2.1755Y8.6177
G1X2.1418Y8.5912
G1X2.1234Y8.5760
G1X2.0809Y8.5398
G1X2.0531Y8.5148
G1X2.0175Y8.4806
G1X1.9770Y8.4401
G1X1.9343Y8.3962
G1X1.8921Y8.3519
G1X1.8533Y8.3099
G1X1.8206Y8.2731
G1X1.7968Y8.2445
G1X1.7652Y8.2056
G1X1.7447Y8.1801
G1X1.7191Y8.1452
G1X1.6898Y8.1029
G1X1.6577Y8.0550
G1X1.6243Y8.0033
G1X1.5906Y7.9496
G1X1.5579Y7.8958
G1X1.5274Y7.8437
G1X1.5051Y7.8021
G1X1.4785Y7.7486
G1X1.4509Y7.6898
G1X1.4253Y7.6320
G1X1.4104Y7.5959
G1X1.3947Y7.5559
G1X1.3805Y7.5177
G1X1.3699Y7.4872
G1X1.3627Y7.4663
G1X1.3567Y7.4510
G1X1.3497Y7.4317
G1X1.3399Y7.4009
G1X1.3236Y7.3480
G1X1.3143Y7.3157
G1X1.3011Y7.2645
G1X1.2902Y7.2213
G1X1.2786Y7.1698
G1X1.2648Y7.1085
G1X1.2575Y7.0736
G1X1.2494Y7.0244
G1X1.2401Y6.9573
G1X1.2290Y6.8688
G1X1.2267Y6.8458
G1X1.2249Y6.8185
G1X1.2236Y6.7902
G1X1.2231Y6.7644
G1Y6.7591
G1X1.2223Y6.7444
G1X1.2197Y6.7299
G1X1.2154Y6.7157
G1X1.2123Y6.7075
G1X1.2120Y6.7031
G1Y6.5505
G1X1.2123Y6.5461
G1X1.2154Y6.5379
G1X1.2196Y6.5238
G1X1.2223Y6.5092
G1X1.2231Y6.4945
G1X1.2231Y6.4862
G1X1.2236Y6.4594
G1X1.2248Y6.4308
G1X1.2267Y6.4038
G1X1.2289Y6.3818
G1X1.2408Y6.2899
G1X1.2465Y6.2488
G1X1.2537Y6.2050
G1X1.2621Y6.1592
G1X1.2717Y6.1120
G1X1.2822Y6.0642
G1X1.2936Y6.0164
G1X1.3056Y5.9694
G1X1.3182Y5.9237
G1X1.3283Y5.8875
G1X1.3332Y5.8694
G1X1.3741Y5.7469
G1X1.3818Y5.7302
G1X1.3899Y5.7102
G1X1.3988Y5.6856
G1X1.4088Y5.6586
G1X1.4194Y5.6327
G1X1.4390Y5.5882
G1X1.4474Y5.5687
G1X1.4801Y5.5019
G1X1.5063Y5.4491
G1X1.5300Y5.4043
G1X1.5558Y5.3586
G1X1.5887Y5.3033
G1X1.6255Y5.2423
G1X1.6269Y5.2402
G1X1.6300Y5.2362
G1X1.6420Y5.2177
G1X1.6469Y5.2084
G1X1.6477Y5.2073
G1X1.6568Y5.1961
G1X1.6667Y5.1801
G1X1.6705Y5.1747
G1X1.6771Y5.1677
G1X1.7210Y5.1069
G1X1.7343Y5.0835
G1X1.7357Y5.0802
G1X1.7370Y5.0779
G1X1.7400Y5.0749
G1X1.7523Y5.0618
G1X1.7636Y5.0480
G1X1.7857Y5.0201
G1X1.8045Y4.9979
G1X1.8518Y4.9430
G1X1.8831Y4.9077
G1X2.0558Y4.7332
G1X2.0892Y4.7044
G1X2.1210Y4.6778
G1X2.1504Y4.6543
G1X2.1723Y4.6373
G1X2.1857Y4.6261
G1X2.1970Y4.6166
G1X2.2136Y4.6038
G1X2.2368Y4.5855
G1X2.2445Y4.5794
G1X2.2591Y4.5690
G1X2.2747Y4.5578
G1X2.2849Y4.5497
G1X2.2913Y4.5440
G1X2.3517Y4.5030
G1X2.3990Y4.4719
G1X2.4470Y4.4421
G1X2.4946Y4.4143
G1X2.5403Y4.3892
G1X2.5671Y4.3746
G1X2.5794Y4.3657
G1X2.5826Y4.3639
G1X2.7018Y4.3060
G1X2.7130Y4.3017
G1X2.7619Y4.2801
G1X2.7899Y4.2678
G1X2.8041Y4.2628
G1X2.8138Y4.2595
G1X2.8314Y4.2516
G1X2.8493Y4.2438
G1X2.8560Y4.2414
G1X2.8643Y4.2395
G1X2.8741Y4.2362
G1X2.9006Y4.2260
G1X2.9382Y4.2106
G1X2.9648Y4.2005
G1X2.9882Y4.1928
G1X3.0165Y4.1847
G1X3.0945Y4.1621
G1X3.1084Y4.1578
G1X3.1780Y4.1411
G1X3.2321Y4.1287
G1X3.2860Y4.1176
G1X3.3400Y4.1077
G1X3.3946Y4.0989
G1X3.4501Y4.0912
G1X3.5070Y4.0846
G1X3.5656Y4.0789
G1X3.6263Y4.0742
G1X3.6929Y4.0706
G1X3.7592Y4.0687
G1X3.8003Y4.0687
G1X3.8429Y4.0696
G1X3.8867Y4.0715
G1X3.9314Y4.0743
G1X3.9770Y4.0779
G1X4.0232Y4.0824
G1X4.0698Y4.0878
G1X4.1166Y4.0939
G1X4.1635Y4.1008
G1X4.2102Y4.1084
G1X4.2565Y4.1168
G1X4.3023Y4.1258
G1X4.3472Y4.1355
G1X4.3913Y4.1458
G1X4.4342Y4.1568
G1X4.4757Y4.1683
G1X4.5628Y4.1940
G1X4.5876Y4.2018
G1X4.6010Y4.2066
G1X4.6278Y4.2176
G1X4.6435Y4.2239
G1X4.6974Y4.2440
G1X4.7445Y4.2623
G1X4.7820Y4.2780
G1X4.8321Y4.3002
G1X4.8516Y4.3086
G1X4.9129Y4.3387
G1X4.9503Y4.3575
G1X4.9886Y4.3777
G1X5.0271Y4.3987
G1X5.0649Y4.4201
G1X5.1010Y4.4413
G1X5.1347Y4.4619
G1X5.1651Y4.4815
G1X5.1913Y4.4993
G1X5.2526Y4.5416
G1X5.2731Y4.5557
G1X5.2832Y4.5635
G1X5.2909Y4.5698
G1X5.3055Y4.5802
G1X5.3201Y4.5906
G1X5.3278Y4.5968
G1X5.3371Y4.6047
G1X5.3556Y4.6192
G1X5.3835Y4.6415
G1X5.4030Y4.6575
G1X5.4254Y4.6757
G1X5.4559Y4.7017
G1X5.4921Y4.7331
G1X5.6649Y4.9060
G1X5.6871Y4.9312
G1X5.7343Y4.9869
G1X5.7621Y5.0201
G1X5.7843Y5.0480
G1X5.7991Y5.0662
G1X5.8095Y5.0763
G1X5.8103Y5.0774
G1X5.8109Y5.0782
G1X5.8139Y5.0845
G1X5.8294Y5.1090
G1X5.8296Y5.1091
G1X5.8442Y5.1273
G1X5.8538Y5.1411
G1X5.8667Y5.1569
G1X5.8704Y5.1608
G1X5.8719Y5.1625
G1X5.8731Y5.1643
G1X5.8744Y5.1666
G1X5.8756Y5.1691
G1X5.8927Y5.1946
G1X5.8947Y5.1970
G1X5.8963Y5.1996
G1X5.9005Y5.2069
G1X5.9067Y5.2189
G1X5.9127Y5.2278
G1X5.9253Y5.2456
G1X5.9420Y5.2720
G1X5.9612Y5.3048
G1X5.9737Y5.3207
G1X5.9741Y5.3213
G1X5.9751Y5.3233
G1X5.9806Y5.3375
G1X6.0071Y5.3849
G1X6.0368Y5.4408
G1X6.0690Y5.5047
G1X6.1031Y5.5743
G1X6.1186Y5.6077
G1X6.1332Y5.6411
G1X6.1465Y5.6745
G1X6.1575Y5.7032
G1X6.1664Y5.7251
G1X6.1740Y5.7423
G1X6.2201Y5.8806
G1X6.2291Y5.9140
G1X6.2672Y6.0643
G1X6.2741Y6.0978
G1X6.2859Y6.1534
G1X6.2907Y6.1786
G1X6.2962Y6.2114
G1X6.3076Y6.2927
G1X6.3199Y6.3873
G1X6.3266Y6.4375
G1X6.3269Y6.8050
G1X6.3200Y6.8607
G1X6.3072Y6.9616
G1X6.2963Y7.0378
G1X6.2859Y7.0992
G1X6.2744Y7.1559
G1X6.2696Y7.1782
G1X6.2346Y7.3229
G1X6.2247Y7.3536
G1X6.2061Y7.4121
G1X6.1837Y7.4787
G1X6.1628Y7.5360
G1X6.1504Y7.5665
G1X6.1392Y7.5958
G1X6.1275Y7.6237
G1X6.1091Y7.6641
G1X6.0618Y7.7632
G1X6.0160Y7.8544
G1X5.9995Y7.8851
G1X5.9940Y7.8946
G0Z0.5000
G0X3.8026Y4.0687
G1Z-0.0800F12.0
G1X3.7581F60.0
G1X3.6929Y4.0706
G1X3.6263Y4.0742
G1X3.5656Y4.0789
G1X3.5070Y4.0846
G1X3.4717Y4.0887
G1X4.0771
G1X4.1166Y4.0939
G1X4.1635Y4.1008
G1X4.2102Y4.1084
G1X4.2118Y4.1087
G1X3.3343
G1X3.2860Y4.1176
G1X3.2321Y4.1287
G1X3.2320Y4.1287
G1X4.3157
G1X4.3472Y4.1355
G1X4.3913Y4.1458
G1X4.4025Y4.1487
G1X3.1461
G1X3.1084Y4.1578
G1X3.0945Y4.1621
G1X3.0718Y4.1687
G1X4.4771
G1X4.5449Y4.1887
G1X3.0025
G1X2.9882Y4.1928
G1X2.9648Y4.2005
G1X2.9432Y4.2087
G1X4.6062
G1X4.6278Y4.2176
G1X4.6435Y4.2239
G1X4.6564Y4.2287
G1X2.8935
G1X2.8741Y4.2362
G1X2.8643Y4.2395
G1X2.8560Y4.2414
G1X2.8493Y4.2438
G1X2.8380Y4.2487
G1X4.7094
G1X4.7445Y4.2623
G1X4.7597Y4.2687
G1X2.7880
G1X2.7619Y4.2801
G1X2.7424Y4.2887
G1X4.8061
G1X4.8321Y4.3002
G1X4.8516Y4.3086
G1X4.8517Y4.3087
G1X2.6962
G1X2.6551Y4.3287
G1X4.8925
G1X4.9129Y4.3387
G1X4.9327Y4.3487
G1X2.6139
G1X2.5826Y4.3639
G1X2.5794Y4.3657
G1X2.5752Y4.3687
G1X4.9716
G1X4.9886Y4.3777
G1X5.0088Y4.3887
G1X2.5413
G1X2.5403Y4.3892
G1X2.5047Y4.4087
G1X5.0448
G1X5.0649Y4.4201
G1X5.0795Y4.4287
G1X2.4699
G1X2.4470Y4.4421
G1X2.4364Y4.4487
G1X5.1131
G1X5.1347Y4.4619
G1X5.1452Y4.4687
G1X2.4042
G1X2.3990Y4.4719
G1X2.3735Y4.4887
G1X5.1757
G1X5.1913Y4.4993
G1X5.2049Y4.5087
G1X2.3434
G1X2.3139Y4.5287
G1X5.2339
G1X5.2526Y4.5416
G1X5.2630Y4.5487
G1X2.2861
G1X2.2849Y4.5497
G1X2.2747Y4.5578
G1X2.2594Y4.5687
G1X5.2896
G1X5.2909Y4.5698
G1X5.3055Y4.5802
G1X5.3175Y4.5887
G1X2.2327
G1X2.2136Y4.6038
G1X2.2072Y4.6087
G1X5.3423
G1X5.3556Y4.6192
G1X5.3675Y4.6287
G1X2.1826
G1X2.1723Y4.6373
G1X2.1576Y4.6487
G1X5.3923
G1X5.4030Y4.6575
G1X5.4168Y4.6687
G1X2.1324
G1X2.1210Y4.6778
G1X2.1079Y4.6887
G1X5.4406
G1X5.4559Y4.7017
G1X5.4640Y4.7087
G1X2.0842
G1X2.0610Y4.7287
G1X5.4870
G1X5.4921Y4.7331
G1X5.5077Y4.7487
G1X2.0404
G1X2.0206Y4.7687
G1X5.5277
G1X5.5477Y4.7887
G1X2.0008
G1X1.9810Y4.8087
G1X5.5677
G1X5.5877Y4.8287
G1X1.9612
G1X1.9415Y4.8487
G1X5.6077
G1X5.6276Y4.8687
G1X1.9217
G1X1.9019Y4.8887
G1X5.6476
G1X5.6649Y4.9060
G1X5.6673Y4.9087
G1X1.8822
G1X1.8645Y4.9287
G1X5.6849
G1X5.6871Y4.9312
G1X5.7019Y4.9487
G1X1.8469
G1X1.8296Y4.9687
G1X5.7188
G1X5.7343Y4.9869
G1X5.7358Y4.9887
G1X1.8124
G1X1.8045Y4.9979
G1X1.7954Y5.0087
G1X5.7525
G1X5.7621Y5.0201
G1X5.7689Y5.0287
G1X1.7789
G1X1.7636Y5.0480
G1X1.7630Y5.0487
G1X5.7849
G1X5.7991Y5.0662
G1X5.8017Y5.0687
G1X1.7458
G1X1.7400Y5.0749
G1X1.7370Y5.0779
G1X1.7357Y5.0802
G1X1.7343Y5.0835
G1X1.7317Y5.0887
G1X5.8163
G1X5.8210Y5.0972
G1X5.8292Y5.1087
G1X1.7197
G1X1.7052Y5.1287
G1X5.8452
G1X5.8538Y5.1411
G1X5.8595Y5.1487
G1X1.6908
G1X1.6771Y5.1677
G1X1.6761Y5.1687
G1X5.8754
G1X5.8756Y5.1691
G1X5.8834Y5.1824
G1X5.8882Y5.1887
G1X1.6614
G1X1.6568Y5.1961
G1X1.6477Y5.2073
G1X1.6469Y5.2084
G1X1.6467Y5.2087
G1X5.9014
G1X5.9067Y5.2189
G1X5.9127Y5.2278
G1X5.9133Y5.2287
G1X1.6353
G1X1.6300Y5.2362
G1X1.6269Y5.2402
G1X1.6255Y5.2423
G1X1.6216Y5.2487
G1X5.9273
G1X5.9399Y5.2687
G1X1.6096
G1X1.5975Y5.2887
G1X5.9518
G1X5.9612Y5.3048
G1X5.9642Y5.3087
G1X1.5855
G1X1.5736Y5.3287
G1X5.9772
G1X5.9806Y5.3375
G1X5.9869Y5.3487
G1X1.5618
G1X1.5558Y5.3586
G1X1.5502Y5.3687
G1X5.9980
G1X6.0071Y5.3849
G1X6.0091Y5.3887
G1X1.5388
G1X1.5300Y5.4043
G1X1.5277Y5.4087
G1X6.0197
G1X6.0304Y5.4287
G1X1.5171
G1X1.5066Y5.4487
G1X6.0408
G1X6.0509Y5.4687
G1X1.4966
G1X1.4866Y5.4887
G1X6.0610
G1X6.0690Y5.5047
G1X6.0710Y5.5087
G1X1.4767
G1X1.4670Y5.5287
G1X6.0808
G1X6.0906Y5.5487
G1X1.4572
G1X1.4474Y5.5687
G1X6.1004Y5.5687
G1X6.1031Y5.5743
G1X6.1098Y5.5887
G1X1.4387
G1X1.4299Y5.6087
G1X6.1191
G1X6.1278Y5.6287
G1X1.4212
G1X1.4194Y5.6327
G1X1.4128Y5.6487
G1X6.1363
G1X6.1442Y5.6687
G1X1.4051
G1X1.3988Y5.6856
G1X1.3977Y5.6887
G1X6.1520
G1X6.1575Y5.7032
G1X6.1597Y5.7087
G1X1.3905
G1X1.3899Y5.7102
G1X1.3824Y5.7287
G1X6.1680
G1X6.1740Y5.7423
G1X6.1761Y5.7487
G1X1.3735
G1X1.3669Y5.7687
G1X6.1828
G1X6.1895Y5.7887
G1X1.3602
G1X1.3535Y5.8087
G1X6.1962
G1X6.2028Y5.8287
G1X1.3468
G1X1.3401Y5.8487
G1X6.2095
G1X6.2162Y5.8687
G1X1.3334
G1X1.3332Y5.8694
G1X1.3283Y5.8875
G1X1.3280Y5.8887
G1X6.2223
G1X6.2277Y5.9087
G1X1.3224
G1X1.3182Y5.9237
G1X1.3168Y5.9287
G1X6.2328
G1X6.2379Y5.9487
G1X1.3113
G1X1.3058Y5.9687
G1X6.2430
G1X6.2480Y5.9887
G1X1.3007
G1X1.2956Y6.0087
G1X6.2531
G1X6.2582Y6.0287
G1X1.2907
G1X1.2859Y6.0487
G1X6.2632
G1X6.2672Y6.0643
G1X6.2681Y6.0687
G1X1.2812
G1X1.2768Y6.0887
G1X6.2723
G1X6.2741Y6.0978
G1X6.2764Y6.1087
G1X1.2724
G1X1.2717Y6.1120
G1X1.2683Y6.1287
G1X6.2807
G1X6.2849Y6.1487
G1X1.2643
G1X1.2621Y6.1592
G1X1.2604Y6.1687
G1X6.2888
G1X6.2907Y6.1786
G1X6.2924Y6.1887
G1X1.2567
G1X1.2537Y6.2050
G1X1.2531Y6.2087
G1X6.2957
G1X6.2962Y6.2114
G1X6.2986Y6.2287
G1X1.2498
G1X1.2465Y6.2487
G1X6.3014
G1X6.3042Y6.2687
G1X1.2437
G1X1.2409Y6.2887
G1X6.3070
G1X6.3076Y6.2927
G1X6.3097Y6.3087
G1X1.2383
G1X1.2358Y6.3287
G1X6.3123
G1X6.3149Y6.3487
G1X1.2332
G1X1.2306Y6.3687
G1X6.3175
G1X6.3199Y6.3873
G1X6.3201Y6.3887
G1X1.2282
G1X1.2267Y6.4038
G1X1.2263Y6.4087
G1X6.3228
G1X6.3254Y6.4287
G1X1.2249
G1X1.2248Y6.4308
G1X1.2240Y6.4487
G1X6.3266
G1X6.3266Y6.4687
G1X1.2234
G1X1.2231Y6.4862
G1X1.2231Y6.4887
G1X6.3266
G1X6.3267Y6.5087
G1X1.2223
G1X1.2223Y6.5092
G1X1.2196Y6.5238
G1X1.2182Y6.5287
G1X6.3267
G1X6.3267Y6.5487
G1X1.2121
G1X1.2120Y6.5505
G1Y6.5687
G1X6.3267
G1X6.3267Y6.5887
G1X1.2120
G1Y6.6087
G1X6.3267
G1X6.3268Y6.6287
G1X1.2120
G1Y6.6487
G1X6.3268
G1X6.3268Y6.6687
G1X1.2120
G1Y6.6887
G1X6.3268
G1X6.3268Y6.7087
G1X1.2128
G1X1.2154Y6.7157
G1X1.2193Y6.7287
G1X6.3268
G1X6.3269Y6.7487
G1X1.2225
G1X1.2231Y6.7591
G1Y6.7644
G1X1.2232Y6.7687
G1X6.3269
G1X6.3269Y6.7887
G1X1.2236
G1X1.2236Y6.7902
G1X1.2244Y6.8087
G1X6.3264
G1X6.3240Y6.8287
G1X1.2255
G1X1.2267Y6.8458
G1X1.2270Y6.8487
G1X6.3215
G1X6.3200Y6.8607
G1X6.3190Y6.8687
G1X1.2289
G1X1.2290Y6.8688
G1X1.2315Y6.8887
G1X6.3165
G1X6.3139Y6.9087
G1X1.2340
G1X1.2365Y6.9287
G1X6.3114
G1X6.3088Y6.9487
G1X1.2390
G1X1.2401Y6.9573
G1X1.2417Y6.9687
G1X6.3062
G1X6.3033Y6.9887
G1X1.2445
G1X1.2473Y7.0087
G1X6.3004
G1X6.2976Y7.0287
G1X1.2501
G1X1.2534Y7.0487
G1X6.2944
G1X6.2911Y7.0687
G1X1.2567
G1X1.2575Y7.0736
G1X1.2606Y7.0887
G1X6.2877
G1X6.2859Y7.0992
G1X6.2840Y7.1087
G1X1.2648
G1X1.2693Y7.1287
G1X6.2799
G1X6.2759Y7.1487
G1X1.2738
G1X1.2783Y7.1687
G1X6.2716
G1X6.2696Y7.1782
G1X6.2670Y7.1887
G1X1.2829
G1X1.2874Y7.2087
G1X6.2622
G1X6.2573Y7.2287
G1X1.2921
G1X1.2971Y7.2487
G1X6.2525
G1X6.2477Y7.2687
G1X1.3022
G1X1.3074Y7.2887
G1X6.2429
G1X6.2380Y7.3087
G1X1.3125
G1X1.3143Y7.3157
G1X1.3181Y7.3287
G1X6.2327
G1X6.2263Y7.3487
G1X1.3238
G1X1.3300Y7.3687
G1X6.2199
G1X6.2135Y7.3887
G1X1.3361
G1X1.3399Y7.4009
G1X1.3423Y7.4087
G1X6.2072
G1X6.2061Y7.4121
G1X6.2005Y7.4287
G1X1.3487
G1X1.3497Y7.4317
G1X1.3559Y7.4487
G1X6.1938
G1X6.1871Y7.4687
G1X1.3635
G1X1.3699Y7.4872
G1X1.3704Y7.4887
G1X6.1801
G1X6.1728Y7.5087
G1X1.3774
G1X1.3805Y7.5177
G1X1.3846Y7.5287
G1X6.1655
G1X6.1628Y7.5360
G1X6.1576Y7.5487
G1X1.3920
G1X1.3947Y7.5559
G1X1.3997Y7.5687
G1X6.1496
G1X6.1419Y7.5887
G1X1.4076
G1X1.4104Y7.5959
G1X1.4157Y7.6087
G1X6.1338
G1X6.1275Y7.6237
G1X6.1252Y7.6287
G1X1.4239
G1X1.4253Y7.6320
G1X1.4327Y7.6487
G1X6.1161
G1X6.1091Y7.6641
G1X6.1069Y7.6687
G1X1.4415
G1X1.4504Y7.6887
G1X6.0974
G1X6.0878Y7.7087
G1X1.4598
G1X1.4692Y7.7287
G1X6.0783
G1X6.0687Y7.7487
G1X1.4786
G1X1.4885Y7.7687
G1X6.0590
G1X6.0490Y7.7887
G1X1.4984
G1X1.5051Y7.8021
G1X1.5086Y7.8087
G1X6.0389
G1X6.0289Y7.8287
G1X1.5194
G1X1.5274Y7.8437
G1X1.5303Y7.8487
G1X6.0188
G1X6.0160Y7.8544
G1X6.0083Y7.8687
G1X1.5420
G1X1.5538Y7.8887
G1X5.9974
G1X5.9940Y7.8946
G1X5.9905Y7.8993
G1X5.9846Y7.9075
G1X5.9839Y7.9087
G1X1.5658
G1X1.5779Y7.9287
G1X5.9724
G1X5.9691Y7.9349
G1X5.9645Y7.9453
G1X5.9640Y7.9464
G1X5.9629Y7.9487
G1X1.5901
G1X1.5906Y7.9496
G1X1.6026Y7.9687
G1X5.9501
G1X5.9367Y7.9887
G1X1.6151
G1X1.6243Y8.0033
G1X1.6278Y8.0087
G1X5.9234
G1X5.9100Y8.0287
G1X1.6407
G1X1.6536Y8.0487
G1X5.8967
G1X5.8833Y8.0687
G1X1.6669
G1X1.6802Y8.0887
G1X5.8700
G1X5.8566Y8.1087
G1X1.6938
G1X1.7077Y8.1287
G1X5.8402
G1X5.8378Y8.1312
G1X5.8254Y8.1487
G1X1.7217
G1X1.7364Y8.1687
G1X5.8110
G1X5.7963Y8.1887
G1X1.7516
G1X1.7652Y8.2056
G1X1.7677Y8.2087
G1X5.7804
G1X5.7678Y8.2237
G1X5.7638Y8.2287
G1X1.7840
G1X1.7968Y8.2445
G1X1.8003Y8.2487
G1X5.7479
G1X5.7351Y8.2648
G1X5.7316Y8.2687
G1X1.8169
G1X1.8206Y8.2731
G1X1.8345Y8.2887
G1X5.7137
G1X5.7084Y8.2946
G1X5.6962Y8.3087
G1X1.8523
G1X1.8533Y8.3099
G1X1.8707Y8.3287
G1X5.6790
G1X5.6621Y8.3487
G1X1.8892
G1X1.8921Y8.3519
G1X1.9081Y8.3687
G1X5.6436
G1X5.6236Y8.3887
G1X1.9271
G1X1.9343Y8.3962
G1X1.9464Y8.4087
G1X5.6036
G1X5.5837Y8.4287
G1X1.9659
G1X1.9770Y8.4401
G1X1.9856Y8.4487
G1X5.5637
G1X5.5437Y8.4687
G1X2.0056
G1X2.0175Y8.4806
G1X2.0260Y8.4887
G1X5.5237
G1X5.5037Y8.5087
G1X2.0468
G1X2.0531Y8.5148
G1X2.0686Y8.5287
G1X5.4801
G1X5.4670Y8.5397
G1X5.4566Y8.5487
G1X2.0913
G1X2.1148Y8.5687
G1X5.4336
G1X5.4225Y8.5788
G1X5.4112Y8.5887
G1X2.1387
G1X2.1418Y8.5912
G1X2.1641Y8.6087
G1X5.3859
G1X5.3768Y8.6158
G1X5.3614Y8.6287
G1X2.1893
G1X2.1973Y8.6351
G1X2.2133Y8.6487
G1X5.3359
G1X5.3111Y8.6669
G1X5.3085Y8.6687
G1X2.2424
G1X2.2426Y8.6688
G1X2.2543Y8.6784
G1X2.2683Y8.6887
G1X5.2803
G1X5.2799Y8.6890
G1X5.2692Y8.6990
G1X5.2668Y8.7009
G1X5.2554Y8.7087
G1X2.2937
G1X2.2953Y8.7102
G1X2.2977Y8.7120
G1X2.3217Y8.7287
G1X5.2264
G1X5.1974Y8.7487
G1X2.3506
G1X2.3794Y8.7687
G1X5.1684
G1X5.1489Y8.7821
G1X5.1376Y8.7887
G1X2.4089
G1X2.4110Y8.7901
G1X2.4157Y8.7937
G1X2.4181Y8.7954
G1X2.4245Y8.7978
G1X2.4344Y8.8022
G1X2.4439Y8.8074
G1X2.4460Y8.8087
G1X5.1042
G1X5.0911Y8.8165
G1X5.0702Y8.8287
G1X2.4794
G1X2.5134Y8.8487
G1X5.0360
G1X5.0270Y8.8540
G1X5.0020Y8.8683
G1X5.0012Y8.8687
G1X2.5491
G1X2.5881Y8.8887
G1X4.9607
G1X4.9203Y8.9087
G1X2.6271
G1X2.6661Y8.9287
G1X4.8798
G1X4.8393Y8.9487
G1X2.7106
G1X2.7281Y8.9562
G1X2.7552Y8.9687
G1X4.7929
G1X4.7681Y8.9797
G1X4.7473Y8.9887
G1X2.8058
G1X2.8230Y8.9957
G1X2.8545Y9.0087
G1X4.6946
G1X4.6807Y9.0144
G1X4.6435Y9.0287
G1X2.9050
G1X2.9441Y9.0439
G1X2.9574Y9.0487
G1X4.5901
G1X4.5780Y9.0529
G1X4.5438Y9.0637
G1X4.5264Y9.0687
G1X3.0242
G1X3.0610Y9.0795
G1X3.0937Y9.0887
G1X4.4567
G1X4.3806Y9.1087
G1X3.1702
G1X3.2175Y9.1200
G1X3.2583Y9.1287
G1X4.2911
G1X4.2529Y9.1362
G1X4.1989Y9.1458
G1X4.1802Y9.1487
G1X3.3661
G1X3.4272Y9.1579
G1X3.4648Y9.1634
G1X3.5248Y9.1687
G1X4.0230
G1X3.8330Y9.1857
G1X3.7149
G0Z0.5000
G0X5.9940Y7.8946
G1Z-0.0800F12.0
G1X5.9905Y7.8993F60.0
G1X5.9846Y7.9075
G1X5.9766Y7.9208
G1X5.9691Y7.9349
G1X5.9645Y7.9453
G1X5.9640Y7.9464
G1X5.9628Y7.9490
G1X5.9616Y7.9511
G1X5.9562Y7.9587
G1X5.9502Y7.9685
G1X5.8516Y8.1162
G1X5.8494Y8.1192
G1X5.8378Y8.1312
G1X5.8166Y8.1611
G1X5.7954Y8.1899
G1X5.7807Y8.2084
G1X5.7678Y8.2237
G1X5.7512Y8.2446
G1X5.7351Y8.2648
G1X5.7234Y8.2780
G1X5.7084Y8.2946
G1X5.6842Y8.3226
G1X5.6536Y8.3587
G1X5.5032Y8.5092
G1X5.4670Y8.5397
G1X5.4390Y8.5638
G1X5.4225Y8.5788
G1X5.4108Y8.5890
G1X5.3946Y8.6019
G1X5.3768Y8.6158
G1X5.3612Y8.6289
G1X5.3407Y8.6451
G1X5.3111Y8.6669
G1X5.2799Y8.6890
G1X5.2692Y8.6990
G1X5.2668Y8.7009
G1X5.1489Y8.7821
G1X5.1347Y8.7904
G1X5.1286Y8.7942
G1X5.0911Y8.8165
G1X5.0270Y8.8540
G1X5.0020Y8.8683
G1X4.8132Y8.9616
G1X4.8102Y8.9629
G1X4.7968Y8.9670
G1X4.7681Y8.9797
G1X4.7407Y8.9915
G1X4.7311Y8.9951
G1X4.7263Y8.9964
G1X4.7053Y9.0040
G1X4.6994Y9.0067
G1X4.6807Y9.0144
G1X4.6038Y9.0439
G1X4.5780Y9.0529
G1X4.5438Y9.0637
G1X4.4610Y9.0876
G1X4.3757Y9.1100
G1X4.3386Y9.1189
G1X4.3086Y9.1253
G1X4.2529Y9.1362
G1X4.1989Y9.1458
G1X4.1206Y9.1579
G1X4.0830Y9.1634
G1X3.8324Y9.1857
G1X3.7154
G1X3.4648Y9.1634
G1X3.4272Y9.1579
G1X3.3450Y9.1455
G1X3.3089Y9.1392
G1X3.2643Y9.1300
G1X3.2175Y9.1200
G1X3.1647Y9.1074
G1X3.1108Y9.0935
G1X3.0610Y9.0795
G1X3.0026Y9.0624
G1X2.9859Y9.0580
G1X2.9667Y9.0520
G1X2.9441Y9.0439
G1X2.8670Y9.0139
G1X2.8230Y8.9957
G1X2.8050Y8.9884
G1X2.7948Y8.9853
G1X2.7904Y8.9841
G1X2.7818Y8.9807
G1X2.7571Y8.9696
G1X2.7281Y8.9562
G1X2.7046Y8.9462
G1X2.6851Y8.9384
G1X2.5459Y8.8671
G1X2.5232Y8.8545
G1X2.4628Y8.8189
G1X2.4439Y8.8074
G1X2.4245Y8.7978
G1X2.4181Y8.7954
G1X2.4157Y8.7937
G1X2.4110Y8.7901
G1X2.4009Y8.7836
G1X2.2977Y8.7120
G1X2.2953Y8.7102
G1X2.2854Y8.7010
G1X2.2702Y8.6901
G1X2.2543Y8.6784
G1X2.2426Y8.6688
G1X2.2274Y8.6599
G1X2.2254Y8.6586
G1X2.2144Y8.6497
G1X2.1973Y8.6351
G1X2.1755Y8.6177
G1X2.1418Y8.5912
G1X2.1234Y8.5760
G1X2.0809Y8.5398
G1X2.0531Y8.5148
G1X2.0175Y8.4806
G1X1.9770Y8.4401
G1X1.9343Y8.3962
G1X1.8921Y8.3519
G1X1.8533Y8.3099
G1X1.8206Y8.2731
G1X1.7968Y8.2445
G1X1.7652Y8.2056
G1X1.7447Y8.1801
G1X1.7191Y8.1452
G1X1.6898Y8.1029
G1X1.6577Y8.0550
G1X1.6243Y8.0033
G1X1.5906Y7.9496
G1X1.5579Y7.8958
G1X1.5274Y7.8437
G1X1.5051Y7.8021
G1X1.4785Y7.7486
G1X1.4509Y7.6898
G1X1.4253Y7.6320
G1X1.4104Y7.5959
G1X1.3947Y7.5559
G1X1.3805Y7.5177
G1X1.3699Y7.4872
G1X1.3627Y7.4663
G1X1.3567Y7.4510
G1X1.3497Y7.4317
G1X1.3399Y7.4009
G1X1.3236Y7.3480
G1X1.3143Y7.3157
G1X1.3011Y7.2645
G1X1.2902Y7.2213
G1X1.2786Y7.1698
G1X1.2648Y7.1085
G1X1.2575Y7.0736
G1X1.2494Y7.0244
G1X1.2401Y6.9573
G1X1.2290Y6.8688
G1X1.2267Y6.8458
G1X1.2249Y6.8185
G1X1.2236Y6.7902
G1X1.2231Y6.7644
G1Y6.7591
G1X1.2223Y6.7444
G1X1.2197Y6.7299
G1X1.2154Y6.7157
G1X1.2123Y6.7075
G1X1.2120Y6.7031
G1Y6.5505
G1X1.2123Y6.5461
G1X1.2154Y6.5379
G1X1.2196Y6.5238
G1X1.2223Y6.5092
G1X1.2231Y6.4945
G1X1.2231Y6.4862
G1X1.2236Y6.4594
G1X1.2248Y6.4308
G1X1.2267Y6.4038
G1X1.2289Y6.3818
G1X1.2408Y6.2899
G1X1.2465Y6.2488
G1X1.2537Y6.2050
G1X1.2621Y6.1592
G1X1.2717Y6.1120
G1X1.2822Y6.0642
G1X1.2936Y6.0164
G1X1.3056Y5.9694
G1X1.3182Y5.9237
G1X1.3283Y5.8875
G1X1.3332Y5.8694
G1X1.3741Y5.7469
G1X1.3818Y5.7302
G1X1.3899Y5.7102
G1X1.3988Y5.6856
G1X1.4088Y5.6586
G1X1.4194Y5.6327
G1X1.4390Y5.5882
G1X1.4474Y5.5687
G1X1.4801Y5.5019
G1X1.5063Y5.4491
G1X1.5300Y5.4043
G1X1.5558Y5.3586
G1X1.5887Y5.3033
G1X1.6255Y5.2423
G1X1.6269Y5.2402
G1X1.6300Y5.2362
G1X1.6420Y5.2177
G1X1.6469Y5.2084
G1X1.6477Y5.2073
G1X1.6568Y5.1961
G1X1.6667Y5.1801
G1X1.6705Y5.1747
G1X1.6771Y5.1677
G1X1.7210Y5.1069
G1X1.7343Y5.0835
G1X1.7357Y5.0802
G1X1.7370Y5.0779
G1X1.7400Y5.0749
G1X1.7523Y5.0618
G1X1.7636Y5.0480
G1X1.7857Y5.0201
G1X1.8045Y4.9979
G1X1.8518Y4.9430
G1X1.8831Y4.9077
G1X2.0558Y4.7332
G1X2.0892Y4.7044
G1X2.1210Y4.6778
G1X2.1504Y4.6543
G1X2.1723Y4.6373
G1X2.1857Y4.6261
G1X2.1970Y4.6166
G1X2.2136Y4.6038
G1X2.2368Y4.5855
G1X2.2445Y4.5794
G1X2.2591Y4.5690
G1X2.2747Y4.5578
G1X2.2849Y4.5497
G1X2.2913Y4.5440
G1X2.3517Y4.5030
G1X2.3990Y4.4719
G1X2.4470Y4.4421
G1X2.4946Y4.4143
G1X2.5403Y4.3892
G1X2.5671Y4.3746
G1X2.5794Y4.3657
G1X2.5826Y4.3639
G1X2.7018Y4.3060
G1X2.7130Y4.3017
G1X2.7619Y4.2801
G1X2.7899Y4.2678
G1X2.8041Y4.2628
G1X2.8138Y4.2595
G1X2.8314Y4.2516
G1X2.8493Y4.2438
G1X2.8560Y4.2414
G1X2.8643Y4.2395
G1X2.8741Y4.2362
G1X2.9006Y4.2260
G1X2.9382Y4.2106
G1X2.9648Y4.2005
G1X2.9882Y4.1928
G1X3.0165Y4.1847
G1X3.0945Y4.1621
G1X3.1084Y4.1578
G1X3.1780Y4.1411
G1X3.2321Y4.1287
G1X3.2860Y4.1176
G1X3.3400Y4.1077
G1X3.3946Y4.0989
G1X3.4501Y4.0912
G1X3.5070Y4.0846
G1X3.5656Y4.0789
G1X3.6263Y4.0742
G1X3.6929Y4.0706
G1X3.7592Y4.0687
G1X3.8003Y4.0687
G1X3.8429Y4.0696
G1X3.8867Y4.0715
G1X3.9314Y4.0743
G1X3.9770Y4.0779
G1X4.0232Y4.0824
G1X4.0698Y4.0878
G1X4.1166Y4.0939
G1X4.1635Y4.1008
G1X4.2102Y4.1084
G1X4.2565Y4.1168
G1X4.3023Y4.1258
G1X4.3472Y4.1355
G1X4.3913Y4.1458
G1X4.4342Y4.1568
G1X4.4757Y4.1683
G1X4.5628Y4.1940
G1X4.5876Y4.2018
G1X4.6010Y4.2066
G1X4.6278Y4.2176
G1X4.6435Y4.2239
G1X4.6974Y4.2440
G1X4.7445Y4.2623
G1X4.7820Y4.2780
G1X4.8321Y4.3002
G1X4.8516Y4.3086
G1X4.9129Y4.3387
G1X4.9503Y4.3575
G1X4.9886Y4.3777
G1X5.0271Y4.3987
G1X5.0649Y4.4201
G1X5.1010Y4.4413
G1X5.1347Y4.4619
G1X5.1651Y4.4815
G1X5.1913Y4.4993
G1X5.2526Y4.5416
G1X5.2731Y4.5557
G1X5.2832Y4.5635
G1X5.2909Y4.5698
G1X5.3055Y4.5802
G1X5.3201Y4.5906
G1X5.3278Y4.5968
G1X5.3371Y4.6047
G1X5.3556Y4.6192
G1X5.3835Y4.6415
G1X5.4030Y4.6575
G1X5.4254Y4.6757
G1X5.4559Y4.7017
G1X5.4921Y4.7331
G1X5.6649Y4.9060
G1X5.6871Y4.9312
G1X5.7343Y4.9869
G1X5.7621Y5.0201
G1X5.7843Y5.0480
G1X5.7991Y5.0662
G1X5.8095Y5.0763
G1X5.8103Y5.0774
G1X5.8109Y5.0782
G1X5.8139Y5.0845
G1X5.8294Y5.1090
G1X5.8296Y5.1091
G1X5.8442Y5.1273
G1X5.8538Y5.1411
G1X5.8667Y5.1569
G1X5.8704Y5.1608
G1X5.8719Y5.1625
G1X5.8731Y5.1643
G1X5.8744Y5.1666
G1X5.8756Y5.1691
G1X5.8927Y5.1946
G1X5.8947Y5.1970
G1X5.8963Y5.1996
G1X5.9005Y5.2069
G1X5.9067Y5.2189
G1X5.9127Y5.2278
G1X5.9253Y5.2456
G1X5.9420Y5.2720
G1X5.9612Y5.3048
G1X5.9737Y5.3207
G1X5.9741Y5.3213
G1X5.9751Y5.3233
G1X5.9806Y5.3375
G1X6.0071Y5.3849
G1X6.0368Y5.4408
G1X6.0690Y5.5047
G1X6.1031Y5.5743
G1X6.1186Y5.6077
G1X6.1332Y5.6411
G1X6.1465Y5.6745
G1X6.1575Y5.7032
G1X6.1664Y5.7251
G1X6.1740Y5.7423
G1X6.2201Y5.8806
G1X6.2291Y5.9140
G1X6.2672Y6.0643
G1X6.2741Y6.0978
G1X6.2859Y6.1534
G1X6.2907Y6.1786
G1X6.2962Y6.2114
G1X6.3076Y6.2927
G1X6.3199Y6.3873
G1X6.3266Y6.4375
G1X6.3269Y6.8050
G1X6.3200Y6.8607
G1X6.3072Y6.9616
G1X6.2963Y7.0378
G1X6.2859Y7.0992
G1X6.2744Y7.1559
G1X6.2696Y7.1782
G1X6.2346Y7.3229
G1X6.2247Y7.3536
G1X6.2061Y7.4121
G1X6.1837Y7.4787
G1X6.1628Y7.5360
G1X6.1504Y7.5665
G1X6.1392Y7.5958
G1X6.1275Y7.6237
G1X6.1091Y7.6641
G1X6.0618Y7.7632
G1X6.0160Y7.8544
G1X5.9995Y7.8851
G1X5.9940Y7.8946
G0Z0.5000
G0X3.8026Y4.0687
G1Z-0.1200F12.0
G1X3.7581F60.0
G1X3.6929Y4.0706
G1X3.6263Y4.0742
G1X3.5656Y4.0789
G1X3.5070Y4.0846
G1X3.4717Y4.0887
G1X4.0771
G1X4.1166Y4.0939
G1X4.1635Y4.1008
G1X4.2102Y4.1084
G1X4.2118Y4.1087
G1X3.3343
G1X3.2860Y4.1176
G1X3.2321Y4.1287
G1X3.2320Y4.1287
G1X4.3157
G1X4.3472Y4.1355
G1X4.3913Y4.1458
G1X4.4025Y4.1487
G1X3.1461
G1X3.1084Y4.1578
G1X3.0945Y4.1621
G1X3.0718Y4.1687
G1X4.4771
G1X4.5449Y4.1887
G1X3.0025
G1X2.9882Y4.1928
G1X2.9648Y4.2005
G1X2.9432Y4.2087
G1X4.6062
G1X4.6278Y4.2176
G1X4.6435Y4.2239
G1X4.6564Y4.2287
G1X2.8935
G1X2.8741Y4.2362
G1X2.8643Y4.2395
G1X2.8560Y4.2414
G1X2.8493Y4.2438
G1X2.8380Y4.2487
G1X4.7094
G1X4.7445Y4.2623
G1X4.7597Y4.2687
G1X2.7880
G1X2.7619Y4.2801
G1X2.7424Y4.2887
G1X4.8061
G1X4.8321Y4.3002
G1X4.8516Y4.3086
G1X4.8517Y4.3087
G1X2.6962
G1X2.6551Y4.3287
G1X4.8925
G1X4.9129Y4.3387
G1X4.9327Y4.3487
G1X2.6139
G1X2.5826Y4.3639
G1X2.5794Y4.3657
G1X2.5752Y4.3687
G1X4.9716
G1X4.9886Y4.3777
G1X5.0088Y4.3887
G1X2.5413
G1X2.5403Y4.3892
G1X2.5047Y4.4087
G1X5.0448
G1X5.0649Y4.4201
G1X5.0795Y4.4287
G1X2.4699
G1X2.4470Y4.4421
G1X2.4364Y4.4487
G1X5.1131
G1X5.1347Y4.4619
G1X5.1452Y4.4687
G1X2.4042
G1X2.3990Y4.4719
G1X2.3735Y4.4887
G1X5.1757
G1X5.1913Y4.4993
G1X5.2049Y4.5087
G1X2.3434
G1X2.3139Y4.5287
G1X5.2339
G1X5.2526Y4.5416
G1X5.2630Y4.5487
G1X2.2861
G1X2.2849Y4.5497
G1X2.2747Y4.5578
G1X2.2594Y4.5687
G1X5.2896
G1X5.2909Y4.5698
G1X5.3055Y4.5802
G1X5.3175Y4.5887
G1X2.2327
G1X2.2136Y4.6038
G1X2.2072Y4.6087
G1X5.3423
G1X5.3556Y4.6192
G1X5.3675Y4.6287
G1X2.1826
G1X2.1723Y4.6373
G1X2.1576Y4.6487
G1X5.3923
G1X5.4030Y4.6575
G1X5.4168Y4.6687
G1X2.1324
G1X2.1210Y4.6778
G1X2.1079Y4.6887
G1X5.4406
G1X5.4559Y4.7017
G1X5.4640Y4.7087
G1X2.0842
G1X2.0610Y4.7287
G1X5.4870
G1X5.4921Y4.7331
G1X5.5077Y4.7487
G1X2.0404
G1X2.0206Y4.7687
G1X5.5277
G1X5.5477Y4.7887
G1X2.0008
G1X1.9810Y4.8087
G1X5.5677
G1X5.5877Y4.8287
G1X1.9612
G1X1.9415Y4.8487
G1X5.6077
G1X5.6276Y4.8687
G1X1.9217
G1X1.9019Y4.8887
G1X5.6476
G1X5.6649Y4.9060
G1X5.6673Y4.9087
G1X1.8822
G1X1.8645Y4.9287
G1X5.6849
G1X5.6871Y4.9312
G1X5.7019Y4.9487
G1X1.8469
G1X1.8296Y4.9687
G1X5.7188
G1X5.7343Y4.9869
G1X5.7358Y4.9887
G1X1.8124
G1X1.8045Y4.9979
G1X1.7954Y5.0087
G1X5.7525
G1X5.7621Y5.0201
G1X5.7689Y5.0287
G1X1.7789
G1X1.7636Y5.0480
G1X1.7630Y5.0487
G1X5.7849
G1X5.7991Y5.0662
G1X5.8017Y5.0687
G1X1.7458
G1X1.7400Y5.0749
G1X1.7370Y5.0779
G1X1.7357Y5.0802
G1X1.7343Y5.0835
G1X1.7317Y5.0887
G1X5.8163
G1X5.8210Y5.0972
G1X5.8292Y5.1087
G1X1.7197
G1X1.7052Y5.1287
G1X5.8452
G1X5.8538Y5.1411
G1X5.8595Y5.1487
G1X1.6908
G1X1.6771Y5.1677
G1X1.6761Y5.1687
G1X5.8754
G1X5.8756Y5.1691
G1X5.8834Y5.1824
G1X5.8882Y5.1887
G1X1.6614
G1X1.6568Y5.1961
G1X1.6477Y5.2073
G1X1.6469Y5.2084
G1X1.6467Y5.2087
G1X5.9014
G1X5.9067Y5.2189
G1X5.9127Y5.2278
G1X5.9133Y5.2287
G1X1.6353
G1X1.6300Y5.2362
G1X1.6269Y5.2402
G1X1.6255Y5.2423
G1X1.6216Y5.2487
G1X5.9273
G1X5.9399Y5.2687
G1X1.6096
G1X1.5975Y5.2887
G1X5.9518
G1X5.9612Y5.3048
G1X5.9642Y5.3087
G1X1.5855
G1X1.5736Y5.3287
G1X5.9772
G1X5.9806Y5.3375
G1X5.9869Y5.3487
G1X1.5618
G1X1.5558Y5.3586
G1X1.5502Y5.3687
G1X5.9980
G1X6.0071Y5.3849
G1X6.0091Y5.3887
G1X1.5388
G1X1.5300Y5.4043
G1X1.5277Y5.4087
G1X6.0197
G1X6.0304Y5.4287
G1X1.5171
G1X1.5066Y5.4487
G1X6.0408
G1X6.0509Y5.4687
G1X1.4966
G1X1.4866Y5.4887
G1X6.0610
G1X6.0690Y5.5047
G1X6.0710Y5.5087
G1X1.4767
G1X1.4670Y5.5287
G1X6.0808
G1X6.0906Y5.5487
G1X1.4572
G1X1.4474Y5.5687
G1X6.1004Y5.5687
G1X6.1031Y5.5743
G1X6.1098Y5.5887
G1X1.4387
G1X1.4299Y5.6087
G1X6.1191
G1X6.1278Y5.6287
G1X1.4212
G1X1.4194Y5.6327
G1X1.4128Y5.6487
G1X6.1363
G1X6.1442Y5.6687
G1X1.4051
G1X1.3988Y5.6856
G1X1.3977Y5.6887
G1X6.1520
G1X6.1575Y5.7032
G1X6.1597Y5.7087
G1X1.3905
G1X1.3899Y5.7102
G1X1.3824Y5.7287
G1X6.1680
G1X6.1740Y5.7423
G1X6.1761Y5.7487
G1X1.3735
G1X1.3669Y5.7687
G1X6.1828
G1X6.1895Y5.7887
G1X1.3602
G1X1.3535Y5.8087
G1X6.1962
G1X6.2028Y5.8287
G1X1.3468
G1X1.3401Y5.8487
G1X6.2095
G1X6.2162Y5.8687
G1X1.3334
G1X1.3332Y5.8694
G1X1.3283Y5.8875
G1X1.3280Y5.8887
G1X6.2223
G1X6.2277Y5.9087
G1X1.3224
G1X1.3182Y5.9237
G1X1.3168Y5.9287
G1X6.2328
G1X6.2379Y5.9487
G1X1.3113
G1X1.3058Y5.9687
G1X6.2430
G1X6.2480Y5.9887
G1X1.3007
G1X1.2956Y6.0087
G1X6.2531
G1X6.2582Y6.0287
G1X1.2907
G1X1.2859Y6.0487
G1X6.2632
G1X6.2672Y6.0643
G1X6.2681Y6.0687
G1X1.2812
G1X1.2768Y6.0887
G1X6.2723
G1X6.2741Y6.0978
G1X6.2764Y6.1087
G1X1.2724
G1X1.2717Y6.1120
G1X1.2683Y6.1287
G1X6.2807
G1X6.2849Y6.1487
G1X1.2643
G1X1.2621Y6.1592
G1X1.2604Y6.1687
G1X6.2888
G1X6.2907Y6.1786
G1X6.2924Y6.1887
G1X1.2567
G1X1.2537Y6.2050
G1X1.2531Y6.2087
G1X6.2957
G1X6.2962Y6.2114
G1X6.2986Y6.2287
G1X1.2498
G1X1.2465Y6.2487
G1X6.3014
G1X6.3042Y6.2687
G1X1.2437
G1X1.2409Y6.2887
G1X6.3070
G1X6.3076Y6.2927
G1X6.3097Y6.3087
G1X1.2383
G1X1.2358Y6.3287
G1X6.3123
G1X6.3149Y6.3487
G1X1.2332
G1X1.2306Y6.3687
G1X6.3175
G1X6.3199Y6.3873
G1X6.3201Y6.3887
G1X1.2282
G1X1.2267Y6.4038
G1X1.2263Y6.4087
G1X6.3228
G1X6.3254Y6.4287
G1X1.2249
G1X1.2248Y6.4308
G1X1.2240Y6.4487
G1X6.3266
G1X6.3266Y6.4687
G1X1.2234
G1X1.2231Y6.4862
G1X1.2231Y6.4887
G1X6.3266
G1X6.3267Y6.5087
G1X1.2223
G1X1.2223Y6.5092
G1X1.2196Y6.5238
G1X1.2182Y6.5287
G1X6.3267
G1X6.3267Y6.5487
G1X1.2121
G1X1.2120Y6.5505
G1Y6.5687
G1X6.3267
G1X6.3267Y6.5887
G1X1.2120
G1Y6.6087
G1X6.3267
G1X6.3268Y6.6287
G1X1.2120
G1Y6.6487
G1X6.3268
G1X6.3268Y6.6687
G1X1.2120
G1Y6.6887
G1X6.3268
G1X6.3268Y6.7087
G1X1.2128
G1X1.2154Y6.7157
G1X1.2193Y6.7287
G1X6.3268
G1X6.3269Y6.7487
G1X1.2225
G1X1.2231Y6.7591
G1Y6.7644
G1X1.2232Y6.7687
G1X6.3269
G1X6.3269Y6.7887
G1X1.2236
G1X1.2236Y6.7902
G1X1.2244Y6.8087
G1X6.3264
G1X6.3240Y6.8287
G1X1.2255
G1X1.2267Y6.8458
G1X1.2270Y6.8487
G1X6.3215
G1X6.3200Y6.8607
G1X6.3190Y6.8687
G1X1.2289
G1X1.2290Y6.8688
G1X1.2315Y6.8887
G1X6.3165
G1X6.3139Y6.9087
G1X1.2340
G1X1.2365Y6.9287
G1X6.3114
G1X6.3088Y6.9487
G1X1.2390
G1X1.2401Y6.9573
G1X1.2417Y6.9687
G1X6.3062
G1X6.3033Y6.9887
G1X1.2445
G1X1.2473Y7.0087
G1X6.3004
G1X6.2976Y7.0287
G1X1.2501
G1X1.2534Y7.0487
G1X6.2944
G1X6.2911Y7.0687
G1X1.2567
G1X1.2575Y7.0736
G1X1.2606Y7.0887
G1X6.2877
G1X6.2859Y7.0992
G1X6.2840Y7.1087
G1X1.2648
G1X1.2693Y7.1287
G1X6.2799
G1X6.2759Y7.1487
G1X1.2738
G1X1.2783Y7.1687
G1X6.2716
G1X6.2696Y7.1782
G1X6.2670Y7.1887
G1X1.2829
G1X1.2874Y7.2087
G1X6.2622
G1X6.2573Y7.2287
G1X1.2921
G1X1.2971Y7.2487
G1X6.2525
G1X6.2477Y7.2687
G1X1.3022
G1X1.3074Y7.2887
G1X6.2429
G1X6.2380Y7.3087
G1X1.3125
G1X1.3143Y7.3157
G1X1.3181Y7.3287
G1X6.2327
G1X6.2263Y7.3487
G1X1.3238
G1X1.3300Y7.3687
G1X6.2199
G1X6.2135Y7.3887
G1X1.3361
G1X1.3399Y7.4009
G1X1.3423Y7.4087
G1X6.2072
G1X6.2061Y7.4121
G1X6.2005Y7.4287
G1X1.3487
G1X1.3497Y7.4317
G1X1.3559Y7.4487
G1X6.1938
G1X6.1871Y7.4687
G1X1.3635
G1X1.3699Y7.4872
G1X1.3704Y7.4887
G1X6.1801
G1X6.1728Y7.5087
G1X1.3774
G1X1.3805Y7.5177
G1X1.3846Y7.5287
G1X6.1655
G1X6.1628Y7.5360
G1X6.1576Y7.5487
G1X1.3920
G1X1.3947Y7.5559
G1X1.3997Y7.5687
G1X6.1496
G1X6.1419Y7.5887
G1X1.4076
G1X1.4104Y7.5959
G1X1.4157Y7.6087
G1X6.1338
G1X6.1275Y7.6237
G1X6.1252Y7.6287
G1X1.4239
G1X1.4253Y7.6320
G1X1.4327Y7.6487
G1X6.1161
G1X6.1091Y7.6641
G1X6.1069Y7.6687
G1X1.4415
G1X1.4504Y7.6887
G1X6.0974
G1X6.0878Y7.7087
G1X1.4598
G1X1.4692Y7.7287
G1X6.0783
G1X6.0687Y7.7487
G1X1.4786
G1X1.4885Y7.7687
G1X6.0590
G1X6.0490Y7.7887
G1X1.4984
G1X1.5051Y7.8021
G1X1.5086Y7.8087
G1X6.0389
G1X6.0289Y7.8287
G1X1.5194
G1X1.5274Y7.8437
G1X1.5303Y7.8487
G1X6.0188
G1X6.0160Y7.8544
G1X6.0083Y7.8687
G1X1.5420
G1X1.5538Y7.8887
G1X5.9974
G1X5.9940Y7.8946
G1X5.9905Y7.8993
G1X5.9846Y7.9075
G1X5.9839Y7.9087
G1X1.5658
G1X1.5779Y7.9287
G1X5.9724
G1X5.9691Y7.9349
G1X5.9645Y7.9453
G1X5.9640Y7.9464
G1X5.9629Y7.9487
G1X1.5901
G1X1.5906Y7.9496
G1X1.6026Y7.9687
G1X5.9501
G1X5.9367Y7.9887
G1X1.6151
G1X1.6243Y8.0033
G1X1.6278Y8.0087
G1X5.9234
G1X5.9100Y8.0287
G1X1.6407
G1X1.6536Y8.0487
G1X5.8967
G1X5.8833Y8.0687
G1X1.6669
G1X1.6802Y8.0887
G1X5.8700
G1X5.8566Y8.1087
G1X1.6938
G1X1.7077Y8.1287
G1X5.8402
G1X5.8378Y8.1312
G1X5.8254Y8.1487
G1X1.7217
G1X1.7364Y8.1687
G1X5.8110
G1X5.7963Y8.1887
G1X1.7516
G1X1.7652Y8.2056
G1X1.7677Y8.2087
G1X5.7804
G1X5.7678Y8.2237
G1X5.7638Y8.2287
G1X1.7840
G1X1.7968Y8.2445
G1X1.8003Y8.2487
G1X5.7479
G1X5.7351Y8.2648
G1X5.7316Y8.2687
G1X1.8169
G1X1.8206Y8.2731
G1X1.8345Y8.2887
G1X5.7137
G1X5.7084Y8.2946
G1X5.6962Y8.3087
G1X1.8523
G1X1.8533Y8.3099
G1X1.8707Y8.3287
G1X5.6790
G1X5.6621Y8.3487
G1X1.8892
G1X1.8921Y8.3519
G1X1.9081Y8.3687
G1X5.6436
G1X5.6236Y8.3887
G1X1.9271
G1X1.9343Y8.3962
G1X1.9464Y8.4087
G1X5.6036
G1X5.5837Y8.4287
G1X1.9659
G1X1.9770Y8.4401
G1X1.9856Y8.4487
G1X5.5637
G1X5.5437Y8.4687
G1X2.0056
G1X2.0175Y8.4806
G1X2.0260Y8.4887
G1X5.5237
G1X5.5037Y8.5087
G1X2.0468
G1X2.0531Y8.5148
G1X2.0686Y8.5287
G1X5.4801
G1X5.4670Y8.5397
G1X5.4566Y8.5487
G1X2.0913
G1X2.1148Y8.5687
G1X5.4336
G1X5.4225Y8.5788
G1X5.4112Y8.5887
G1X2.1387
G1X2.1418Y8.5912
G1X2.1641Y8.6087
G1X5.3859
G1X5.3768Y8.6158
G1X5.3614Y8.6287
G1X2.1893
G1X2.1973Y8.6351
G1X2.2133Y8.6487
G1X5.3359
G1X5.3111Y8.6669
G1X5.3085Y8.6687
G1X2.2424
G1X2.2426Y8.6688
G1X2.2543Y8.6784
G1X2.2683Y8.6887
G1X5.2803
G1X5.2799Y8.6890
G1X5.2692Y8.6990
G1X5.2668Y8.7009
G1X5.2554Y8.7087
G1X2.2937
G1X2.2953Y8.7102
G1X2.2977Y8.7120
G1X2.3217Y8.7287
G1X5.2264
G1X5.1974Y8.7487
G1X2.3506
G1X2.3794Y8.7687
G1X5.1684
G1X5.1489Y8.7821
G1X5.1376Y8.7887
G1X2.4089
G1X2.4110Y8.7901
G1X2.4157Y8.7937
G1X2.4181Y8.7954
G1X2.4245Y8.7978
G1X2.4344Y8.8022
G1X2.4439Y8.8074
G1X2.4460Y8.8087
G1X5.1042
G1X5.0911Y8.8165
G1X5.0702Y8.8287
G1X2.4794
G1X2.5134Y8.8487
G1X5.0360
G1X5.0270Y8.8540
G1X5.0020Y8.8683
G1X5.0012Y8.8687
G1X2.5491
G1X2.5881Y8.8887
G1X4.9607
G1X4.9203Y8.9087
G1X2.6271
G1X2.6661Y8.9287
G1X4.8798
G1X4.8393Y8.9487
G1X2.7106
G1X2.7281Y8.9562
G1X2.7552Y8.9687
G1X4.7929
G1X4.7681Y8.9797
G1X4.7473Y8.9887
G1X2.8058
G1X2.8230Y8.9957
G1X2.8545Y9.0087
G1X4.6946
G1X4.6807Y9.0144
G1X4.6435Y9.0287
G1X2.9050
G1X2.9441Y9.0439
G1X2.9574Y9.0487
G1X4.5901
G1X4.5780Y9.0529
G1X4.5438Y9.0637
G1X4.5264Y9.0687
G1X3.0242
G1X3.0610Y9.0795
G1X3.0937Y9.0887
G1X4.4567
G1X4.3806Y9.1087
G1X3.1702
G1X3.2175Y9.1200
G1X3.2583Y9.1287
G1X4.2911
G1X4.2529Y9.1362
G1X4.1989Y9.1458
G1X4.1802Y9.1487
G1X3.3661
G1X3.4272Y9.1579
G1X3.4648Y9.1634
G1X3.5248Y9.1687
G1X4.0230
G1X3.8330Y9.1857
G1X3.7149
G0Z0.5000
G0X5.9940Y7.8946
G1Z-0.1200F12.0
G1X5.9905Y7.8993F60.0
G1X5.9846Y7.9075
G1X5.9766Y7.9208
G1X5.9691Y7.9349
G1X5.9645Y7.9453
G1X5.9640Y7.9464
G1X5.9628Y7.9490
G1X5.9616Y7.9511
G1X5.9562Y7.9587
G1X5.9502Y7.9685
G1X5.8516Y8.1162
G1X5.8494Y8.1192
G1X5.8378Y8.1312
G1X5.8166Y8.1611
G1X5.7954Y8.1899
G1X5.7807Y8.2084
G1X5.7678Y8.2237
G1X5.7512Y8.2446
G1X5.7351Y8.2648
G1X5.7234Y8.2780
G1X5.7084Y8.2946
G1X5.6842Y8.3226
G1X5.6536Y8.3587
G1X5.5032Y8.5092
G1X5.4670Y8.5397
G1X5.4390Y8.5638
G1X5.4225Y8.5788
G1X5.4108Y8.5890
G1X5.3946Y8.6019
G1X5.3768Y8.6158
G1X5.3612Y8.6289
G1X5.3407Y8.6451
G1X5.3111Y8.6669
G1X5.2799Y8.6890
G1X5.2692Y8.6990
G1X5.2668Y8.7009
G1X5.1489Y8.7821
G1X5.1347Y8.7904
G1X5.1286Y8.7942
G1X5.0911Y8.8165
G1X5.0270Y8.8540
G1X5.0020Y8.8683
G1X4.8132Y8.9616
G1X4.8102Y8.9629
G1X4.7968Y8.9670
G1X4.7681Y8.9797
G1X4.7407Y8.9915
G1X4.7311Y8.9951
G1X4.7263Y8.9964
G1X4.7053Y9.0040
G1X4.6994Y9.0067
G1X4.6807Y9.0144
G1X4.6038Y9.0439
G1X4.5780Y9.0529
G1X4.5438Y9.0637
G1X4.4610Y9.0876
G1X4.3757Y9.1100
G1X4.3386Y9.1189
G1X4.3086Y9.1253
G1X4.2529Y9.1362
G1X4.1989Y9.1458
G1X4.1206Y9.1579
G1X4.0830Y9.1634
G1X3.8324Y9.1857
G1X3.7154
G1X3.4648Y9.1634
G1X3.4272Y9.1579
G1X3.3450Y9.1455
G1X3.3089Y9.1392
G1X3.2643Y9.1300
G1X3.2175Y9.1200
G1X3.1647Y9.1074
G1X3.1108Y9.0935
G1X3.0610Y9.0795
G1X3.0026Y9.0624
G1X2.9859Y9.0580
G1X2.9667Y9.0520
G1X2.9441Y9.0439
G1X2.8670Y9.0139
G1X2.8230Y8.9957
G1X2.8050Y8.9884
G1X2.7948Y8.9853
G1X2.7904Y8.9841
G1X2.7818Y8.9807
G1X2.7571Y8.9696
G1X2.7281Y8.9562
G1X2.7046Y8.9462
G1X2.6851Y8.9384
G1X2.5459Y8.8671
G1X2.5232Y8.8545
G1X2.4628Y8.8189
G1X2.4439Y8.8074
G1X2.4245Y8.7978
G1X2.4181Y8.7954
G1X2.4157Y8.7937
G1X2.4110Y8.7901
G1X2.4009Y8.7836
G1X2.2977Y8.7120
G1X2.2953Y8.7102
G1X2.2854Y8.7010
G1X2.2702Y8.6901
G1X2.2543Y8.6784
G1X2.2426Y8.6688
G1X2.2274Y8.6599
G1X2.2254Y8.6586
G1X2.2144Y8.6497
G1X2.1973Y8.6351
G1X2.1755Y8.6177
G1X2.1418Y8.5912
G1X2.1234Y8.5760
G1X2.0809Y8.5398
G1X2.0531Y8.5148
G1X2.0175Y8.4806
G1X1.9770Y8.4401
G1X1.9343Y8.3962
G1X1.8921Y8.3519
G1X1.8533Y8.3099
G1X1.8206Y8.2731
G1X1.7968Y8.2445
G1X1.7652Y8.2056
G1X1.7447Y8.1801
G1X1.7191Y8.1452
G1X1.6898Y8.1029
G1X1.6577Y8.0550
G1X1.6243Y8.0033
G1X1.5906Y7.9496
G1X1.5579Y7.8958
G1X1.5274Y7.8437
G1X1.5051Y7.8021
G1X1.4785Y7.7486
G1X1.4509Y7.6898
G1X1.4253Y7.6320
G1X1.4104Y7.5959
G1X1.3947Y7.5559
G1X1.3805Y7.5177
G1X1.3699Y7.4872
G1X1.3627Y7.4663
G1X1.3567Y7.4510
G1X1.3497Y7.4317
G1X1.3399Y7.4009
G1X1.3236Y7.3480
G1X1.3143Y7.3157
G1X1.3011Y7.2645
G1X1.2902Y7.2213
G1X1.2786Y7.1698
G1X1.2648Y7.1085
G1X1.2575Y7.0736
G1X1.2494Y7.0244
G1X1.2401Y6.9573
G1X1.2290Y6.8688
G1X1.2267Y6.8458
G1X1.2249Y6.8185
G1X1.2236Y6.7902
G1X1.2231Y6.7644
G1Y6.7591
G1X1.2223Y6.7444
G1X1.2197Y6.7299
G1X1.2154Y6.7157
G1X1.2123Y6.7075
G1X1.2120Y6.7031
G1Y6.5505
G1X1.2123Y6.5461
G1X1.2154Y6.5379
G1X1.2196Y6.5238
G1X1.2223Y6.5092
G1X1.2231Y6.4945
G1X1.2231Y6.4862
G1X1.2236Y6.4594
G1X1.2248Y6.4308
G1X1.2267Y6.4038
G1X1.2289Y6.3818
G1X1.2408Y6.2899
G1X1.2465Y6.2488
G1X1.2537Y6.2050
G1X1.2621Y6.1592
G1X1.2717Y6.1120
G1X1.2822Y6.0642
G1X1.2936Y6.0164
G1X1.3056Y5.9694
G1X1.3182Y5.9237
G1X1.3283Y5.8875
G1X1.3332Y5.8694
G1X1.3741Y5.7469
G1X1.3818Y5.7302
G1X1.3899Y5.7102
G1X1.3988Y5.6856
G1X1.4088Y5.6586
G1X1.4194Y5.6327
G1X1.4390Y5.5882
G1X1.4474Y5.5687
G1X1.4801Y5.5019
G1X1.5063Y5.4491
G1X1.5300Y5.4043
G1X1.5558Y5.3586
G1X1.5887Y5.3033
G1X1.6255Y5.2423
G1X1.6269Y5.2402
G1X1.6300Y5.2362
G1X1.6420Y5.2177
G1X1.6469Y5.2084
G1X1.6477Y5.2073
G1X1.6568Y5.1961
G1X1.6667Y5.1801
G1X1.6705Y5.1747
G1X1.6771Y5.1677
G1X1.7210Y5.1069
G1X1.7343Y5.0835
G1X1.7357Y5.0802
G1X1.7370Y5.0779
G1X1.7400Y5.0749
G1X1.7523Y5.0618
G1X1.7636Y5.0480
G1X1.7857Y5.0201
G1X1.8045Y4.9979
G1X1.8518Y4.9430
G1X1.8831Y4.9077
G1X2.0558Y4.7332
G1X2.0892Y4.7044
G1X2.1210Y4.6778
G1X2.1504Y4.6543
G1X2.1723Y4.6373
G1X2.1857Y4.6261
G1X2.1970Y4.6166
G1X2.2136Y4.6038
G1X2.2368Y4.5855
G1X2.2445Y4.5794
G1X2.2591Y4.5690
G1X2.2747Y4.5578
G1X2.2849Y4.5497
G1X2.2913Y4.5440
G1X2.3517Y4.5030
G1X2.3990Y4.4719
G1X2.4470Y4.4421
G1X2.4946Y4.4143
G1X2.5403Y4.3892
G1X2.5671Y4.3746
G1X2.5794Y4.3657
G1X2.5826Y4.3639
G1X2.7018Y4.3060
G1X2.7130Y4.3017
G1X2.7619Y4.2801
G1X2.7899Y4.2678
G1X2.8041Y4.2628
G1X2.8138Y4.2595
G1X2.8314Y4.2516
G1X2.8493Y4.2438
G1X2.8560Y4.2414
G1X2.8643Y4.2395
G1X2.8741Y4.2362
G1X2.9006Y4.2260
G1X2.9382Y4.2106
G1X2.9648Y4.2005
G1X2.9882Y4.1928
G1X3.0165Y4.1847
G1X3.0945Y4.1621
G1X3.1084Y4.1578
G1X3.1780Y4.1411
G1X3.2321Y4.1287
G1X3.2860Y4.1176
G1X3.3400Y4.1077
G1X3.3946Y4.0989
G1X3.4501Y4.0912
G1X3.5070Y4.0846
G1X3.5656Y4.0789
G1X3.6263Y4.0742
G1X3.6929Y4.0706
G1X3.7592Y4.0687
G1X3.8003Y4.0687
G1X3.8429Y4.0696
G1X3.8867Y4.0715
G1X3.9314Y4.0743
G1X3.9770Y4.0779
G1X4.0232Y4.0824
G1X4.0698Y4.0878
G1X4.1166Y4.0939
G1X4.1635Y4.1008
G1X4.2102Y4.1084
G1X4.2565Y4.1168
G1X4.3023Y4.1258
G1X4.3472Y4.1355
G1X4.3913Y4.1458
G1X4.4342Y4.1568
G1X4.4757Y4.1683
G1X4.5628Y4.1940
G1X4.5876Y4.2018
G1X4.6010Y4.2066
G1X4.6278Y4.2176
G1X4.6435Y4.2239
G1X4.6974Y4.2440
G1X4.7445Y4.2623
G1X4.7820Y4.2780
G1X4.8321Y4.3002
G1X4.8516Y4.3086
G1X4.9129Y4.3387
G1X4.9503Y4.3575
G1X4.9886Y4.3777
G1X5.0271Y4.3987
G1X5.0649Y4.4201
G1X5.1010Y4.4413
G1X5.1347Y4.4619
G1X5.1651Y4.4815
G1X5.1913Y4.4993
G1X5.2526Y4.5416
G1X5.2731Y4.5557
G1X5.2832Y4.5635
G1X5.2909Y4.5698
G1X5.3055Y4.5802
G1X5.3201Y4.5906
G1X5.3278Y4.5968
G1X5.3371Y4.6047
G1X5.3556Y4.6192
G1X5.3835Y4.6415
G1X5.4030Y4.6575
G1X5.4254Y4.6757
G1X5.4559Y4.7017
G1X5.4921Y4.7331
G1X5.6649Y4.9060
G1X5.6871Y4.9312
G1X5.7343Y4.9869
G1X5.7621Y5.0201
G1X5.7843Y5.0480
G1X5.7991Y5.0662
G1X5.8095Y5.0763
G1X5.8103Y5.0774
G1X5.8109Y5.0782
G1X5.8139Y5.0845
G1X5.8294Y5.1090
G1X5.8296Y5.1091
G1X5.8442Y5.1273
G1X5.8538Y5.1411
G1X5.8667Y5.1569
G1X5.8704Y5.1608
G1X5.8719Y5.1625
G1X5.8731Y5.1643
G1X5.8744Y5.1666
G1X5.8756Y5.1691
G1X5.8927Y5.1946
G1X5.8947Y5.1970
G1X5.8963Y5.1996
G1X5.9005Y5.2069
G1X5.9067Y5.2189
G1X5.9127Y5.2278
G1X5.9253Y5.2456
G1X5.9420Y5.2720
G1X5.9612Y5.3048
G1X5.9737Y5.3207
G1X5.9741Y5.3213
G1X5.9751Y5.3233
G1X5.9806Y5.3375
G1X6.0071Y5.3849
G1X6.0368Y5.4408
G1X6.0690Y5.5047
G1X6.1031Y5.5743
G1X6.1186Y5.6077
G1X6.1332Y5.6411
G1X6.1465Y5.6745
G1X6.1575Y5.7032
G1X6.1664Y5.7251
G1X6.1740Y5.7423
G1X6.2201Y5.8806
G1X6.2291Y5.9140
G1X6.2672Y6.0643
G1X6.2741Y6.0978
G1X6.2859Y6.1534
G1X6.2907Y6.1786
G1X6.2962Y6.2114
G1X6.3076Y6.2927
G1X6.3199Y6.3873
G1X6.3266Y6.4375
G1X6.3269Y6.8050
G1X6.3200Y6.8607
G1X6.3072Y6.9616
G1X6.2963Y7.0378
G1X6.2859Y7.0992
G1X6.2744Y7.1559
G1X6.2696Y7.1782
G1X6.2346Y7.3229
G1X6.2247Y7.3536
G1X6.2061Y7.4121
G1X6.1837Y7.4787
G1X6.1628Y7.5360
G1X6.1504Y7.5665
G1X6.1392Y7.5958
G1X6.1275Y7.6237
G1X6.1091Y7.6641
G1X6.0618Y7.7632
G1X6.0160Y7.8544
G1X5.9995Y7.8851
G1X5.9940Y7.8946
G0Z0.5000
G0X3.8026Y4.0687
G1Z-0.1600F12.0
G1X3.7581F60.0
G1X3.6929Y4.0706
G1X3.6263Y4.0742
G1X3.5656Y4.0789
G1X3.5070Y4.0846
G1X3.4717Y4.0887
G1X4.0771
G1X4.1166Y4.0939
G1X4.1635Y4.1008
G1X4.2102Y4.1084
G1X4.2118Y4.1087
G1X3.3343
G1X3.2860Y4.1176
G1X3.2321Y4.1287
G1X3.2320Y4.1287
G1X4.3157
G1X4.3472Y4.1355
G1X4.3913Y4.1458
G1X4.4025Y4.1487
G1X3.1461
G1X3.1084Y4.1578
G1X3.0945Y4.1621
G1X3.0718Y4.1687
G1X4.4771
G1X4.5449Y4.1887
G1X3.0025
G1X2.9882Y4.1928
G1X2.9648Y4.2005
G1X2.9432Y4.2087
G1X4.6062
G1X4.6278Y4.2176
G1X4.6435Y4.2239
G1X4.6564Y4.2287
G1X2.8935
G1X2.8741Y4.2362
G1X2.8643Y4.2395
G1X2.8560Y4.2414
G1X2.8493Y4.2438
G1X2.8380Y4.2487
G1X4.7094
G1X4.7445Y4.2623
G1X4.7597Y4.2687
G1X2.7880
G1X2.7619Y4.2801
G1X2.7424Y4.2887
G1X4.8061
G1X4.8321Y4.3002
G1X4.8516Y4.3086
G1X4.8517Y4.3087
G1X2.6962
G1X2.6551Y4.3287
G1X4.8925
G1X4.9129Y4.3387
G1X4.9327Y4.3487
G1X2.6139
G1X2.5826Y4.3639
G1X2.5794Y4.3657
G1X2.5752Y4.3687
G1X4.9716
G1X4.9886Y4.3777
G1X5.0088Y4.3887
G1X2.5413
G1X2.5403Y4.3892
G1X2.5047Y4.4087
G1X5.0448
G1X5.0649Y4.4201
G1X5.0795Y4.4287
G1X2.4699
G1X2.4470Y4.4421
G1X2.4364Y4.4487
G1X5.1131
G1X5.1347Y4.4619
G1X5.1452Y4.4687
G1X2.4042
G1X2.3990Y4.4719
G1X2.3735Y4.4887
G1X5.1757
G1X5.1913Y4.4993
G1X5.2049Y4.5087
G1X2.3434
G1X2.3139Y4.5287
G1X5.2339
G1X5.2526Y4.5416
G1X5.2630Y4.5487
G1X2.2861
G1X2.2849Y4.5497
G1X2.2747Y4.5578
G1X2.2594Y4.5687
G1X5.2896
G1X5.2909Y4.5698
G1X5.3055Y4.5802
G1X5.3175Y4.5887
G1X2.2327
G1X2.2136Y4.6038
G1X2.2072Y4.6087
G1X5.3423
G1X5.3556Y4.6192
G1X5.3675Y4.6287
G1X2.1826
G1X2.1723Y4.6373
G1X2.1576Y4.6487
G1X5.3923
G1X5.4030Y4.6575
G1X5.4168Y4.6687
G1X2.1324
G1X2.1210Y4.6778
G1X2.1079Y4.6887
G1X5.4406
G1X5.4559Y4.7017
G1X5.4640Y4.7087
G1X2.0842
G1X2.0610Y4.7287
G1X5.4870
G1X5.4921Y4.7331
G1X5.5077Y4.7487
G1X2.0404
G1X2.0206Y4.7687
G1X5.5277
G1X5.5477Y4.7887
G1X2.0008
G1X1.9810Y4.8087
G1X5.5677
G1X5.5877Y4.8287
G1X1.9612
G1X1.9415Y4.8487
G1X5.6077
G1X5.6276Y4.8687
G1X1.9217
G1X1.9019Y4.8887
G1X5.6476
G1X5.6649Y4.9060
G1X5.6673Y4.9087
G1X1.8822
G1X1.8645Y4.9287
G1X5.6849
G1X5.6871Y4.9312
G1X5.7019Y4.9487
G1X1.8469
G1X1.8296Y4.9687
G1X5.7188
G1X5.7343Y4.9869
G1X5.7358Y4.9887
G1X1.8124
G1X1.8045Y4.9979
G1X1.7954Y5.0087
G1X5.7525
G1X5.7621Y5.0201
G1X5.7689Y5.0287
G1X1.7789
G1X1.7636Y5.0480
G1X1.7630Y5.0487
G1X5.7849
G1X5.7991Y5.0662
G1X5.8017Y5.0687
G1X1.7458
G1X1.7400Y5.0749
G1X1.7370Y5.0779
G1X1.7357Y5.0802
G1X1.7343Y5.0835
G1X1.7317Y5.0887
G1X5.8163
G1X5.8210Y5.0972
G1X5.8292Y5.1087
G1X1.7197
G1X1.7052Y5.1287
G1X5.8452
G1X5.8538Y5.1411
G1X5.8595Y5.1487
G1X1.6908
G1X1.6771Y5.1677
G1X1.6761Y5.1687
G1X5.8754
G1X5.8756Y5.1691
G1X5.8834Y5.1824
G1X5.8882Y5.1887
G1X1.6614
G1X1.6568Y5.1961
G1X1.6477Y5.2073
G1X1.6469Y5.2084
G1X1.6467Y5.2087
G1X5.9014
G1X5.9067Y5.2189
G1X5.9127Y5.2278
G1X5.9133Y5.2287
G1X1.6353
G1X1.6300Y5.2362
G1X1.6269Y5.2402
G1X1.6255Y5.2423
G1X1.6216Y5.2487
G1X5.9273
G1X5.9399Y5.2687
G1X1.6096
G1X1.5975Y5.2887
G1X5.9518
G1X5.9612Y5.3048
G1X5.9642Y5.3087
G1X1.5855
G1X1.5736Y5.3287
G1X5.9772
G1X5.9806Y5.3375
G1X5.9869Y5.3487
G1X1.5618
G1X1.5558Y5.3586
G1X1.5502Y5.3687
G1X5.9980
G1X6.0071Y5.3849
G1X6.0091Y5.3887
G1X1.5388
G1X1.5300Y5.4043
G1X1.5277Y5.4087
G1X6.0197
G1X6.0304Y5.4287
G1X1.5171
G1X1.5066Y5.4487
G1X6.0408
G1X6.0509Y5.4687
G1X1.4966
G1X1.4866Y5.4887
G1X6.0610
G1X6.0690Y5.5047
G1X6.0710Y5.5087
G1X1.4767
G1X1.4670Y5.5287
G1X6.0808
G1X6.0906Y5.5487
G1X1.4572
G1X1.4474Y5.5687
G1X6.1004Y5.5687
G1X6.1031Y5.5743
G1X6.1098Y5.5887
G1X1.4387
G1X1.4299Y5.6087
G1X6.1191
G1X6.1278Y5.6287
G1X1.4212
G1X1.4194Y5.6327
G1X1.4128Y5.6487
G1X6.1363
G1X6.1442Y5.6687
G1X1.4051
G1X1.3988Y5.6856
G1X1.3977Y5.6887
G1X6.1520
G1X6.1575Y5.7032
G1X6.1597Y5.7087
G1X1.3905
G1X1.3899Y5.7102
G1X1.3824Y5.7287
G1X6.1680
G1X6.1740Y5.7423
G1X6.1761Y5.7487
G1X1.3735
G1X1.3669Y5.7687
G1X6.1828
G1X6.1895Y5.7887
G1X1.3602
G1X1.3535Y5.8087
G1X6.1962
G1X6.2028Y5.8287
G1X1.3468
G1X1.3401Y5.8487
G1X6.2095
G1X6.2162Y5.8687
G1X1.3334
G1X1.3332Y5.8694
G1X1.3283Y5.8875
G1X1.3280Y5.8887
G1X6.2223
G1X6.2277Y5.9087
G1X1.3224
G1X1.3182Y5.9237
G1X1.3168Y5.9287
G1X6.2328
G1X6.2379Y5.9487
G1X1.3113
G1X1.3058Y5.9687
G1X6.2430
G1X6.2480Y5.9887
G1X1.3007
G1X1.2956Y6.0087
G1X6.2531
G1X6.2582Y6.0287
G1X1.2907
G1X1.2859Y6.0487
G1X6.2632
G1X6.2672Y6.0643
G1X6.2681Y6.0687
G1X1.2812
G1X1.2768Y6.0887
G1X6.2723
G1X6.2741Y6.0978
G1X6.2764Y6.1087
G1X1.2724
G1X1.2717Y6.1120
G1X1.2683Y6.1287
G1X6.2807
G1X6.2849Y6.1487
G1X1.2643
G1X1.2621Y6.1592
G1X1.2604Y6.1687
G1X6.2888
G1X6.2907Y6.1786
G1X6.2924Y6.1887
G1X1.2567
G1X1.2537Y6.2050
G1X1.2531Y6.2087
G1X6.2957
G1X6.2962Y6.2114
G1X6.2986Y6.2287
G1X1.2498
G1X1.2465Y6.2487
G1X6.3014
G1X6.3042Y6.2687
G1X1.2437
G1X1.2409Y6.2887
G1X6.3070
G1X6.3076Y6.2927
G1X6.3097Y6.3087
G1X1.2383
G1X1.2358Y6.3287
G1X6.3123
G1X6.3149Y6.3487
G1X1.2332
G1X1.2306Y6.3687
G1X6.3175
G1X6.3199Y6.3873
G1X6.3201Y6.3887
G1X1.2282
G1X1.2267Y6.4038
G1X1.2263Y6.4087
G1X6.3228
G1X6.3254Y6.4287
G1X1.2249
G1X1.2248Y6.4308
G1X1.2240Y6.4487
G1X6.3266
G1X6.3266Y6.4687
G1X1.2234
G1X1.2231Y6.4862
G1X1.2231Y6.4887
G1X6.3266
G1X6.3267Y6.5087
G1X1.2223
G1X1.2223Y6.5092
G1X1.2196Y6.5238
G1X1.2182Y6.5287
G1X6.3267
G1X6.3267Y6.5487
G1X1.2121
G1X1.2120Y6.5505
G1Y6.5687
G1X6.3267
G1X6.3267Y6.5887
G1X1.2120
G1Y6.6087
G1X6.3267
G1X6.3268Y6.6287
G1X1.2120
G1Y6.6487
G1X6.3268
G1X6.3268Y6.6687
G1X1.2120
G1Y6.6887
G1X6.3268
G1X6.3268Y6.7087
G1X1.2128
G1X1.2154Y6.7157
G1X1.2193Y6.7287
G1X6.3268
G1X6.3269Y6.7487
G1X1.2225
G1X1.2231Y6.7591
G1Y6.7644
G1X1.2232Y6.7687
G1X6.3269
G1X6.3269Y6.7887
G1X1.2236
G1X1.2236Y6.7902
G1X1.2244Y6.8087
G1X6.3264
G1X6.3240Y6.8287
G1X1.2255
G1X1.2267Y6.8458
G1X1.2270Y6.8487
G1X6.3215
G1X6.3200Y6.8607
G1X6.3190Y6.8687
G1X1.2289
G1X1.2290Y6.8688
G1X1.2315Y6.8887
G1X6.3165
G1X6.3139Y6.9087
G1X1.2340
G1X1.2365Y6.9287
G1X6.3114
G1X6.3088Y6.9487
G1X1.2390
G1X1.2401Y6.9573
G1X1.2417Y6.9687
G1X6.3062
G1X6.3033Y6.9887
G1X1.2445
G1X1.2473Y7.0087
G1X6.3004
G1X6.2976Y7.0287
G1X1.2501
G1X1.2534Y7.0487
G1X6.2944
G1X6.2911Y7.0687
G1X1.2567
G1X1.2575Y7.0736
G1X1.2606Y7.0887
G1X6.2877
G1X6.2859Y7.0992
G1X6.2840Y7.1087
G1X1.2648
G1X1.2693Y7.1287
G1X6.2799
G1X6.2759Y7.1487
G1X1.2738
G1X1.2783Y7.1687
G1X6.2716
G1X6.2696Y7.1782
G1X6.2670Y7.1887
G1X1.2829
G1X1.2874Y7.2087
G1X6.2622
G1X6.2573Y7.2287
G1X1.2921
G1X1.2971Y7.2487
G1X6.2525
G1X6.2477Y7.2687
G1X1.3022
G1X1.3074Y7.2887
G1X6.2429
G1X6.2380Y7.3087
G1X1.3125
G1X1.3143Y7.3157
G1X1.3181Y7.3287
G1X6.2327
G1X6.2263Y7.3487
G1X1.3238
G1X1.3300Y7.3687
G1X6.2199
G1X6.2135Y7.3887
G1X1.3361
G1X1.3399Y7.4009
G1X1.3423Y7.4087
G1X6.2072
G1X6.2061Y7.4121
G1X6.2005Y7.4287
G1X1.3487
G1X1.3497Y7.4317
G1X1.3559Y7.4487
G1X6.1938
G1X6.1871Y7.4687
G1X1.3635
G1X1.3699Y7.4872
G1X1.3704Y7.4887
G1X6.1801
G1X6.1728Y7.5087
G1X1.3774
G1X1.3805Y7.5177
G1X1.3846Y7.5287
G1X6.1655
G1X6.1628Y7.5360
G1X6.1576Y7.5487
G1X1.3920
G1X1.3947Y7.5559
G1X1.3997Y7.5687
G1X6.1496
G1X6.1419Y7.5887
G1X1.4076
G1X1.4104Y7.5959
G1X1.4157Y7.6087
G1X6.1338
G1X6.1275Y7.6237
G1X6.1252Y7.6287
G1X1.4239
G1X1.4253Y7.6320
G1X1.4327Y7.6487
G1X6.1161
G1X6.1091Y7.6641
G1X6.1069Y7.6687
G1X1.4415
G1X1.4504Y7.6887
G1X6.0974
G1X6.0878Y7.7087
G1X1.4598
G1X1.4692Y7.7287
G1X6.0783
G1X6.0687Y7.7487
G1X1.4786
G1X1.4885Y7.7687
G1X6.0590
G1X6.0490Y7.7887
G1X1.4984
G1X1.5051Y7.8021
G1X1.5086Y7.8087
G1X6.0389
G1X6.0289Y7.8287
G1X1.5194
G1X1.5274Y7.8437
G1X1.5303Y7.8487
G1X6.0188
G1X6.0160Y7.8544
G1X6.0083Y7.8687
G1X1.5420
G1X1.5538Y7.8887
G1X5.9974
G1X5.9940Y7.8946
G1X5.9905Y7.8993
G1X5.9846Y7.9075
G1X5.9839Y7.9087
G1X1.5658
G1X1.5779Y7.9287
G1X5.9724
G1X5.9691Y7.9349
G1X5.9645Y7.9453
G1X5.9640Y7.9464
G1X5.9629Y7.9487
G1X1.5901
G1X1.5906Y7.9496
G1X1.6026Y7.9687
G1X5.9501
G1X5.9367Y7.9887
G1X1.6151
G1X1.6243Y8.0033
G1X1.6278Y8.0087
G1X5.9234
G1X5.9100Y8.0287
G1X1.6407
G1X1.6536Y8.0487
G1X5.8967
G1X5.8833Y8.0687
G1X1.6669
G1X1.6802Y8.0887
G1X5.8700
G1X5.8566Y8.1087
G1X1.6938
G1X1.7077Y8.1287
G1X5.8402
G1X5.8378Y8.1312
G1X5.8254Y8.1487
G1X1.7217
G1X1.7364Y8.1687
G1X5.8110
G1X5.7963Y8.1887
G1X1.7516
G1X1.7652Y8.2056
G1X1.7677Y8.2087
G1X5.7804
G1X5.7678Y8.2237
G1X5.7638Y8.2287
G1X1.7840
G1X1.7968Y8.2445
G1X1.8003Y8.2487
G1X5.7479
G1X5.7351Y8.2648
G1X5.7316Y8.2687
G1X1.8169
G1X1.8206Y8.2731
G1X1.8345Y8.2887
G1X5.7137
G1X5.7084Y8.2946
G1X5.6962Y8.3087
G1X1.8523
G1X1.8533Y8.3099
G1X1.8707Y8.3287
G1X5.6790
G1X5.6621Y8.3487
G1X1.8892
G1X1.8921Y8.3519
G1X1.9081Y8.3687
G1X5.6436
G1X5.6236Y8.3887
G1X1.9271
G1X1.9343Y8.3962
G1X1.9464Y8.4087
G1X5.6036
G1X5.5837Y8.4287
G1X1.9659
G1X1.9770Y8.4401
G1X1.9856Y8.4487
G1X5.5637
G1X5.5437Y8.4687
G1X2.0056
G1X2.0175Y8.4806
G1X2.0260Y8.4887
G1X5.5237
G1X5.5037Y8.5087
G1X2.0468
G1X2.0531Y8.5148
G1X2.0686Y8.5287
G1X5.4801
G1X5.4670Y8.5397
G1X5.4566Y8.5487
G1X2.0913
G1X2.1148Y8.5687
G1X5.4336
G1X5.4225Y8.5788
G1X5.4112Y8.5887
G1X2.1387
G1X2.1418Y8.5912
G1X2.1641Y8.6087
G1X5.3859
G1X5.3768Y8.6158
G1X5.3614Y8.6287
G1X2.1893
G1X2.1973Y8.6351
G1X2.2133Y8.6487
G1X5.3359
G1X5.3111Y8.6669
G1X5.3085Y8.6687
G1X2.2424
G1X2.2426Y8.6688
G1X2.2543Y8.6784
G1X2.2683Y8.6887
G1X5.2803
G1X5.2799Y8.6890
G1X5.2692Y8.6990
G1X5.2668Y8.7009
G1X5.2554Y8.7087
G1X2.2937
G1X2.2953Y8.7102
G1X2.2977Y8.7120
G1X2.3217Y8.7287
G1X5.2264
G1X5.1974Y8.7487
G1X2.3506
G1X2.3794Y8.7687
G1X5.1684
G1X5.1489Y8.7821
G1X5.1376Y8.7887
G1X2.4089
G1X2.4110Y8.7901
G1X2.4157Y8.7937
G1X2.4181Y8.7954
G1X2.4245Y8.7978
G1X2.4344Y8.8022
G1X2.4439Y8.8074
G1X2.4460Y8.8087
G1X5.1042
G1X5.0911Y8.8165
G1X5.0702Y8.8287
G1X2.4794
G1X2.5134Y8.8487
G1X5.0360
G1X5.0270Y8.8540
G1X5.0020Y8.8683
G1X5.0012Y8.8687
G1X2.5491
G1X2.5881Y8.8887
G1X4.9607
G1X4.9203Y8.9087
G1X2.6271
G1X2.6661Y8.9287
G1X4.8798
G1X4.8393Y8.9487
G1X2.7106
G1X2.7281Y8.9562
G1X2.7552Y8.9687
G1X4.7929
G1X4.7681Y8.9797
G1X4.7473Y8.9887
G1X2.8058
G1X2.8230Y8.9957
G1X2.8545Y9.0087
G1X4.6946
G1X4.6807Y9.0144
G1X4.6435Y9.0287
G1X2.9050
G1X2.9441Y9.0439
G1X2.9574Y9.0487
G1X4.5901
G1X4.5780Y9.0529
G1X4.5438Y9.0637
G1X4.5264Y9.0687
G1X3.0242
G1X3.0610Y9.0795
G1X3.0937Y9.0887
G1X4.4567
G1X4.3806Y9.1087
G1X3.1702
G1X3.2175Y9.1200
G1X3.2583Y9.1287
G1X4.2911
G1X4.2529Y9.1362
G1X4.1989Y9.1458
G1X4.1802Y9.1487
G1X3.3661
G1X3.4272Y9.1579
G1X3.4648Y9.1634
G1X3.5248Y9.1687
G1X4.0230
G1X3.8330Y9.1857
G1X3.7149
G0Z0.5000
G0X5.9940Y7.8946
G1Z-0.1600F12.0
G1X5.9905Y7.8993F60.0
G1X5.9846Y7.9075
G1X5.9766Y7.9208
G1X5.9691Y7.9349
G1X5.9645Y7.9453
G1X5.9640Y7.9464
G1X5.9628Y7.9490
G1X5.9616Y7.9511
G1X5.9562Y7.9587
G1X5.9502Y7.9685
G1X5.8516Y8.1162
G1X5.8494Y8.1192
G1X5.8378Y8.1312
G1X5.8166Y8.1611
G1X5.7954Y8.1899
G1X5.7807Y8.2084
G1X5.7678Y8.2237
G1X5.7512Y8.2446
G1X5.7351Y8.2648
G1X5.7234Y8.2780
G1X5.7084Y8.2946
G1X5.6842Y8.3226
G1X5.6536Y8.3587
G1X5.5032Y8.5092
G1X5.4670Y8.5397
G1X5.4390Y8.5638
G1X5.4225Y8.5788
G1X5.4108Y8.5890
G1X5.3946Y8.6019
G1X5.3768Y8.6158
G1X5.3612Y8.6289
G1X5.3407Y8.6451
G1X5.3111Y8.6669
G1X5.2799Y8.6890
G1X5.2692Y8.6990
G1X5.2668Y8.7009
G1X5.1489Y8.7821
G1X5.1347Y8.7904
G1X5.1286Y8.7942
G1X5.0911Y8.8165
G1X5.0270Y8.8540
G1X5.0020Y8.8683
G1X4.8132Y8.9616
G1X4.8102Y8.9629
G1X4.7968Y8.9670
G1X4.7681Y8.9797
G1X4.7407Y8.9915
G1X4.7311Y8.9951
G1X4.7263Y8.9964
G1X4.7053Y9.0040
G1X4.6994Y9.0067
G1X4.6807Y9.0144
G1X4.6038Y9.0439
G1X4.5780Y9.0529
G1X4.5438Y9.0637
G1X4.4610Y9.0876
G1X4.3757Y9.1100
G1X4.3386Y9.1189
G1X4.3086Y9.1253
G1X4.2529Y9.1362
G1X4.1989Y9.1458
G1X4.1206Y9.1579
G1X4.0830Y9.1634
G1X3.8324Y9.1857
G1X3.7154
G1X3.4648Y9.1634
G1X3.4272Y9.1579
G1X3.3450Y9.1455
G1X3.3089Y9.1392
G1X3.2643Y9.1300
G1X3.2175Y9.1200
G1X3.1647Y9.1074
G1X3.1108Y9.0935
G1X3.0610Y9.0795
G1X3.0026Y9.0624
G1X2.9859Y9.0580
G1X2.9667Y9.0520
G1X2.9441Y9.0439
G1X2.8670Y9.0139
G1X2.8230Y8.9957
G1X2.8050Y8.9884
G1X2.7948Y8.9853
G1X2.7904Y8.9841
G1X2.7818Y8.9807
G1X2.7571Y8.9696
G1X2.7281Y8.9562
G1X2.7046Y8.9462
G1X2.6851Y8.9384
G1X2.5459Y8.8671
G1X2.5232Y8.8545
G1X2.4628Y8.8189
G1X2.4439Y8.8074
G1X2.4245Y8.7978
G1X2.4181Y8.7954
G1X2.4157Y8.7937
G1X2.4110Y8.7901
G1X2.4009Y8.7836
G1X2.2977Y8.7120
G1X2.2953Y8.7102
G1X2.2854Y8.7010
G1X2.2702Y8.6901
G1X2.2543Y8.6784
G1X2.2426Y8.6688
G1X2.2274Y8.6599
G1X2.2254Y8.6586
G1X2.2144Y8.6497
G1X2.1973Y8.6351
G1X2.1755Y8.6177
G1X2.1418Y8.5912
G1X2.1234Y8.5760
G1X2.0809Y8.5398
G1X2.0531Y8.5148
G1X2.0175Y8.4806
G1X1.9770Y8.4401
G1X1.9343Y8.3962
G1X1.8921Y8.3519
G1X1.8533Y8.3099
G1X1.8206Y8.2731
G1X1.7968Y8.2445
G1X1.7652Y8.2056
G1X1.7447Y8.1801
G1X1.7191Y8.1452
G1X1.6898Y8.1029
G1X1.6577Y8.0550
G1X1.6243Y8.0033
G1X1.5906Y7.9496
G1X1.5579Y7.8958
G1X1.5274Y7.8437
G1X1.5051Y7.8021
G1X1.4785Y7.7486
G1X1.4509Y7.6898
G1X1.4253Y7.6320
G1X1.4104Y7.5959
G1X1.3947Y7.5559
G1X1.3805Y7.5177
G1X1.3699Y7.4872
G1X1.3627Y7.4663
G1X1.3567Y7.4510
G1X1.3497Y7.4317
G1X1.3399Y7.4009
G1X1.3236Y7.3480
G1X1.3143Y7.3157
G1X1.3011Y7.2645
G1X1.2902Y7.2213
G1X1.2786Y7.1698
G1X1.2648Y7.1085
G1X1.2575Y7.0736
G1X1.2494Y7.0244
G1X1.2401Y6.9573
G1X1.2290Y6.8688
G1X1.2267Y6.8458
G1X1.2249Y6.8185
G1X1.2236Y6.7902
G1X1.2231Y6.7644
G1Y6.7591
G1X1.2223Y6.7444
G1X1.2197Y6.7299
G1X1.2154Y6.7157
G1X1.2123Y6.7075
G1X1.2120Y6.7031
G1Y6.5505
G1X1.2123Y6.5461
G1X1.2154Y6.5379
G1X1.2196Y6.5238
G1X1.2223Y6.5092
G1X1.2231Y6.4945
G1X1.2231Y6.4862
G1X1.2236Y6.4594
G1X1.2248Y6.4308
G1X1.2267Y6.4038
G1X1.2289Y6.3818
G1X1.2408Y6.2899
G1X1.2465Y6.2488
G1X1.2537Y6.2050
G1X1.2621Y6.1592
G1X1.2717Y6.1120
G1X1.2822Y6.0642
G1X1.2936Y6.0164
G1X1.3056Y5.9694
G1X1.3182Y5.9237
G1X1.3283Y5.8875
G1X1.3332Y5.8694
G1X1.3741Y5.7469
G1X1.3818Y5.7302
G1X1.3899Y5.7102
G1X1.3988Y5.6856
G1X1.4088Y5.6586
G1X1.4194Y5.6327
G1X1.4390Y5.5882
G1X1.4474Y5.5687
G1X1.4801Y5.5019
G1X1.5063Y5.4491
G1X1.5300Y5.4043
G1X1.5558Y5.3586
G1X1.5887Y5.3033
G1X1.6255Y5.2423
G1X1.6269Y5.2402
G1X1.6300Y5.2362
G1X1.6420Y5.2177
G1X1.6469Y5.2084
G1X1.6477Y5.2073
G1X1.6568Y5.1961
G1X1.6667Y5.1801
G1X1.6705Y5.1747
G1X1.6771Y5.1677
G1X1.7210Y5.1069
G1X1.7343Y5.0835
G1X1.7357Y5.0802
G1X1.7370Y5.0779
G1X1.7400Y5.0749
G1X1.7523Y5.0618
G1X1.7636Y5.0480
G1X1.7857Y5.0201
G1X1.8045Y4.9979
G1X1.8518Y4.9430
G1X1.8831Y4.9077
G1X2.0558Y4.7332
G1X2.0892Y4.7044
G1X2.1210Y4.6778
G1X2.1504Y4.6543
G1X2.1723Y4.6373
G1X2.1857Y4.6261
G1X2.1970Y4.6166
G1X2.2136Y4.6038
G1X2.2368Y4.5855
G1X2.2445Y4.5794
G1X2.2591Y4.5690
G1X2.2747Y4.5578
G1X2.2849Y4.5497
G1X2.2913Y4.5440
G1X2.3517Y4.5030
G1X2.3990Y4.4719
G1X2.4470Y4.4421
G1X2.4946Y4.4143
G1X2.5403Y4.3892
G1X2.5671Y4.3746
G1X2.5794Y4.3657
G1X2.5826Y4.3639
G1X2.7018Y4.3060
G1X2.7130Y4.3017
G1X2.7619Y4.2801
G1X2.7899Y4.2678
G1X2.8041Y4.2628
G1X2.8138Y4.2595
G1X2.8314Y4.2516
G1X2.8493Y4.2438
G1X2.8560Y4.2414
G1X2.8643Y4.2395
G1X2.8741Y4.2362
G1X2.9006Y4.2260
G1X2.9382Y4.2106
G1X2.9648Y4.2005
G1X2.9882Y4.1928
G1X3.0165Y4.1847
G1X3.0945Y4.1621
G1X3.1084Y4.1578
G1X3.1780Y4.1411
G1X3.2321Y4.1287
G1X3.2860Y4.1176
G1X3.3400Y4.1077
G1X3.3946Y4.0989
G1X3.4501Y4.0912
G1X3.5070Y4.0846
G1X3.5656Y4.0789
G1X3.6263Y4.0742
G1X3.6929Y4.0706
G1X3.7592Y4.0687
G1X3.8003Y4.0687
G1X3.8429Y4.0696
G1X3.8867Y4.0715
G1X3.9314Y4.0743
G1X3.9770Y4.0779
G1X4.0232Y4.0824
G1X4.0698Y4.0878
G1X4.1166Y4.0939
G1X4.1635Y4.1008
G1X4.2102Y4.1084
G1X4.2565Y4.1168
G1X4.3023Y4.1258
G1X4.3472Y4.1355
G1X4.3913Y4.1458
G1X4.4342Y4.1568
G1X4.4757Y4.1683
G1X4.5628Y4.1940
G1X4.5876Y4.2018
G1X4.6010Y4.2066
G1X4.6278Y4.2176
G1X4.6435Y4.2239
G1X4.6974Y4.2440
G1X4.7445Y4.2623
G1X4.7820Y4.2780
G1X4.8321Y4.3002
G1X4.8516Y4.3086
G1X4.9129Y4.3387
G1X4.9503Y4.3575
G1X4.9886Y4.3777
G1X5.0271Y4.3987
G1X5.0649Y4.4201
G1X5.1010Y4.4413
G1X5.1347Y4.4619
G1X5.1651Y4.4815
G1X5.1913Y4.4993
G1X5.2526Y4.5416
G1X5.2731Y4.5557
G1X5.2832Y4.5635
G1X5.2909Y4.5698
G1X5.3055Y4.5802
G1X5.3201Y4.5906
G1X5.3278Y4.5968
G1X5.3371Y4.6047
G1X5.3556Y4.6192
G1X5.3835Y4.6415
G1X5.4030Y4.6575
G1X5.4254Y4.6757
G1X5.4559Y4.7017
G1X5.4921Y4.7331
G1X5.6649Y4.9060
G1X5.6871Y4.9312
G1X5.7343Y4.9869
G1X5.7621Y5.0201
G1X5.7843Y5.0480
G1X5.7991Y5.0662
G1X5.8095Y5.0763
G1X5.8103Y5.0774
G1X5.8109Y5.0782
G1X5.8139Y5.0845
G1X5.8294Y5.1090
G1X5.8296Y5.1091
G1X5.8442Y5.1273
G1X5.8538Y5.1411
G1X5.8667Y5.1569
G1X5.8704Y5.1608
G1X5.8719Y5.1625
G1X5.8731Y5.1643
G1X5.8744Y5.1666
G1X5.8756Y5.1691
G1X5.8927Y5.1946
G1X5.8947Y5.1970
G1X5.8963Y5.1996
G1X5.9005Y5.2069
G1X5.9067Y5.2189
G1X5.9127Y5.2278
G1X5.9253Y5.2456
G1X5.9420Y5.2720
G1X5.9612Y5.3048
G1X5.9737Y5.3207
G1X5.9741Y5.3213
G1X5.9751Y5.3233
G1X5.9806Y5.3375
G1X6.0071Y5.3849
G1X6.0368Y5.4408
G1X6.0690Y5.5047
G1X6.1031Y5.5743
G1X6.1186Y5.6077
G1X6.1332Y5.6411
G1X6.1465Y5.6745
G1X6.1575Y5.7032
G1X6.1664Y5.7251
G1X6.1740Y5.7423
G1X6.2201Y5.8806
G1X6.2291Y5.9140
G1X6.2672Y6.0643
G1X6.2741Y6.0978
G1X6.2859Y6.1534
G1X6.2907Y6.1786
G1X6.2962Y6.2114
G1X6.3076Y6.2927
G1X6.3199Y6.3873
G1X6.3266Y6.4375
G1X6.3269Y6.8050
G1X6.3200Y6.8607
G1X6.3072Y6.9616
G1X6.2963Y7.0378
G1X6.2859Y7.0992
G1X6.2744Y7.1559
G1X6.2696Y7.1782
G1X6.2346Y7.3229
G1X6.2247Y7.3536
G1X6.2061Y7.4121
G1X6.1837Y7.4787
G1X6.1628Y7.5360
G1X6.1504Y7.5665
G1X6.1392Y7.5958
G1X6.1275Y7.6237
G1X6.1091Y7.6641
G1X6.0618Y7.7632
G1X6.0160Y7.8544
G1X5.9995Y7.8851
G1X5.9940Y7.8946
G0Z0.5000
G0X3.8026Y4.0687
G1Z-0.2000F12.0
G1X3.7581F60.0
G1X3.6929Y4.0706
G1X3.6263Y4.0742
G1X3.5656Y4.0789
G1X3.5070Y4.0846
G1X3.4717Y4.0887
G1X4.0771
G1X4.1166Y4.0939
G1X4.1635Y4.1008
G1X4.2102Y4.1084
G1X4.2118Y4.1087
G1X3.3343
G1X3.2860Y4.1176
G1X3.2321Y4.1287
G1X3.2320Y4.1287
G1X4.3157
G1X4.3472Y4.1355
G1X4.3913Y4.1458
G1X4.4025Y4.1487
G1X3.1461
G1X3.1084Y4.1578
G1X3.0945Y4.1621
G1X3.0718Y4.1687
G1X4.4771
G1X4.5449Y4.1887
G1X3.0025
G1X2.9882Y4.1928
G1X2.9648Y4.2005
G1X2.9432Y4.2087
G1X4.6062
G1X4.6278Y4.2176
G1X4.6435Y4.2239
G1X4.6564Y4.2287
G1X2.8935
G1X2.8741Y4.2362
G1X2.8643Y4.2395
G1X2.8560Y4.2414
G1X2.8493Y4.2438
G1X2.8380Y4.2487
G1X4.7094
G1X4.7445Y4.2623
G1X4.7597Y4.2687
G1X2.7880
G1X2.7619Y4.2801
G1X2.7424Y4.2887
G1X4.8061
G1X4.8321Y4.3002
G1X4.8516Y4.3086
G1X4.8517Y4.3087
G1X2.6962
G1X2.6551Y4.3287
G1X4.8925
G1X4.9129Y4.3387
G1X4.9327Y4.3487
G1X2.6139
G1X2.5826Y4.3639
G1X2.5794Y4.3657
G1X2.5752Y4.3687
G1X4.9716
G1X4.9886Y4.3777
G1X5.0088Y4.3887
G1X2.5413
G1X2.5403Y4.3892
G1X2.5047Y4.4087
G1X5.0448
G1X5.0649Y4.4201
G1X5.0795Y4.4287
G1X2.4699
G1X2.4470Y4.4421
G1X2.4364Y4.4487
G1X5.1131
G1X5.1347Y4.4619
G1X5.1452Y4.4687
G1X2.4042
G1X2.3990Y4.4719
G1X2.3735Y4.4887
G1X5.1757
G1X5.1913Y4.4993
G1X5.2049Y4.5087
G1X2.3434
G1X2.3139Y4.5287
G1X5.2339
G1X5.2526Y4.5416
G1X5.2630Y4.5487
G1X2.2861
G1X2.2849Y4.5497
G1X2.2747Y4.5578
G1X2.2594Y4.5687
G1X5.2896
G1X5.2909Y4.5698
G1X5.3055Y4.5802
G1X5.3175Y4.5887
G1X2.2327
G1X2.2136Y4.6038
G1X2.2072Y4.6087
G1X5.3423
G1X5.3556Y4.6192
G1X5.3675Y4.6287
G1X2.1826
G1X2.1723Y4.6373
G1X2.1576Y4.6487
G1X5.3923
G1X5.4030Y4.6575
G1X5.4168Y4.6687
G1X2.1324
G1X2.1210Y4.6778
G1X2.1079Y4.6887
G1X5.4406
G1X5.4559Y4.7017
G1X5.4640Y4.7087
G1X2.0842
G1X2.0610Y4.7287
G1X5.4870
G1X5.4921Y4.7331
G1X5.5077Y4.7487
G1X2.0404
G1X2.0206Y4.7687
G1X5.5277
G1X5.5477Y4.7887
G1X2.0008
G1X1.9810Y4.8087
G1X5.5677
G1X5.5877Y4.8287
G1X1.9612
G1X1.9415Y4.8487
G1X5.6077
G1X5.6276Y4.8687
G1X1.9217
G1X1.9019Y4.8887
G1X5.6476
G1X5.6649Y4.9060
G1X5.6673Y4.9087
G1X1.8822
G1X1.8645Y4.9287
G1X5.6849
G1X5.6871Y4.9312
G1X5.7019Y4.9487
G1X1.8469
G1X1.8296Y4.9687
G1X5.7188
G1X5.7343Y4.9869
G1X5.7358Y4.9887
G1X1.8124
G1X1.8045Y4.9979
G1X1.7954Y5.0087
G1X5.7525
G1X5.7621Y5.0201
G1X5.7689Y5.0287
G1X1.7789
G1X1.7636Y5.0480
G1X1.7630Y5.0487
G1X5.7849
G1X5.7991Y5.0662
G1X5.8017Y5.0687
G1X1.7458
G1X1.7400Y5.0749
G1X1.7370Y5.0779
G1X1.7357Y5.0802
G1X1.7343Y5.0835
G1X1.7317Y5.0887
G1X5.8163
G1X5.8210Y5.0972
G1X5.8292Y5.1087
G1X1.7197
G1X1.7052Y5.1287
G1X5.8452
G1X5.8538Y5.1411
G1X5.8595Y5.1487
G1X1.6908
G1X1.6771Y5.1677
G1X1.6761Y5.1687
G1X5.8754
G1X5.8756Y5.1691
G1X5.8834Y5.1824
G1X5.8882Y5.1887
G1X1.6614
G1X1.6568Y5.1961
G1X1.6477Y5.2073
G1X1.6469Y5.2084
G1X1.6467Y5.2087
G1X5.9014
G1X5.9067Y5.2189
G1X5.9127Y5.2278
G1X5.9133Y5.2287
G1X1.6353
G1X1.6300Y5.2362
G1X1.6269Y5.2402
G1X1.6255Y5.2423
G1X1.6216Y5.2487
G1X5.9273
G1X5.9399Y5.2687
G1X1.6096
G1X1.5975Y5.2887
G1X5.9518
G1X5.9612Y5.3048
G1X5.9642Y5.3087
G1X1.5855
G1X1.5736Y5.3287
G1X5.9772
G1X5.9806Y5.3375
G1X5.9869Y5.3487
G1X1.5618
G1X1.5558Y5.3586
G1X1.5502Y5.3687
G1X5.9980
G1X6.0071Y5.3849
G1X6.0091Y5.3887
G1X1.5388
G1X1.5300Y5.4043
G1X1.5277Y5.4087
G1X6.0197
G1X6.0304Y5.4287
G1X1.5171
G1X1.5066Y5.4487
G1X6.0408
G1X6.0509Y5.4687
G1X1.4966
G1X1.4866Y5.4887
G1X6.0610
G1X6.0690Y5.5047
G1X6.0710Y5.5087
G1X1.4767
G1X1.4670Y5.5287
G1X6.0808
G1X6.0906Y5.5487
G1X1.4572
G1X1.4474Y5.5687
G1X6.1004Y5.5687
G1X6.1031Y5.5743
G1X6.1098Y5.5887
G1X1.4387
G1X1.4299Y5.6087
G1X6.1191
G1X6.1278Y5.6287
G1X1.4212
G1X1.4194Y5.6327
G1X1.4128Y5.6487
G1X6.1363
G1X6.1442Y5.6687
G1X1.4051
G1X1.3988Y5.6856
G1X1.3977Y5.6887
G1X6.1520
G1X6.1575Y5.7032
G1X6.1597Y5.7087
G1X1.3905
G1X1.3899Y5.7102
G1X1.3824Y5.7287
G1X6.1680
G1X6.1740Y5.7423
G1X6.1761Y5.7487
G1X1.3735
G1X1.3669Y5.7687
G1X6.1828
G1X6.1895Y5.7887
G1X1.3602
G1X1.3535Y5.8087
G1X6.1962
G1X6.2028Y5.8287
G1X1.3468
G1X1.3401Y5.8487
G1X6.2095
G1X6.2162Y5.8687
G1X1.3334
G1X1.3332Y5.8694
G1X1.3283Y5.8875
G1X1.3280Y5.8887
G1X6.2223
G1X6.2277Y5.9087
G1X1.3224
G1X1.3182Y5.9237
G1X1.3168Y5.9287
G1X6.2328
G1X6.2379Y5.9487
G1X1.3113
G1X1.3058Y5.9687
G1X6.2430
G1X6.2480Y5.9887
G1X1.3007
G1X1.2956Y6.0087
G1X6.2531
G1X6.2582Y6.0287
G1X1.2907
G1X1.2859Y6.0487
G1X6.2632
G1X6.2672Y6.0643
G1X6.2681Y6.0687
G1X1.2812
G1X1.2768Y6.0887
G1X6.2723
G1X6.2741Y6.0978
G1X6.2764Y6.1087
G1X1.2724
G1X1.2717Y6.1120
G1X1.2683Y6.1287
G1X6.2807
G1X6.2849Y6.1487
G1X1.2643
G1X1.2621Y6.1592
G1X1.2604Y6.1687
G1X6.2888
G1X6.2907Y6.1786
G1X6.2924Y6.1887
G1X1.2567
G1X1.2537Y6.2050
G1X1.2531Y6.2087
G1X6.2957
G1X6.2962Y6.2114
G1X6.2986Y6.2287
G1X1.2498
G1X1.2465Y6.2487
G1X6.3014
G1X6.3042Y6.2687
G1X1.2437
G1X1.2409Y6.2887
G1X6.3070
G1X6.3076Y6.2927
G1X6.3097Y6.3087
G1X1.2383
G1X1.2358Y6.3287
G1X6.3123
G1X6.3149Y6.3487
G1X1.2332
G1X1.2306Y6.3687
G1X6.3175
G1X6.3199Y6.3873
G1X6.3201Y6.3887
G1X1.2282
G1X1.2267Y6.4038
G1X1.2263Y6.4087
G1X6.3228
G1X6.3254Y6.4287
G1X1.2249
G1X1.2248Y6.4308
G1X1.2240Y6.4487
G1X6.3266
G1X6.3266Y6.4687
G1X1.2234
G1X1.2231Y6.4862
G1X1.2231Y6.4887
G1X6.3266
G1X6.3267Y6.5087
G1X1.2223
G1X1.2223Y6.5092
G1X1.2196Y6.5238
G1X1.2182Y6.5287
G1X6.3267
G1X6.3267Y6.5487
G1X1.2121
G1X1.2120Y6.5505
G1Y6.5687
G1X6.3267
G1X6.3267Y6.5887
G1X1.2120
G1Y6.6087
G1X6.3267
G1X6.3268Y6.6287
G1X1.2120
G1Y6.6487
G1X6.3268
G1X6.3268Y6.6687
G1X1.2120
G1Y6.6887
G1X6.3268
G1X6.3268Y6.7087
G1X1.2128
G1X1.2154Y6.7157
G1X1.2193Y6.7287
G1X6.3268
G1X6.3269Y6.7487
G1X1.2225
G1X1.2231Y6.7591
G1Y6.7644
G1X1.2232Y6.7687
G1X6.3269
G1X6.3269Y6.7887
G1X1.2236
G1X1.2236Y6.7902
G1X1.2244Y6.8087
G1X6.3264
G1X6.3240Y6.8287
G1X1.2255
G1X1.2267Y6.8458
G1X1.2270Y6.8487
G1X6.3215
G1X6.3200Y6.8607
G1X6.3190Y6.8687
G1X1.2289
G1X1.2290Y6.8688
G1X1.2315Y6.8887
G1X6.3165
G1X6.3139Y6.9087
G1X1.2340
G1X1.2365Y6.9287
G1X6.3114
G1X6.3088Y6.9487
G1X1.2390
G1X1.2401Y6.9573
G1X1.2417Y6.9687
G1X6.3062
G1X6.3033Y6.9887
G1X1.2445
G1X1.2473Y7.0087
G1X6.3004
G1X6.2976Y7.0287
G1X1.2501
G1X1.2534Y7.0487
G1X6.2944
G1X6.2911Y7.0687
G1X1.2567
G1X1.2575Y7.0736
G1X1.2606Y7.0887
G1X6.2877
G1X6.2859Y7.0992
G1X6.2840Y7.1087
G1X1.2648
G1X1.2693Y7.1287
G1X6.2799
G1X6.2759Y7.1487
G1X1.2738
G1X1.2783Y7.1687
G1X6.2716
G1X6.2696Y7.1782
G1X6.2670Y7.1887
G1X1.2829
G1X1.2874Y7.2087
G1X6.2622
G1X6.2573Y7.2287
G1X1.2921
G1X1.2971Y7.2487
G1X6.2525
G1X6.2477Y7.2687
G1X1.3022
G1X1.3074Y7.2887
G1X6.2429
G1X6.2380Y7.3087
G1X1.3125
G1X1.3143Y7.3157
G1X1.3181Y7.3287
G1X6.2327
G1X6.2263Y7.3487
G1X1.3238
G1X1.3300Y7.3687
G1X6.2199
G1X6.2135Y7.3887
G1X1.3361
G1X1.3399Y7.4009
G1X1.3423Y7.4087
G1X6.2072
G1X6.2061Y7.4121
G1X6.2005Y7.4287
G1X1.3487
G1X1.3497Y7.4317
G1X1.3559Y7.4487
G1X6.1938
G1X6.1871Y7.4687
G1X1.3635
G1X1.3699Y7.4872
G1X1.3704Y7.4887
G1X6.1801
G1X6.1728Y7.5087
G1X1.3774
G1X1.3805Y7.5177
G1X1.3846Y7.5287
G1X6.1655
G1X6.1628Y7.5360
G1X6.1576Y7.5487
G1X1.3920
G1X1.3947Y7.5559
G1X1.3997Y7.5687
G1X6.1496
G1X6.1419Y7.5887
G1X1.4076
G1X1.4104Y7.5959
G1X1.4157Y7.6087
G1X6.1338
G1X6.1275Y7.6237
G1X6.1252Y7.6287
G1X1.4239
G1X1.4253Y7.6320
G1X1.4327Y7.6487
G1X6.1161
G1X6.1091Y7.6641
G1X6.1069Y7.6687
G1X1.4415
G1X1.4504Y7.6887
G1X6.0974
G1X6.0878Y7.7087
G1X1.4598
G1X1.4692Y7.7287
G1X6.0783
G1X6.0687Y7.7487
G1X1.4786
G1X1.4885Y7.7687
G1X6.0590
G1X6.0490Y7.7887
G1X1.4984
G1X1.5051Y7.8021
G1X1.5086Y7.8087
G1X6.0389
G1X6.0289Y7.8287
G1X1.5194
G1X1.5274Y7.8437
G1X1.5303Y7.8487
G1X6.0188
G1X6.0160Y7.8544
G1X6.0083Y7.8687
G1X1.5420
G1X1.5538Y7.8887
G1X5.9974
G1X5.9940Y7.8946
G1X5.9905Y7.8993
G1X5.9846Y7.9075
G1X5.9839Y7.9087
G1X1.5658
G1X1.5779Y7.9287
G1X5.9724
G1X5.9691Y7.9349
G1X5.9645Y7.9453
G1X5.9640Y7.9464
G1X5.9629Y7.9487
G1X1.5901
G1X1.5906Y7.9496
G1X1.6026Y7.9687
G1X5.9501
G1X5.9367Y7.9887
G1X1.6151
G1X1.6243Y8.0033
G1X1.6278Y8.0087
G1X5.9234
G1X5.9100Y8.0287
G1X1.6407
G1X1.6536Y8.0487
G1X5.8967
G1X5.8833Y8.0687
G1X1.6669
G1X1.6802Y8.0887
G1X5.8700
G1X5.8566Y8.1087
G1X1.6938
G1X1.7077Y8.1287
G1X5.8402
G1X5.8378Y8.1312
G1X5.8254Y8.1487
G1X1.7217
G1X1.7364Y8.1687
G1X5.8110
G1X5.7963Y8.1887
G1X1.7516
G1X1.7652Y8.2056
G1X1.7677Y8.2087
G1X5.7804
G1X5.7678Y8.2237
G1X5.7638Y8.2287
G1X1.7840
G1X1.7968Y8.2445
G1X1.8003Y8.2487
G1X5.7479
G1X5.7351Y8.2648
G1X5.7316Y8.2687
G1X1.8169
G1X1.8206Y8.2731
G1X1.8345Y8.2887
G1X5.7137
G1X5.7084Y8.2946
G1X5.6962Y8.3087
G1X1.8523
G1X1.8533Y8.3099
G1X1.8707Y8.3287
G1X5.6790
G1X5.6621Y8.3487
G1X1.8892
G1X1.8921Y8.3519
G1X1.9081Y8.3687
G1X5.6436
G1X5.6236Y8.3887
G1X1.9271
G1X1.9343Y8.3962
G1X1.9464Y8.4087
G1X5.6036
G1X5.5837Y8.4287
G1X1.9659
G1X1.9770Y8.4401
G1X1.9856Y8.4487
G1X5.5637
G1X5.5437Y8.4687
G1X2.0056
G1X2.0175Y8.4806
G1X2.0260Y8.4887
G1X5.5237
G1X5.5037Y8.5087
G1X2.0468
G1X2.0531Y8.5148
G1X2.0686Y8.5287
G1X5.4801
G1X5.4670Y8.5397
G1X5.4566Y8.5487
G1X2.0913
G1X2.1148Y8.5687
G1X5.4336
G1X5.4225Y8.5788
G1X5.4112Y8.5887
G1X2.1387
G1X2.1418Y8.5912
G1X2.1641Y8.6087
G1X5.3859
G1X5.3768Y8.6158
G1X5.3614Y8.6287
G1X2.1893
G1X2.1973Y8.6351
G1X2.2133Y8.6487
G1X5.3359
G1X5.3111Y8.6669
G1X5.3085Y8.6687
G1X2.2424
G1X2.2426Y8.6688
G1X2.2543Y8.6784
G1X2.2683Y8.6887
G1X5.2803
G1X5.2799Y8.6890
G1X5.2692Y8.6990
G1X5.2668Y8.7009
G1X5.2554Y8.7087
G1X2.2937
G1X2.2953Y8.7102
G1X2.2977Y8.7120
G1X2.3217Y8.7287
G1X5.2264
G1X5.1974Y8.7487
G1X2.3506
G1X2.3794Y8.7687
G1X5.1684
G1X5.1489Y8.7821
G1X5.1376Y8.7887
G1X2.4089
G1X2.4110Y8.7901
G1X2.4157Y8.7937
G1X2.4181Y8.7954
G1X2.4245Y8.7978
G1X2.4344Y8.8022
G1X2.4439Y8.8074
G1X2.4460Y8.8087
G1X5.1042
G1X5.0911Y8.8165
G1X5.0702Y8.8287
G1X2.4794
G1X2.5134Y8.8487
G1X5.0360
G1X5.0270Y8.8540
G1X5.0020Y8.8683
G1X5.0012Y8.8687
G1X2.5491
G1X2.5881Y8.8887
G1X4.9607
G1X4.9203Y8.9087
G1X2.6271
G1X2.6661Y8.9287
G1X4.8798
G1X4.8393Y8.9487
G1X2.7106
G1X2.7281Y8.9562
G1X2.7552Y8.9687
G1X4.7929
G1X4.7681Y8.9797
G1X4.7473Y8.9887
G1X2.8058
G1X2.8230Y8.9957
G1X2.8545Y9.0087
G1X4.6946
G1X4.6807Y9.0144
G1X4.6435Y9.0287
G1X2.9050
G1X2.9441Y9.0439
G1X2.9574Y9.0487
G1X4.5901
G1X4.5780Y9.0529
G1X4.5438Y9.0637
G1X4.5264Y9.0687
G1X3.0242
G1X3.0610Y9.0795
G1X3.0937Y9.0887
G1X4.4567
G1X4.3806Y9.1087
G1X3.1702
G1X3.2175Y9.1200
G1X3.2583Y9.1287
G1X4.2911
G1X4.2529Y9.1362
G1X4.1989Y9.1458
G1X4.1802Y9.1487
G1X3.3661
G1X3.4272Y9.1579
G1X3.4648Y9.1634
G1X3.5248Y9.1687
G1X4.0230
G1X3.8330Y9.1857
G1X3.7149
G0Z0.5000
G0X5.9940Y7.8946
G1Z-0.2000F12.0
G1X5.9905Y7.8993F60.0
G1X5.9846Y7.9075
G1X5.9766Y7.9208
G1X5.9691Y7.9349
G1X5.9645Y7.9453
G1X5.9640Y7.9464
G1X5.9628Y7.9490
G1X5.9616Y7.9511
G1X5.9562Y7.9587
G1X5.9502Y7.9685
G1X5.8516Y8.1162
G1X5.8494Y8.1192
G1X5.8378Y8.1312
G1X5.8166Y8.1611
G1X5.7954Y8.1899
G1X5.7807Y8.2084
G1X5.7678Y8.2237
G1X5.7512Y8.2446
G1X5.7351Y8.2648
G1X5.7234Y8.2780
G1X5.7084Y8.2946
G1X5.6842Y8.3226
G1X5.6536Y8.3587
G1X5.5032Y8.5092
G1X5.4670Y8.5397
G1X5.4390Y8.5638
G1X5.4225Y8.5788
G1X5.4108Y8.5890
G1X5.3946Y8.6019
G1X5.3768Y8.6158
G1X5.3612Y8.6289
G1X5.3407Y8.6451
G1X5.3111Y8.6669
G1X5.2799Y8.6890
G1X5.2692Y8.6990
G1X5.2668Y8.7009
G1X5.1489Y8.7821
G1X5.1347Y8.7904
G1X5.1286Y8.7942
G1X5.0911Y8.8165
G1X5.0270Y8.8540
G1X5.0020Y8.8683
G1X4.8132Y8.9616
G1X4.8102Y8.9629
G1X4.7968Y8.9670
G1X4.7681Y8.9797
G1X4.7407Y8.9915
G1X4.7311Y8.9951
G1X4.7263Y8.9964
G1X4.7053Y9.0040
G1X4.6994Y9.0067
G1X4.6807Y9.0144
G1X4.6038Y9.0439
G1X4.5780Y9.0529
G1X4.5438Y9.0637
G1X4.4610Y9.0876
G1X4.3757Y9.1100
G1X4.3386Y9.1189
G1X4.3086Y9.1253
G1X4.2529Y9.1362
G1X4.1989Y9.1458
G1X4.1206Y9.1579
G1X4.0830Y9.1634
G1X3.8324Y9.1857
G1X3.7154
G1X3.4648Y9.1634
G1X3.4272Y9.1579
G1X3.3450Y9.1455
G1X3.3089Y9.1392
G1X3.2643Y9.1300
G1X3.2175Y9.1200
G1X3.1647Y9.1074
G1X3.1108Y9.0935
G1X3.0610Y9.0795
G1X3.0026Y9.0624
G1X2.9859Y9.0580
G1X2.9667Y9.0520
G1X2.9441Y9.0439
G1X2.8670Y9.0139
G1X2.8230Y8.9957
G1X2.8050Y8.9884
G1X2.7948Y8.9853
G1X2.7904Y8.9841
G1X2.7818Y8.9807
G1X2.7571Y8.9696
G1X2.7281Y8.9562
G1X2.7046Y8.9462
G1X2.6851Y8.9384
G1X2.5459Y8.8671
G1X2.5232Y8.8545
G1X2.4628Y8.8189
G1X2.4439Y8.8074
G1X2.4245Y8.7978
G1X2.4181Y8.7954
G1X2.4157Y8.7937
G1X2.4110Y8.7901
G1X2.4009Y8.7836
G1X2.2977Y8.7120
G1X2.2953Y8.7102
G1X2.2854Y8.7010
G1X2.2702Y8.6901
G1X2.2543Y8.6784
G1X2.2426Y8.6688
G1X2.2274Y8.6599
G1X2.2254Y8.6586
G1X2.2144Y8.6497
G1X2.1973Y8.6351
G1X2.1755Y8.6177
G1X2.1418Y8.5912
G1X2.1234Y8.5760
G1X2.0809Y8.5398
G1X2.0531Y8.5148
G1X2.0175Y8.4806
G1X1.9770Y8.4401
G1X1.9343Y8.3962
G1X1.8921Y8.3519
G1X1.8533Y8.3099
G1X1.8206Y8.2731
G1X1.7968Y8.2445
G1X1.7652Y8.2056
G1X1.7447Y8.1801
G1X1.7191Y8.1452
G1X1.6898Y8.1029
G1X1.6577Y8.0550
G1X1.6243Y8.0033
G1X1.5906Y7.9496
G1X1.5579Y7.8958
G1X1.5274Y7.8437
G1X1.5051Y7.8021
G1X1.4785Y7.7486
G1X1.4509Y7.6898
G1X1.4253Y7.6320
G1X1.4104Y7.5959
G1X1.3947Y7.5559
G1X1.3805Y7.5177
G1X1.3699Y7.4872
G1X1.3627Y7.4663
G1X1.3567Y7.4510
G1X1.3497Y7.4317
G1X1.3399Y7.4009
G1X1.3236Y7.3480
G1X1.3143Y7.3157
G1X1.3011Y7.2645
G1X1.2902Y7.2213
G1X1.2786Y7.1698
G1X1.2648Y7.1085
G1X1.2575Y7.0736
G1X1.2494Y7.0244
G1X1.2401Y6.9573
G1X1.2290Y6.8688
G1X1.2267Y6.8458
G1X1.2249Y6.8185
G1X1.2236Y6.7902
G1X1.2231Y6.7644
G1Y6.7591
G1X1.2223Y6.7444
G1X1.2197Y6.7299
G1X1.2154Y6.7157
G1X1.2123Y6.7075
G1X1.2120Y6.7031
G1Y6.5505
G1X1.2123Y6.5461
G1X1.2154Y6.5379
G1X1.2196Y6.5238
G1X1.2223Y6.5092
G1X1.2231Y6.4945
G1X1.2231Y6.4862
G1X1.2236Y6.4594
G1X1.2248Y6.4308
G1X1.2267Y6.4038
G1X1.2289Y6.3818
G1X1.2408Y6.2899
G1X1.2465Y6.2488
G1X1.2537Y6.2050
G1X1.2621Y6.1592
G1X1.2717Y6.1120
G1X1.2822Y6.0642
G1X1.2936Y6.0164
G1X1.3056Y5.9694
G1X1.3182Y5.9237
G1X1.3283Y5.8875
G1X1.3332Y5.8694
G1X1.3741Y5.7469
G1X1.3818Y5.7302
G1X1.3899Y5.7102
G1X1.3988Y5.6856
G1X1.4088Y5.6586
G1X1.4194Y5.6327
G1X1.4390Y5.5882
G1X1.4474Y5.5687
G1X1.4801Y5.5019
G1X1.5063Y5.4491
G1X1.5300Y5.4043
G1X1.5558Y5.3586
G1X1.5887Y5.3033
G1X1.6255Y5.2423
G1X1.6269Y5.2402
G1X1.6300Y5.2362
G1X1.6420Y5.2177
G1X1.6469Y5.2084
G1X1.6477Y5.2073
G1X1.6568Y5.1961
G1X1.6667Y5.1801
G1X1.6705Y5.1747
G1X1.6771Y5.1677
G1X1.7210Y5.1069
G1X1.7343Y5.0835
G1X1.7357Y5.0802
G1X1.7370Y5.0779
G1X1.7400Y5.0749
G1X1.7523Y5.0618
G1X1.7636Y5.0480
G1X1.7857Y5.0201
G1X1.8045Y4.9979
G1X1.8518Y4.9430
G1X1.8831Y4.9077
G1X2.0558Y4.7332
G1X2.0892Y4.7044
G1X2.1210Y4.6778
G1X2.1504Y4.6543
G1X2.1723Y4.6373
G1X2.1857Y4.6261
G1X2.1970Y4.6166
G1X2.2136Y4.6038
G1X2.2368Y4.5855
G1X2.2445Y4.5794
G1X2.2591Y4.5690
G1X2.2747Y4.5578
G1X2.2849Y4.5497
G1X2.2913Y4.5440
G1X2.3517Y4.5030
G1X2.3990Y4.4719
G1X2.4470Y4.4421
G1X2.4946Y4.4143
G1X2.5403Y4.3892
G1X2.5671Y4.3746
G1X2.5794Y4.3657
G1X2.5826Y4.3639
G1X2.7018Y4.3060
G1X2.7130Y4.3017
G1X2.7619Y4.2801
G1X2.7899Y4.2678
G1X2.8041Y4.2628
G1X2.8138Y4.2595
G1X2.8314Y4.2516
G1X2.8493Y4.2438
G1X2.8560Y4.2414
G1X2.8643Y4.2395
G1X2.8741Y4.2362
G1X2.9006Y4.2260
G1X2.9382Y4.2106
G1X2.9648Y4.2005
G1X2.9882Y4.1928
G1X3.0165Y4.1847
G1X3.0945Y4.1621
G1X3.1084Y4.1578
G1X3.1780Y4.1411
G1X3.2321Y4.1287
G1X3.2860Y4.1176
G1X3.3400Y4.1077
G1X3.3946Y4.0989
G1X3.4501Y4.0912
G1X3.5070Y4.0846
G1X3.5656Y4.0789
G1X3.6263Y4.0742
G1X3.6929Y4.0706
G1X3.7592Y4.0687
G1X3.8003Y4.0687
G1X3.8429Y4.0696
G1X3.8867Y4.0715
G1X3.9314Y4.0743
G1X3.9770Y4.0779
G1X4.0232Y4.0824
G1X4.0698Y4.0878
G1X4.1166Y4.0939
G1X4.1635Y4.1008
G1X4.2102Y4.1084
G1X4.2565Y4.1168
G1X4.3023Y4.1258
G1X4.3472Y4.1355
G1X4.3913Y4.1458
G1X4.4342Y4.1568
G1X4.4757Y4.1683
G1X4.5628Y4.1940
G1X4.5876Y4.2018
G1X4.6010Y4.2066
G1X4.6278Y4.2176
G1X4.6435Y4.2239
G1X4.6974Y4.2440
G1X4.7445Y4.2623
G1X4.7820Y4.2780
G1X4.8321Y4.3002
G1X4.8516Y4.3086
G1X4.9129Y4.3387
G1X4.9503Y4.3575
G1X4.9886Y4.3777
G1X5.0271Y4.3987
G1X5.0649Y4.4201
G1X5.1010Y4.4413
G1X5.1347Y4.4619
G1X5.1651Y4.4815
G1X5.1913Y4.4993
G1X5.2526Y4.5416
G1X5.2731Y4.5557
G1X5.2832Y4.5635
G1X5.2909Y4.5698
G1X5.3055Y4.5802
G1X5.3201Y4.5906
G1X5.3278Y4.5968
G1X5.3371Y4.6047
G1X5.3556Y4.6192
G1X5.3835Y4.6415
G1X5.4030Y4.6575
G1X5.4254Y4.6757
G1X5.4559Y4.7017
G1X5.4921Y4.7331
G1X5.6649Y4.9060
G1X5.6871Y4.9312
G1X5.7343Y4.9869
G1X5.7621Y5.0201
G1X5.7843Y5.0480
G1X5.7991Y5.0662
G1X5.8095Y5.0763
G1X5.8103Y5.0774
G1X5.8109Y5.0782
G1X5.8139Y5.0845
G1X5.8294Y5.1090
G1X5.8296Y5.1091
G1X5.8442Y5.1273
G1X5.8538Y5.1411
G1X5.8667Y5.1569
G1X5.8704Y5.1608
G1X5.8719Y5.1625
G1X5.8731Y5.1643
G1X5.8744Y5.1666
G1X5.8756Y5.1691
G1X5.8927Y5.1946
G1X5.8947Y5.1970
G1X5.8963Y5.1996
G1X5.9005Y5.2069
G1X5.9067Y5.2189
G1X5.9127Y5.2278
G1X5.9253Y5.2456
G1X5.9420Y5.2720
G1X5.9612Y5.3048
G1X5.9737Y5.3207
G1X5.9741Y5.3213
G1X5.9751Y5.3233
G1X5.9806Y5.3375
G1X6.0071Y5.3849
G1X6.0368Y5.4408
G1X6.0690Y5.5047
G1X6.1031Y5.5743
G1X6.1186Y5.6077
G1X6.1332Y5.6411
G1X6.1465Y5.6745
G1X6.1575Y5.7032
G1X6.1664Y5.7251
G1X6.1740Y5.7423
G1X6.2201Y5.8806
G1X6.2291Y5.9140
G1X6.2672Y6.0643
G1X6.2741Y6.0978
G1X6.2859Y6.1534
G1X6.2907Y6.1786
G1X6.2962Y6.2114
G1X6.3076Y6.2927
G1X6.3199Y6.3873
G1X6.3266Y6.4375
G1X6.3269Y6.8050
G1X6.3200Y6.8607
G1X6.3072Y6.9616
G1X6.2963Y7.0378
G1X6.2859Y7.0992
G1X6.2744Y7.1559
G1X6.2696Y7.1782
G1X6.2346Y7.3229
G1X6.2247Y7.3536
G1X6.2061Y7.4121
G1X6.1837Y7.4787
G1X6.1628Y7.5360
G1X6.1504Y7.5665
G1X6.1392Y7.5958
G1X6.1275Y7.6237
G1X6.1091Y7.6641
G1X6.0618Y7.7632
G1X6.0160Y7.8544
G1X5.9995Y7.8851
G1X5.9940Y7.8946
G0Z0.5000
G0X3.8026Y4.0687
G1Z-0.2400F12.0
G1X3.7581F60.0
G1X3.6929Y4.0706
G1X3.6263Y4.0742
G1X3.5656Y4.0789
G1X3.5070Y4.0846
G1X3.4717Y4.0887
G1X4.0771
G1X4.1166Y4.0939
G1X4.1635Y4.1008
G1X4.2102Y4.1084
G1X4.2118Y4.1087
G1X3.3343
G1X3.2860Y4.1176
G1X3.2321Y4.1287
G1X3.2320Y4.1287
G1X4.3157
G1X4.3472Y4.1355
G1X4.3913Y4.1458
G1X4.4025Y4.1487
G1X3.1461
G1X3.1084Y4.1578
G1X3.0945Y4.1621
G1X3.0718Y4.1687
G1X4.4771
G1X4.5449Y4.1887
G1X3.0025
G1X2.9882Y4.1928
G1X2.9648Y4.2005
G1X2.9432Y4.2087
G1X4.6062
G1X4.6278Y4.2176
G1X4.6435Y4.2239
G1X4.6564Y4.2287
G1X2.8935
G1X2.8741Y4.2362
G1X2.8643Y4.2395
G1X2.8560Y4.2414
G1X2.8493Y4.2438
G1X2.8380Y4.2487
G1X4.7094
G1X4.7445Y4.2623
G1X4.7597Y4.2687
G1X2.7880
G1X2.7619Y4.2801
G1X2.7424Y4.2887
G1X4.8061
G1X4.8321Y4.3002
G1X4.8516Y4.3086
G1X4.8517Y4.3087
G1X2.6962
G1X2.6551Y4.3287
G1X4.8925
G1X4.9129Y4.3387
G1X4.9327Y4.3487
G1X2.6139
G1X2.5826Y4.3639
G1X2.5794Y4.3657
G1X2.5752Y4.3687
G1X4.9716
G1X4.9886Y4.3777
G1X5.0088Y4.3887
G1X2.5413
G1X2.5403Y4.3892
G1X2.5047Y4.4087
G1X5.0448
G1X5.0649Y4.4201
G1X5.0795Y4.4287
G1X2.4699
G1X2.4470Y4.4421
G1X2.4364Y4.4487
G1X5.1131
G1X5.1347Y4.4619
G1X5.1452Y4.4687
G1X2.4042
G1X2.3990Y4.4719
G1X2.3735Y4.4887
G1X5.1757
G1X5.1913Y4.4993
G1X5.2049Y4.5087
G1X2.3434
G1X2.3139Y4.5287
G1X5.2339
G1X5.2526Y4.5416
G1X5.2630Y4.5487
G1X2.2861
G1X2.2849Y4.5497
G1X2.2747Y4.5578
G1X2.2594Y4.5687
G1X5.2896
G1X5.2909Y4.5698
G1X5.3055Y4.5802
G1X5.3175Y4.5887
G1X2.2327
G1X2.2136Y4.6038
G1X2.2072Y4.6087
G1X5.3423
G1X5.3556Y4.6192
G1X5.3675Y4.6287
G1X2.1826
G1X2.1723Y4.6373
G1X2.1576Y4.6487
G1X5.3923
G1X5.4030Y4.6575
G1X5.4168Y4.6687
G1X2.1324
G1X2.1210Y4.6778
G1X2.1079Y4.6887
G1X5.4406
G1X5.4559Y4.7017
G1X5.4640Y4.7087
G1X2.0842
G1X2.0610Y4.7287
G1X5.4870
G1X5.4921Y4.7331
G1X5.5077Y4.7487
G1X2.0404
G1X2.0206Y4.7687
G1X5.5277
G1X5.5477Y4.7887
G1X2.0008
G1X1.9810Y4.8087
G1X5.5677
G1X5.5877Y4.8287
G1X1.9612
G1X1.9415Y4.8487
G1X5.6077
G1X5.6276Y4.8687
G1X1.9217
G1X1.9019Y4.8887
G1X5.6476
G1X5.6649Y4.9060
G1X5.6673Y4.9087
G1X1.8822
G1X1.8645Y4.9287
G1X5.6849
G1X5.6871Y4.9312
G1X5.7019Y4.9487
G1X1.8469
G1X1.8296Y4.9687
G1X5.7188
G1X5.7343Y4.9869
G1X5.7358Y4.9887
G1X1.8124
G1X1.8045Y4.9979
G1X1.7954Y5.0087
G1X5.7525
G1X5.7621Y5.0201
G1X5.7689Y5.0287
G1X1.7789
G1X1.7636Y5.0480
G1X1.7630Y5.0487
G1X5.7849
G1X5.7991Y5.0662
G1X5.8017Y5.0687
G1X1.7458
G1X1.7400Y5.0749
G1X1.7370Y5.0779
G1X1.7357Y5.0802
G1X1.7343Y5.0835
G1X1.7317Y5.0887
G1X5.8163
G1X5.8210Y5.0972
G1X5.8292Y5.1087
G1X1.7197
G1X1.7052Y5.1287
G1X5.8452
G1X5.8538Y5.1411
G1X5.8595Y5.1487
G1X1.6908
G1X1.6771Y5.1677
G1X1.6761Y5.1687
G1X5.8754
G1X5.8756Y5.1691
G1X5.8834Y5.1824
G1X5.8882Y5.1887
G1X1.6614
G1X1.6568Y5.1961
G1X1.6477Y5.2073
G1X1.6469Y5.2084
G1X1.6467Y5.2087
G1X5.9014
G1X5.9067Y5.2189
G1X5.9127Y5.2278
G1X5.9133Y5.2287
G1X1.6353
G1X1.6300Y5.2362
G1X1.6269Y5.2402
G1X1.6255Y5.2423
G1X1.6216Y5.2487
G1X5.9273
G1X5.9399Y5.2687
G1X1.6096
G1X1.5975Y5.2887
G1X5.9518
G1X5.9612Y5.3048
G1X5.9642Y5.3087
G1X1.5855
G1X1.5736Y5.3287
G1X5.9772
G1X5.9806Y5.3375
G1X5.9869Y5.3487
G1X1.5618
G1X1.5558Y5.3586
G1X1.5502Y5.3687
G1X5.9980
G1X6.0071Y5.3849
G1X6.0091Y5.3887
G1X1.5388
G1X1.5300Y5.4043
G1X1.5277Y5.4087
G1X6.0197
G1X6.0304Y5.4287
G1X1.5171
G1X1.5066Y5.4487
G1X6.0408
G1X6.0509Y5.4687
G1X1.4966
G1X1.4866Y5.4887
G1X6.0610
G1X6.0690Y5.5047
G1X6.0710Y5.5087
G1X1.4767
G1X1.4670Y5.5287
G1X6.0808
G1X6.0906Y5.5487
G1X1.4572
G1X1.4474Y5.5687
G1X6.1004Y5.5687
G1X6.1031Y5.5743
G1X6.1098Y5.5887
G1X1.4387
G1X1.4299Y5.6087
G1X6.1191
G1X6.1278Y5.6287
G1X1.4212
G1X1.4194Y5.6327
G1X1.4128Y5.6487
G1X6.1363
G1X6.1442Y5.6687
G1X1.4051
G1X1.3988Y5.6856
G1X1.3977Y5.6887
G1X6.1520
G1X6.1575Y5.7032
G1X6.1597Y5.7087
G1X1.3905
G1X1.3899Y5.7102
G1X1.3824Y5.7287
G1X6.1680
G1X6.1740Y5.7423
G1X6.1761Y5.7487
G1X1.3735
G1X1.3669Y5.7687
G1X6.1828
G1X6.1895Y5.7887
G1X1.3602
G1X1.3535Y5.8087
G1X6.1962
G1X6.2028Y5.8287
G1X1.3468
G1X1.3401Y5.8487
G1X6.2095
G1X6.2162Y5.8687
G1X1.3334
G1X1.3332Y5.8694
G1X1.3283Y5.8875
G1X1.3280Y5.8887
G1X6.2223
G1X6.2277Y5.9087
G1X1.3224
G1X1.3182Y5.9237
G1X1.3168Y5.9287
G1X6.2328
G1X6.2379Y5.9487
G1X1.3113
G1X1.3058Y5.9687
G1X6.2430
G1X6.2480Y5.9887
G1X1.3007
G1X1.2956Y6.0087
G1X6.2531
G1X6.2582Y6.0287
G1X1.2907
G1X1.2859Y6.0487
G1X6.2632
G1X6.2672Y6.0643
G1X6.2681Y6.0687
G1X1.2812
G1X1.2768Y6.0887
G1X6.2723
G1X6.2741Y6.0978
G1X6.2764Y6.1087
G1X1.2724
G1X1.2717Y6.1120
G1X1.2683Y6.1287
G1X6.2807
G1X6.2849Y6.1487
G1X1.2643
G1X1.2621Y6.1592
G1X1.2604Y6.1687
G1X6.2888
G1X6.2907Y6.1786
G1X6.2924Y6.1887
G1X1.2567
G1X1.2537Y6.2050
G1X1.2531Y6.2087
G1X6.2957
G1X6.2962Y6.2114
G1X6.2986Y6.2287
G1X1.2498
G1X1.2465Y6.2487
G1X6.3014
G1X6.3042Y6.2687
G1X1.2437
G1X1.2409Y6.2887
G1X6.3070
G1X6.3076Y6.2927
G1X6.3097Y6.3087
G1X1.2383
G1X1.2358Y6.3287
G1X6.3123
G1X6.3149Y6.3487
G1X1.2332
G1X1.2306Y6.3687
G1X6.3175
G1X6.3199Y6.3873
G1X6.3201Y6.3887
G1X1.2282
G1X1.2267Y6.4038
G1X1.2263Y6.4087
G1X6.3228
G1X6.3254Y6.4287
G1X1.2249
G1X1.2248Y6.4308
G1X1.2240Y6.4487
G1X6.3266
G1X6.3266Y6.4687
G1X1.2234
G1X1.2231Y6.4862
G1X1.2231Y6.4887
G1X6.3266
G1X6.3267Y6.5087
G1X1.2223
G1X1.2223Y6.5092
G1X1.2196Y6.5238
G1X1.2182Y6.5287
G1X6.3267
G1X6.3267Y6.5487
G1X1.2121
G1X1.2120Y6.5505
G1Y6.5687
G1X6.3267
G1X6.3267Y6.5887
G1X1.2120
G1Y6.6087
G1X6.3267
G1X6.3268Y6.6287
G1X1.2120
G1Y6.6487
G1X6.3268
G1X6.3268Y6.6687
G1X1.2120
G1Y6.6887
G1X6.3268
G1X6.3268Y6.7087
G1X1.2128
G1X1.2154Y6.7157
G1X1.2193Y6.7287
G1X6.3268
G1X6.3269Y6.7487
G1X1.2225
G1X1.2231Y6.7591
G1Y6.7644
G1X1.2232Y6.7687
G1X6.3269
G1X6.3269Y6.7887
G1X1.2236
G1X1.2236Y6.7902
G1X1.2244Y6.8087
G1X6.3264
G1X6.3240Y6.8287
G1X1.2255
G1X1.2267Y6.8458
G1X1.2270Y6.8487
G1X6.3215
G1X6.3200Y6.8607
G1X6.3190Y6.8687
G1X1.2289
G1X1.2290Y6.8688
G1X1.2315Y6.8887
G1X6.3165
G1X6.3139Y6.9087
G1X1.2340
G1X1.2365Y6.9287
G1X6.3114
G1X6.3088Y6.9487
G1X1.2390
G1X1.2401Y6.9573
G1X1.2417Y6.9687
G1X6.3062
G1X6.3033Y6.9887
G1X1.2445
G1X1.2473Y7.0087
G1X6.3004
G1X6.2976Y7.0287
G1X1.2501
G1X1.2534Y7.0487
G1X6.2944
G1X6.2911Y7.0687
G1X1.2567
G1X1.2575Y7.0736
G1X1.2606Y7.0887
G1X6.2877
G1X6.2859Y7.0992
G1X6.2840Y7.1087
G1X1.2648
G1X1.2693Y7.1287
G1X6.2799
G1X6.2759Y7.1487
G1X1.2738
G1X1.2783Y7.1687
G1X6.2716
G1X6.2696Y7.1782
G1X6.2670Y7.1887
G1X1.2829
G1X1.2874Y7.2087
G1X6.2622
G1X6.2573Y7.2287
G1X1.2921
G1X1.2971Y7.2487
G1X6.2525
G1X6.2477Y7.2687
G1X1.3022
G1X1.3074Y7.2887
G1X6.2429
G1X6.2380Y7.3087
G1X1.3125
G1X1.3143Y7.3157
G1X1.3181Y7.3287
G1X6.2327
G1X6.2263Y7.3487
G1X1.3238
G1X1.3300Y7.3687
G1X6.2199
G1X6.2135Y7.3887
G1X1.3361
G1X1.3399Y7.4009
G1X1.3423Y7.4087
G1X6.2072
G1X6.2061Y7.4121
G1X6.2005Y7.4287
G1X1.3487
G1X1.3497Y7.4317
G1X1.3559Y7.4487
G1X6.1938
G1X6.1871Y7.4687
G1X1.3635
G1X1.3699Y7.4872
G1X1.3704Y7.4887
G1X6.1801
G1X6.1728Y7.5087
G1X1.3774
G1X1.3805Y7.5177
G1X1.3846Y7.5287
G1X6.1655
G1X6.1628Y7.5360
G1X6.1576Y7.5487
G1X1.3920
G1X1.3947Y7.5559
G1X1.3997Y7.5687
G1X6.1496
G1X6.1419Y7.5887
G1X1.4076
G1X1.4104Y7.5959
G1X1.4157Y7.6087
G1X6.1338
G1X6.1275Y7.6237
G1X6.1252Y7.6287
G1X1.4239
G1X1.4253Y7.6320
G1X1.4327Y7.6487
G1X6.1161
G1X6.1091Y7.6641
G1X6.1069Y7.6687
G1X1.4415
G1X1.4504Y7.6887
G1X6.0974
G1X6.0878Y7.7087
G1X1.4598
G1X1.4692Y7.7287
G1X6.0783
G1X6.0687Y7.7487
G1X1.4786
G1X1.4885Y7.7687
G1X6.0590
G1X6.0490Y7.7887
G1X1.4984
G1X1.5051Y7.8021
G1X1.5086Y7.8087
G1X6.0389
G1X6.0289Y7.8287
G1X1.5194
G1X1.5274Y7.8437
G1X1.5303Y7.8487
G1X6.0188
G1X6.0160Y7.8544
G1X6.0083Y7.8687
G1X1.5420
G1X1.5538Y7.8887
G1X5.9974
G1X5.9940Y7.8946
G1X5.9905Y7.8993
G1X5.9846Y7.9075
G1X5.9839Y7.9087
G1X1.5658
G1X1.5779Y7.9287
G1X5.9724
G1X5.9691Y7.9349
G1X5.9645Y7.9453
G1X5.9640Y7.9464
G1X5.9629Y7.9487
G1X1.5901
G1X1.5906Y7.9496
G1X1.6026Y7.9687
G1X5.9501
G1X5.9367Y7.9887
G1X1.6151
G1X1.6243Y8.0033
G1X1.6278Y8.0087
G1X5.9234
G1X5.9100Y8.0287
G1X1.6407
G1X1.6536Y8.0487
G1X5.8967
G1X5.8833Y8.0687
G1X1.6669
G1X1.6802Y8.0887
G1X5.8700
G1X5.8566Y8.1087
G1X1.6938
G1X1.7077Y8.1287
G1X5.8402
G1X5.8378Y8.1312
G1X5.8254Y8.1487
G1X1.7217
G1X1.7364Y8.1687
G1X5.8110
G1X5.7963Y8.1887
G1X1.7516
G1X1.7652Y8.2056
G1X1.7677Y8.2087
G1X5.7804
G1X5.7678Y8.2237
G1X5.7638Y8.2287
G1X1.7840
G1X1.7968Y8.2445
G1X1.8003Y8.2487
G1X5.7479
G1X5.7351Y8.2648
G1X5.7316Y8.2687
G1X1.8169
G1X1.8206Y8.2731
G1X1.8345Y8.2887
G1X5.7137
G1X5.7084Y8.2946
G1X5.6962Y8.3087
G1X1.8523
G1X1.8533Y8.3099
G1X1.8707Y8.3287
G1X5.6790
G1X5.6621Y8.3487
G1X1.8892
G1X1.8921Y8.3519
G1X1.9081Y8.3687
G1X5.6436
G1X5.6236Y8.3887
G1X1.9271
G1X1.9343Y8.3962
G1X1.9464Y8.4087
G1X5.6036
G1X5.5837Y8.4287
G1X1.9659
G1X1.9770Y8.4401
G1X1.9856Y8.4487
G1X5.5637
G1X5.5437Y8.4687
G1X2.0056
G1X2.0175Y8.4806
G1X2.0260Y8.4887
G1X5.5237
G1X5.5037Y8.5087
G1X2.0468
G1X2.0531Y8.5148
G1X2.0686Y8.5287
G1X5.4801
G1X5.4670Y8.5397
G1X5.4566Y8.5487
G1X2.0913
G1X2.1148Y8.5687
G1X5.4336
G1X5.4225Y8.5788
G1X5.4112Y8.5887
G1X2.1387
G1X2.1418Y8.5912
G1X2.1641Y8.6087
G1X5.3859
G1X5.3768Y8.6158
G1X5.3614Y8.6287
G1X2.1893
G1X2.1973Y8.6351
G1X2.2133Y8.6487
G1X5.3359
G1X5.3111Y8.6669
G1X5.3085Y8.6687
G1X2.2424
G1X2.2426Y8.6688
G1X2.2543Y8.6784
G1X2.2683Y8.6887
G1X5.2803
G1X5.2799Y8.6890
G1X5.2692Y8.6990
G1X5.2668Y8.7009
G1X5.2554Y8.7087
G1X2.2937
G1X2.2953Y8.7102
G1X2.2977Y8.7120
G1X2.3217Y8.7287
G1X5.2264
G1X5.1974Y8.7487
G1X2.3506
G1X2.3794Y8.7687
G1X5.1684
G1X5.1489Y8.7821
G1X5.1376Y8.7887
G1X2.4089
G1X2.4110Y8.7901
G1X2.4157Y8.7937
G1X2.4181Y8.7954
G1X2.4245Y8.7978
G1X2.4344Y8.8022
G1X2.4439Y8.8074
G1X2.4460Y8.8087
G1X5.1042
G1X5.0911Y8.8165
G1X5.0702Y8.8287
G1X2.4794
G1X2.5134Y8.8487
G1X5.0360
G1X5.0270Y8.8540
G1X5.0020Y8.8683
G1X5.0012Y8.8687
G1X2.5491
G1X2.5881Y8.8887
G1X4.9607
G1X4.9203Y8.9087
G1X2.6271
G1X2.6661Y8.9287
G1X4.8798
G1X4.8393Y8.9487
G1X2.7106
G1X2.7281Y8.9562
G1X2.7552Y8.9687
G1X4.7929
G1X4.7681Y8.9797
G1X4.7473Y8.9887
G1X2.8058
G1X2.8230Y8.9957
G1X2.8545Y9.0087
G1X4.6946
G1X4.6807Y9.0144
G1X4.6435Y9.0287
G1X2.9050
G1X2.9441Y9.0439
G1X2.9574Y9.0487
G1X4.5901
G1X4.5780Y9.0529
G1X4.5438Y9.0637
G1X4.5264Y9.0687
G1X3.0242
G1X3.0610Y9.0795
G1X3.0937Y9.0887
G1X4.4567
G1X4.3806Y9.1087
G1X3.1702
G1X3.2175Y9.1200
G1X3.2583Y9.1287
G1X4.2911
G1X4.2529Y9.1362
G1X4.1989Y9.1458
G1X4.1802Y9.1487
G1X3.3661
G1X3.4272Y9.1579
G1X3.4648Y9.1634
G1X3.5248Y9.1687
G1X4.0230
G1X3.8330Y9.1857
G1X3.7149
G0Z0.5000
G0X5.9940Y7.8946
G1Z-0.2400F12.0
G1X5.9905Y7.8993F60.0
G1X5.9846Y7.9075
